;FLAVOR:Marlin
;TIME:229
;Filament used: 0.0820981m
;Layer height: 0.15
;MINX:90.27
;MINY:91.602
;MINZ:0.3
;MAXX:109.718
;MAXY:108.375
;MAXZ:7.95
;Generated with Cura_SteamEngine 4.12.1
M140 S90
M105
M190 S90
M104 S235
M105
M109 S235
M82 ;absolute extrusion mode
G21 ;metric values
G90 ;absolute positioning
M82 ;set extruder to absolute mode
M107 ;start with the fan off
G28 X0 Y0 ;move X/Y to min endstops
G28 Z0 ;move Z to min endstops
G1 Z15.0 F9000 ;move the platform down 15mm
G92 E0 ;zero the extruded length
G1 F200 E6 ;extrude 6 mm of feed stock
G92 E0 ;zero the extruded length again
G1 F9000
;Put printing message on LCD screen
M117 Printing...
G92 E0
G92 E0
G1 F3000 E-5
;LAYER_COUNT:52
;LAYER:0
M107
G0 F3600 X92.337 Y96.166 Z0.3
;TYPE:SKIRT
G1 F3000 E0
G1 F1800 X92.799 Y95.757 E0.03078
G1 X94.201 Y94.554 E0.12295
G1 X95.604 Y93.289 E0.2172
G1 X96.044 Y92.923 E0.24575
G1 X96.569 Y92.549 E0.27791
G1 X97.378 Y92.135 E0.32325
G1 X97.624 Y92.034 E0.33652
G1 X98.234 Y91.826 E0.36867
G1 X99.062 Y91.672 E0.41069
G1 X99.745 Y91.62 E0.44486
G1 X100.769 Y91.602 E0.49596
G1 X102.424 Y91.603 E0.57852
G1 X103.14 Y91.615 E0.61425
G1 X103.379 Y91.626 E0.62619
G1 X104.02 Y91.696 E0.65836
G1 X104.535 Y91.812 E0.68469
G1 X104.851 Y91.9 E0.70106
G1 X105.46 Y92.111 E0.73321
G1 X106.036 Y92.394 E0.76523
G1 X106.211 Y92.494 E0.77529
G1 X106.75 Y92.848 E0.80746
G1 X107.148 Y93.178 E0.83325
G1 X107.331 Y93.346 E0.84565
G1 X107.778 Y93.811 E0.87783
G1 X108.176 Y94.347 E0.91113
G1 X108.261 Y94.478 E0.91892
G1 X108.616 Y95.12 E0.95552
G1 X108.712 Y95.327 E0.96691
G1 X108.974 Y96.016 E1.00368
G1 X109.217 Y96.825 E1.04583
G1 X109.416 Y97.522 E1.08199
G1 X109.49 Y97.793 E1.096
G1 X109.612 Y98.363 E1.12509
G1 X109.657 Y98.652 E1.13968
G1 X109.718 Y99.577 E1.18593
G1 X109.714 Y99.744 E1.19426
G1 X109.601 Y100.702 E1.24239
G1 X109.437 Y101.371 E1.27675
G1 X109.369 Y101.591 E1.28824
G1 X109.141 Y102.194 E1.3204
G1 X108.868 Y102.722 E1.35006
G1 X108.346 Y103.495 E1.39659
G1 X108.204 Y103.669 E1.4078
G1 X107.808 Y104.101 E1.43703
G1 X107.347 Y104.536 E1.46866
G1 X105.883 Y105.765 E1.56402
G1 X105.365 Y106.149 E1.59619
G1 X104.803 Y106.465 E1.62836
G1 X104.28 Y106.69 E1.65676
G1 X103.413 Y106.956 E1.70201
G1 X100.708 Y107.535 E1.84002
G1 X98.598 Y108.056 E1.94845
G1 X97.833 Y108.234 E1.98763
G1 X97.198 Y108.341 E2.01976
G1 X96.626 Y108.375 E2.04835
G1 X95.981 Y108.361 E2.08053
G1 X95.288 Y108.261 E2.11547
G1 X94.661 Y108.111 E2.14763
G1 X94.097 Y107.902 E2.17764
G1 X93.871 Y107.803 E2.18995
G1 X93.297 Y107.508 E2.22214
G1 X92.833 Y107.197 E2.25001
G1 X92.656 Y107.064 E2.26106
G1 X91.955 Y106.43 E2.30821
G1 X91.92 Y106.392 E2.31079
G1 X91.548 Y105.939 E2.34003
G1 X91.409 Y105.749 E2.35178
G1 X90.983 Y105.06 E2.39219
G1 X90.966 Y105.027 E2.39405
G1 X90.678 Y104.355 E2.43052
G1 X90.591 Y104.105 E2.44373
G1 X90.417 Y103.484 E2.4759
G1 X90.313 Y102.73 E2.51388
G1 X90.274 Y102.02 E2.54935
G1 X90.27 Y101.442 E2.57819
G1 X90.279 Y100.832 E2.60862
G1 X90.295 Y100.41 E2.62969
G1 X90.365 Y99.769 E2.66186
G1 X90.491 Y99.196 E2.69113
G1 X90.681 Y98.58 E2.72329
G1 X90.981 Y97.926 E2.75919
G1 X91.095 Y97.717 E2.77107
G1 X91.438 Y97.171 E2.80324
G1 X91.798 Y96.719 E2.83207
G1 X92.337 Y96.166 E2.87059
G0 F3600 X92.602 Y96.466
G1 F1800 X93.06 Y96.061 E2.90109
G1 X94.446 Y94.871 E2.99223
G1 X95.872 Y93.586 E3.088
G1 X96.296 Y93.234 E3.11549
G1 X96.801 Y92.876 E3.14638
G1 X97.53 Y92.505 E3.18718
G1 X97.776 Y92.404 E3.20045
G1 X98.363 Y92.206 E3.23136
G1 X99.104 Y92.07 E3.26894
G1 X99.752 Y92.02 E3.30137
G1 X100.769 Y92.002 E3.35212
G1 X102.419 Y92.003 E3.43443
G1 X102.971 Y92.011 E3.46198
G1 X103.361 Y92.026 E3.48145
G1 X103.976 Y92.094 E3.51232
G1 X104.744 Y92.285 E3.5518
G1 X105.328 Y92.489 E3.58266
G1 X105.837 Y92.741 E3.611
G1 X106.012 Y92.841 E3.62106
G1 X106.529 Y93.183 E3.65198
G1 X107.06 Y93.641 E3.68697
G1 X107.488 Y94.088 E3.71784
G1 X107.841 Y94.564 E3.74741
G1 X107.926 Y94.695 E3.7552
G1 X108.254 Y95.289 E3.78905
G1 X108.35 Y95.496 E3.80043
G1 X108.591 Y96.132 E3.83437
G1 X108.833 Y96.935 E3.87621
G1 X109.03 Y97.628 E3.91215
G1 X109.104 Y97.899 E3.92617
G1 X109.217 Y98.424 E3.95296
G1 X109.262 Y98.713 E3.96755
G1 X109.318 Y99.567 E4.01025
G1 X109.314 Y99.734 E4.01858
G1 X109.21 Y100.619 E4.06304
G1 X109.055 Y101.252 E4.09555
G1 X108.987 Y101.472 E4.10704
G1 X108.766 Y102.051 E4.13796
G1 X108.518 Y102.529 E4.16483
G1 X108.036 Y103.242 E4.20776
G1 X107.894 Y103.416 E4.21897
G1 X107.529 Y103.815 E4.24595
G1 X107.087 Y104.233 E4.2763
G1 X105.626 Y105.459 E4.37145
G1 X105.127 Y105.826 E4.40235
G1 X104.341 Y106.233 E4.44651
G1 X104.129 Y106.319 E4.45793
G1 X103.33 Y106.565 E4.49964
G1 X100.619 Y107.145 E4.63795
G1 X98.508 Y107.666 E4.74643
G1 X97.743 Y107.844 E4.78561
G1 X96.852 Y107.965 E4.83047
G1 X96.609 Y107.975 E4.84261
G1 X95.99 Y107.96 E4.8735
G1 X95.357 Y107.867 E4.90542
G1 X94.755 Y107.722 E4.93631
G1 X94.257 Y107.536 E4.96283
G1 X94.031 Y107.437 E4.97514
G1 X93.481 Y107.152 E5.00605
G1 X92.897 Y106.744 E5.04159
G1 X92.249 Y106.159 E5.08514
G1 X92.214 Y106.121 E5.08772
G1 X91.871 Y105.703 E5.1147
G1 X91.732 Y105.513 E5.12644
G1 X91.339 Y104.877 E5.16374
G1 X91.322 Y104.844 E5.16559
G1 X91.056 Y104.224 E5.19925
G1 X90.969 Y103.974 E5.21246
G1 X90.803 Y103.377 E5.24337
G1 X90.712 Y102.704 E5.27725
G1 X90.673 Y102.014 E5.31173
G1 X90.67 Y101.442 E5.34027
G1 X90.679 Y100.838 E5.37041
G1 X90.695 Y100.428 E5.39088
G1 X90.824 Y99.522 E5.43653
G1 X90.88 Y99.29 E5.44844
G1 X91.064 Y98.698 E5.47937
G1 X91.332 Y98.118 E5.51124
G1 X91.446 Y97.909 E5.52312
G1 X91.777 Y97.385 E5.55404
G1 X92.105 Y96.976 E5.5802
G1 X92.602 Y96.466 E5.61573
G0 F3600 X92.867 Y96.765
G1 F1800 X93.32 Y96.364 E5.64591
G1 X94.734 Y95.15 E5.73889
G1 X96.14 Y93.883 E5.83331
G1 X96.548 Y93.544 E5.85978
G1 X97.033 Y93.203 E5.88936
G1 X97.682 Y92.875 E5.92564
G1 X97.928 Y92.774 E5.9389
G1 X98.49 Y92.586 E5.96847
G1 X99.145 Y92.467 E6.00168
G1 X99.759 Y92.42 E6.0324
G1 X100.769 Y92.402 E6.0828
G1 X102.413 Y92.402 E6.16482
G1 X102.965 Y92.41 E6.19236
G1 X103.342 Y92.426 E6.21119
G1 X103.931 Y92.493 E6.24076
G1 X104.636 Y92.67 E6.27703
G1 X105.196 Y92.867 E6.30664
G1 X105.814 Y93.189 E6.34141
G1 X106.308 Y93.517 E6.37099
G1 X106.79 Y93.936 E6.40286
G1 X107.198 Y94.365 E6.43239
G1 X107.505 Y94.782 E6.45823
G1 X107.59 Y94.913 E6.46602
G1 X107.891 Y95.457 E6.49704
G1 X107.987 Y95.664 E6.50842
G1 X108.208 Y96.247 E6.53953
G1 X108.448 Y97.045 E6.5811
G1 X108.645 Y97.733 E6.6168
G1 X108.822 Y98.486 E6.65539
G1 X108.867 Y98.775 E6.66999
G1 X108.918 Y99.557 E6.70908
G1 X108.914 Y99.724 E6.71742
G1 X108.818 Y100.535 E6.75816
G1 X108.673 Y101.134 E6.78891
G1 X108.605 Y101.354 E6.8004
G1 X108.392 Y101.908 E6.83001
G1 X108.168 Y102.335 E6.85406
G1 X107.726 Y102.989 E6.89345
G1 X107.249 Y103.529 E6.92939
G1 X106.826 Y103.929 E6.95844
G1 X105.368 Y105.153 E7.05341
G1 X104.89 Y105.503 E7.08297
G1 X104.191 Y105.862 E7.12217
G1 X103.979 Y105.948 E7.13359
G1 X103.246 Y106.174 E7.17185
G1 X100.536 Y106.754 E7.31012
G1 X98.417 Y107.277 E7.41901
G1 X97.652 Y107.455 E7.45819
G1 X96.836 Y107.565 E7.49927
G1 X96.593 Y107.575 E7.51141
G1 X96 Y107.56 E7.541
G1 X95.426 Y107.473 E7.56996
G1 X94.85 Y107.332 E7.59955
G1 X94.192 Y107.07 E7.63488
G1 X93.666 Y106.796 E7.66447
G1 X93.137 Y106.425 E7.69671
G1 X92.544 Y105.888 E7.73662
G1 X92.194 Y105.467 E7.76393
G1 X92.055 Y105.277 E7.77568
G1 X91.695 Y104.694 E7.80986
G1 X91.678 Y104.661 E7.81172
G1 X91.433 Y104.092 E7.84262
G1 X91.346 Y103.842 E7.85583
G1 X91.19 Y103.27 E7.88541
G1 X91.111 Y102.678 E7.91521
G1 X91.073 Y102.008 E7.94869
G1 X91.07 Y101.376 E7.98022
G1 X91.078 Y100.844 E8.00676
G1 X91.095 Y100.447 E8.02659
G1 X91.213 Y99.616 E8.06846
G1 X91.269 Y99.384 E8.08037
G1 X91.446 Y98.818 E8.10995
G1 X91.683 Y98.309 E8.13797
G1 X91.797 Y98.1 E8.14984
G1 X92.287 Y97.381 E8.19325
G1 X92.411 Y97.233 E8.20289
G1 X92.867 Y96.765 E8.23548
G0 F3600 X93.132 Y97.064
G1 F1800 X93.581 Y96.668 E8.26535
G1 X94.979 Y95.468 E8.35727
G1 X96.408 Y94.18 E8.45325
G1 X96.8 Y93.855 E8.47865
G1 X97.489 Y93.406 E8.51968
G1 X98.08 Y93.144 E8.55193
G1 X98.617 Y92.967 E8.58014
G1 X99.186 Y92.865 E8.60898
G1 X99.767 Y92.82 E8.63806
G1 X100.769 Y92.802 E8.68805
G1 X102.407 Y92.802 E8.76977
G1 X102.959 Y92.81 E8.79732
G1 X103.324 Y92.825 E8.81554
G1 X103.885 Y92.891 E8.84372
G1 X104.529 Y93.056 E8.87689
G1 X105.062 Y93.245 E8.9051
G1 X105.616 Y93.536 E8.93632
G1 X106.085 Y93.85 E8.96448
G1 X106.519 Y94.23 E8.99326
G1 X106.907 Y94.641 E9.02146
G1 X107.255 Y95.131 E9.05145
G1 X107.528 Y95.625 E9.0796
G1 X107.624 Y95.832 E9.09099
G1 X107.825 Y96.362 E9.11927
G1 X108.064 Y97.156 E9.16064
G1 X108.259 Y97.838 E9.19602
G1 X108.426 Y98.548 E9.23241
G1 X108.471 Y98.837 E9.24701
G1 X108.518 Y99.548 E9.28255
G1 X108.514 Y99.715 E9.29089
G1 X108.427 Y100.452 E9.32791
G1 X108.291 Y101.016 E9.35686
G1 X108.223 Y101.236 E9.36835
G1 X107.902 Y101.99 E9.40923
G1 X107.818 Y102.142 E9.41789
G1 X107.416 Y102.736 E9.45368
G1 X106.97 Y103.243 E9.48737
G1 X106.566 Y103.626 E9.51514
G1 X106.04 Y104.065 E9.54932
G1 X105.111 Y104.847 E9.6099
G1 X104.654 Y105.179 E9.63808
G1 X104.041 Y105.492 E9.67242
G1 X103.829 Y105.578 E9.68384
G1 X103.162 Y105.782 E9.71864
G1 X100.46 Y106.36 E9.85649
G1 X98.327 Y106.887 E9.9661
G1 X97.562 Y107.065 E10.00529
G1 X96.819 Y107.166 E10.0427
G1 X96.576 Y107.176 E10.05483
G1 X96.011 Y107.159 E10.08303
G1 X95.495 Y107.079 E10.10908
G1 X94.946 Y106.943 E10.1373
G1 X94.352 Y106.704 E10.16925
G1 X93.852 Y106.441 E10.19743
G1 X93.377 Y106.105 E10.22646
G1 X92.838 Y105.617 E10.26273
G1 X92.517 Y105.231 E10.28778
G1 X92.378 Y105.041 E10.29952
G1 X92.05 Y104.511 E10.33062
G1 X92.033 Y104.478 E10.33247
G1 X91.811 Y103.961 E10.36054
G1 X91.724 Y103.711 E10.37375
G1 X91.577 Y103.165 E10.40196
G1 X91.51 Y102.653 E10.42772
G1 X91.473 Y102.003 E10.4602
G1 X91.47 Y101.382 E10.49118
G1 X91.478 Y100.85 E10.51773
G1 X91.494 Y100.465 E10.53695
G1 X91.602 Y99.709 E10.57505
G1 X91.658 Y99.477 E10.58696
G1 X91.829 Y98.939 E10.61512
G1 X92.148 Y98.292 E10.65111
G1 X92.594 Y97.638 E10.69061
G1 X92.718 Y97.49 E10.70024
G1 X93.132 Y97.064 E10.72988
G0 F3600 X93.397 Y97.364
G1 F1800 X93.841 Y96.971 E10.75946
G1 X95.267 Y95.747 E10.85321
G1 X96.676 Y94.477 E10.94785
G1 X97.051 Y94.166 E10.97216
G1 X97.672 Y93.762 E11.00912
G1 X98.232 Y93.514 E11.03967
G1 X98.742 Y93.348 E11.06643
G1 X99.469 Y93.238 E11.10311
G1 X99.774 Y93.22 E11.11836
G1 X100.769 Y93.202 E11.16801
G1 X102.401 Y93.202 E11.24943
G1 X102.953 Y93.21 E11.27697
G1 X103.306 Y93.225 E11.2946
G1 X103.838 Y93.289 E11.32133
G1 X104.422 Y93.441 E11.35144
G1 X104.926 Y93.623 E11.37817
G1 X105.417 Y93.883 E11.40589
G1 X106.066 Y94.357 E11.44598
G1 X106.249 Y94.525 E11.45838
G1 X106.616 Y94.916 E11.48513
G1 X106.919 Y95.348 E11.51146
G1 X107.165 Y95.793 E11.53682
G1 X107.261 Y96 E11.54821
G1 X107.442 Y96.478 E11.57371
G1 X107.679 Y97.266 E11.61476
G1 X107.873 Y97.944 E11.64994
G1 X108.031 Y98.609 E11.68404
G1 X108.076 Y98.898 E11.69864
G1 X108.118 Y99.538 E11.73063
G1 X108.114 Y99.705 E11.73897
G1 X108.036 Y100.369 E11.77232
G1 X107.908 Y100.898 E11.79948
G1 X107.84 Y101.118 E11.81097
G1 X107.552 Y101.796 E11.84772
G1 X107.468 Y101.948 E11.85638
G1 X107.106 Y102.483 E11.88861
G1 X106.69 Y102.956 E11.92003
G1 X106.305 Y103.322 E11.94654
G1 X104.854 Y104.541 E12.04108
G1 X104.419 Y104.854 E12.06782
G1 X103.89 Y105.121 E12.09738
G1 X103.678 Y105.207 E12.1088
G1 X103.078 Y105.391 E12.14011
G1 X100.378 Y105.969 E12.27786
G1 X98.236 Y106.497 E12.38792
G1 X97.471 Y106.675 E12.42711
G1 X96.803 Y106.766 E12.46074
G1 X96.56 Y106.776 E12.47288
G1 X95.793 Y106.725 E12.51123
G1 X95.564 Y106.685 E12.52283
G1 X95.044 Y106.554 E12.54958
G1 X94.513 Y106.337 E12.5782
G1 X94.039 Y106.086 E12.60496
G1 X93.617 Y105.785 E12.63082
G1 X93.132 Y105.346 E12.66345
G1 X92.701 Y104.805 E12.69796
G1 X92.406 Y104.328 E12.72594
G1 X92.389 Y104.295 E12.7278
G1 X92.189 Y103.829 E12.7531
G1 X92.102 Y103.579 E12.7663
G1 X91.964 Y103.061 E12.79305
G1 X91.88 Y102.176 E12.8374
G1 X91.87 Y101.388 E12.87671
G1 X91.878 Y100.856 E12.90326
G1 X91.894 Y100.483 E12.92189
G1 X91.991 Y99.803 E12.95615
G1 X92.047 Y99.571 E12.96806
G1 X92.211 Y99.061 E12.99479
G1 X92.5 Y98.483 E13.02703
G1 X92.901 Y97.895 E13.06254
G1 X93.025 Y97.747 E13.07217
G1 X93.397 Y97.364 E13.09881
G0 F3600 X93.662 Y97.663
G1 F1800 X94.102 Y97.275 E13.12807
G1 X95.512 Y96.065 E13.22077
G1 X96.944 Y94.774 E13.31696
G1 X97.303 Y94.477 E13.34021
G1 X97.854 Y94.117 E13.37304
G1 X98.384 Y93.884 E13.40193
G1 X98.865 Y93.729 E13.42714
G1 X99.51 Y93.636 E13.45965
G1 X99.781 Y93.62 E13.47319
G1 X100.769 Y93.602 E13.52249
G1 X102.395 Y93.602 E13.60362
G1 X103.048 Y93.613 E13.6362
G1 X103.287 Y93.624 E13.64814
G1 X103.998 Y93.738 E13.68406
G1 X104.314 Y93.826 E13.70043
G1 X104.789 Y94 E13.72566
G1 X105.219 Y94.231 E13.75002
G1 X105.795 Y94.652 E13.78561
G1 X105.978 Y94.82 E13.798
G1 X106.322 Y95.19 E13.82321
G1 X106.583 Y95.566 E13.84604
G1 X106.898 Y96.169 E13.87999
G1 X107.059 Y96.593 E13.90261
G1 X107.295 Y97.376 E13.94341
G1 X107.487 Y98.049 E13.97833
G1 X107.636 Y98.671 E14.01024
G1 X107.681 Y98.96 E14.02483
G1 X107.718 Y99.529 E14.05328
G1 X107.714 Y99.696 E14.06161
G1 X107.645 Y100.286 E14.09125
G1 X107.526 Y100.78 E14.1166
G1 X107.458 Y101 E14.12809
G1 X107.202 Y101.603 E14.16077
G1 X107.118 Y101.755 E14.16943
G1 X106.796 Y102.23 E14.19806
G1 X106.411 Y102.67 E14.22723
G1 X106.045 Y103.018 E14.25243
G1 X104.596 Y104.234 E14.3468
G1 X104.185 Y104.528 E14.37201
G1 X103.528 Y104.836 E14.40821
G1 X102.995 Y105 E14.43604
G1 X100.288 Y105.579 E14.57414
G1 X98.145 Y106.108 E14.68427
G1 X97.38 Y106.286 E14.72345
G1 X96.787 Y106.366 E14.7533
G1 X96.544 Y106.376 E14.76544
G1 X95.861 Y106.331 E14.79959
G1 X95.632 Y106.291 E14.81119
G1 X95.143 Y106.165 E14.83638
G1 X94.673 Y105.971 E14.86175
G1 X94.035 Y105.598 E14.89862
G1 X93.858 Y105.465 E14.90966
G1 X93.426 Y105.075 E14.9387
G1 X93.023 Y104.568 E14.97101
G1 X92.744 Y104.111 E14.99772
G1 X92.48 Y103.448 E15.03333
G1 X92.352 Y102.959 E15.05854
G1 X92.28 Y102.15 E15.09906
G1 X92.27 Y101.394 E15.13679
G1 X92.281 Y100.764 E15.16822
G1 X92.293 Y100.502 E15.18131
G1 X92.379 Y99.897 E15.21179
G1 X92.435 Y99.665 E15.2237
G1 X92.592 Y99.185 E15.2489
G1 X92.851 Y98.675 E15.27743
G1 X93.207 Y98.152 E15.309
G1 X93.662 Y97.663 E15.34232
G1 F3000 E10.34232
;MESH:canopy_mount.stl
G0 F3600 X96.87 Y98.958
G0 X97.525 Y100.073
G0 X102.345 Y100.562
G1 F3000 E15.34232
G0 F3600 X102.421 Y100.626
;TYPE:WALL-INNER
G1 F1800 X102.225 Y100.988 E15.36286
G1 X102.154 Y101.306 E15.37911
G1 X101.076 Y101.433 E15.43327
G1 X99.947 Y101.629 E15.49044
G1 X98.827 Y101.882 E15.54772
G1 X97.729 Y102.193 E15.60465
G1 X97.599 Y102.234 E15.61146
G1 X96.62 Y102.568 E15.66306
G1 X96.429 Y102.586 E15.67263
G1 X96.257 Y102.527 E15.68171
G1 X96.172 Y102.452 E15.68736
G1 X96.07 Y102.17 E15.70232
G1 X96.07 Y100.815 E15.76992
G1 X96.111 Y100.611 E15.7803
G1 X96.185 Y100.501 E15.78692
G1 X96.331 Y100.404 E15.79566
G1 X96.829 Y100.298 E15.82107
G1 X97.517 Y100.055 E15.85747
G1 X98.155 Y99.667 E15.89472
G1 X98.699 Y99.154 E15.93203
G1 X99.124 Y98.543 E15.96916
G1 X99.402 Y97.884 E16.00484
G1 X99.5 Y97.612 E16.01927
G1 X99.598 Y97.497 E16.0268
G1 X99.877 Y97.402 E16.04151
G1 X103.003 Y97.402 E16.19746
G1 X103.21 Y97.446 E16.20802
G1 X103.325 Y97.526 E16.21501
G1 X103.417 Y97.667 E16.22341
G1 X103.57 Y98.352 E16.25843
G1 X103.751 Y98.922 E16.28826
G1 X103.918 Y99.408 E16.3139
G1 X103.917 Y99.613 E16.32413
G1 X103.821 Y99.877 E16.33815
G1 X103.688 Y100.037 E16.34853
G1 X103.455 Y100.177 E16.36209
G1 X102.827 Y100.313 E16.39414
G1 X102.421 Y100.626 E16.41972
G0 F3600 X102.732 Y100.891
;TYPE:WALL-OUTER
G1 F1800 X102.603 Y101.129 E16.43323
G1 X102.512 Y101.541 E16.45428
G1 X102.334 Y101.678 E16.46548
G1 X102.242 Y101.698 E16.47018
G1 X101.134 Y101.829 E16.52584
G1 X100.025 Y102.021 E16.58199
G1 X98.926 Y102.27 E16.63821
G1 X97.844 Y102.576 E16.69431
G1 X97.724 Y102.614 E16.70059
G1 X96.707 Y102.961 E16.7542
G1 X96.381 Y102.993 E16.77054
G1 X96.052 Y102.879 E16.78792
G1 X95.85 Y102.703 E16.80128
G1 X95.696 Y102.399 E16.81828
