;FLAVOR:Marlin
;TIME:196
;Filament used: 0.0983548m
;Layer height: 0.15
;MINX:88.073
;MINY:89.423
;MINZ:0.3
;MAXX:111.914
;MAXY:110.598
;MAXZ:7.95
;Generated with Cura_SteamEngine 4.12.1
M140 S90
M105
M190 S90
M104 S235
M105
M109 S235
M82 ;absolute extrusion mode
G21 ;metric values
G90 ;absolute positioning
M82 ;set extruder to absolute mode
M107 ;start with the fan off
G28 X0 Y0 ;move X/Y to min endstops
G28 Z0 ;move Z to min endstops
G1 Z15.0 F9000 ;move the platform down 15mm
G92 E0 ;zero the extruded length
G1 F200 E6 ;extrude 6 mm of feed stock
G92 E0 ;zero the extruded length again
G1 F9000
;Put printing message on LCD screen
M117 Printing...
G92 E0
G92 E0
G1 F3000 E-5
;LAYER_COUNT:52
;LAYER:0
M107
G0 F3600 X90.761 Y91.659 Z0.3
;TYPE:SKIRT
G1 F3000 E0
G1 F1800 X91.557 Y91.002 E0.05149
G1 X91.592 Y90.977 E0.05364
G1 X92.526 Y90.41 E0.10815
G1 X92.798 Y90.271 E0.12339
G1 X93.5 Y89.957 E0.16176
G1 X94.476 Y89.655 E0.21273
G1 X94.621 Y89.621 E0.22016
G1 X95.378 Y89.485 E0.25853
G1 X96.04 Y89.431 E0.29167
G1 X96.259 Y89.423 E0.3026
G1 X97.028 Y89.435 E0.34097
G1 X97.773 Y89.523 E0.3784
G1 X98.078 Y89.575 E0.39383
G1 X98.569 Y89.676 E0.41884
G1 X99.607 Y89.927 E0.47212
G1 X100.152 Y90.067 E0.50019
G1 X103.029 Y90.711 E0.64728
G1 X103.741 Y90.859 E0.68356
G1 X104.387 Y91.024 E0.71682
G1 X104.591 Y91.086 E0.72746
G1 X105.314 Y91.347 E0.76581
G1 X106.006 Y91.683 E0.80419
G1 X106.453 Y91.949 E0.83014
G1 X106.628 Y92.062 E0.84053
G1 X107.268 Y92.525 E0.87994
G1 X107.808 Y92.966 E0.91472
G1 X108.776 Y93.793 E0.97824
G1 X109.148 Y94.133 E1.00339
G1 X109.395 Y94.375 E1.02064
G1 X109.916 Y94.941 E1.05902
G1 X110.373 Y95.556 E1.09724
G1 X110.529 Y95.79 E1.11127
G1 X110.922 Y96.452 E1.14968
G1 X111.219 Y97.088 E1.1847
G1 X111.317 Y97.327 E1.19759
G1 X111.571 Y98.052 E1.23592
G1 X111.749 Y98.801 E1.27432
G1 X111.865 Y99.66 E1.31757
G1 X111.914 Y100.427 E1.35591
G1 X111.892 Y101.1 E1.38951
G1 X111.876 Y101.303 E1.39967
G1 X111.728 Y102.303 E1.4501
G1 X111.536 Y103.056 E1.48887
G1 X111.117 Y104.5 E1.56388
G1 X110.959 Y104.98 E1.58909
G1 X110.886 Y105.179 E1.59967
G1 X110.584 Y105.886 E1.63802
G1 X110.067 Y106.778 E1.68946
G1 X109.912 Y107.007 E1.70326
G1 X109.449 Y107.621 E1.74162
G1 X108.924 Y108.183 E1.77999
G1 X108.387 Y108.659 E1.81579
G1 X107.777 Y109.126 E1.85412
G1 X107.121 Y109.528 E1.8925
G1 X106.621 Y109.776 E1.92035
G1 X106.374 Y109.887 E1.93386
G1 X105.657 Y110.165 E1.97222
G1 X105.149 Y110.313 E1.99862
G1 X105.022 Y110.345 E2.00516
G1 X104.267 Y110.494 E2.04355
G1 X103.522 Y110.567 E2.0809
G1 X103.063 Y110.588 E2.10382
G1 X102.337 Y110.598 E2.14004
G1 X100.375 Y110.596 E2.23793
G1 X99.853 Y110.589 E2.26397
G1 X99.347 Y110.565 E2.28925
G1 X99.018 Y110.538 E2.30572
G1 X98.255 Y110.436 E2.34412
G1 X97.239 Y110.168 E2.39654
G1 X97.048 Y110.103 E2.40661
G1 X96.334 Y109.818 E2.44496
G1 X95.561 Y109.405 E2.48869
G1 X95.359 Y109.281 E2.50051
G1 X94.505 Y108.669 E2.55293
G1 X94.222 Y108.429 E2.57144
G1 X93.512 Y107.798 E2.61883
G1 X93.372 Y107.688 E2.62771
G1 X91.844 Y106.317 E2.73013
G1 X90.992 Y105.583 E2.78624
G1 X90.415 Y105.029 E2.82615
G1 X90.271 Y104.875 E2.83666
G1 X89.775 Y104.287 E2.87504
G1 X89.317 Y103.606 E2.91599
G1 X89.217 Y103.438 E2.92574
G1 X88.859 Y102.757 E2.96413
G1 X88.525 Y101.898 E3.01011
G1 X88.447 Y101.653 E3.02293
G1 X88.268 Y100.986 E3.05739
G1 X88.141 Y100.228 E3.09573
G1 X88.093 Y99.524 E3.13094
G1 X88.073 Y98.487 E3.18268
G1 X88.073 Y98.228 E3.1956
G1 X88.082 Y97.652 E3.22434
G1 X88.134 Y96.885 E3.2627
G1 X88.236 Y96.264 E3.29409
G1 X88.296 Y95.975 E3.30882
G1 X88.491 Y95.231 E3.34719
G1 X88.845 Y94.328 E3.39558
G1 X88.933 Y94.141 E3.40589
G1 X89.297 Y93.463 E3.44428
G1 X89.728 Y92.826 E3.48266
G1 X90.232 Y92.217 E3.52209
G1 X90.761 Y91.659 E3.56045
G0 F3600 X91.052 Y91.935
G1 F1800 X91.789 Y91.328 E3.60809
G1 X91.824 Y91.303 E3.61023
G1 X92.708 Y90.766 E3.66184
G1 X92.98 Y90.627 E3.67708
G1 X93.663 Y90.322 E3.71439
G1 X94.567 Y90.045 E3.76157
G1 X94.712 Y90.011 E3.769
G1 X95.448 Y89.879 E3.8063
G1 X96.054 Y89.831 E3.83663
G1 X96.273 Y89.823 E3.84756
G1 X97.021 Y89.835 E3.88488
G1 X97.705 Y89.918 E3.91926
G1 X98.475 Y90.065 E3.95837
G1 X99.507 Y90.315 E4.01135
G1 X100.031 Y90.45 E4.03834
G1 X102.926 Y91.098 E4.18635
G1 X103.659 Y91.25 E4.22369
G1 X104.271 Y91.406 E4.2552
G1 X104.475 Y91.468 E4.26584
G1 X105.178 Y91.724 E4.30317
G1 X105.849 Y92.053 E4.34045
G1 X106.411 Y92.398 E4.37335
G1 X107.016 Y92.836 E4.41061
G1 X107.548 Y93.27 E4.44487
G1 X108.516 Y94.097 E4.50839
G1 X109.115 Y94.661 E4.54943
G1 X109.62 Y95.212 E4.58672
G1 X110.04 Y95.778 E4.62188
G1 X110.196 Y96.012 E4.63591
G1 X110.577 Y96.656 E4.67325
G1 X110.849 Y97.239 E4.70534
G1 X110.947 Y97.478 E4.71823
G1 X111.193 Y98.185 E4.75558
G1 X111.363 Y98.913 E4.79287
G1 X111.468 Y99.706 E4.83278
G1 X111.515 Y100.453 E4.87012
G1 X111.493 Y101.069 E4.90087
G1 X111.477 Y101.272 E4.91103
G1 X111.337 Y102.218 E4.95874
G1 X111.149 Y102.952 E4.99655
G1 X111.111 Y103.09 E5.00369
G1 X110.733 Y104.388 E5.07113
G1 X110.511 Y105.041 E5.10554
G1 X110.216 Y105.728 E5.14284
G1 X109.736 Y106.554 E5.19051
G1 X109.581 Y106.783 E5.2043
G1 X109.129 Y107.379 E5.24162
G1 X108.616 Y107.923 E5.27893
G1 X108.128 Y108.354 E5.31141
G1 X107.533 Y108.808 E5.34875
G1 X106.894 Y109.196 E5.38604
G1 X106.21 Y109.522 E5.42385
G1 X105.513 Y109.792 E5.46114
G1 X104.924 Y109.957 E5.49165
G1 X104.19 Y110.101 E5.52897
G1 X103.491 Y110.168 E5.564
G1 X103.057 Y110.188 E5.58568
G1 X102.337 Y110.198 E5.6216
G1 X100.38 Y110.196 E5.71924
G1 X99.858 Y110.189 E5.74528
G1 X99.05 Y110.14 E5.78567
G1 X98.309 Y110.039 E5.82298
G1 X97.368 Y109.79 E5.87154
G1 X97.177 Y109.725 E5.88161
G1 X96.483 Y109.446 E5.91893
G1 X95.77 Y109.064 E5.95928
G1 X95.568 Y108.94 E5.97111
G1 X94.76 Y108.361 E6.0207
G1 X94.487 Y108.13 E6.03854
G1 X93.84 Y107.556 E6.08169
G1 X93.639 Y107.39 E6.0947
G1 X92.116 Y106.023 E6.1968
G1 X91.253 Y105.28 E6.25361
G1 X90.707 Y104.756 E6.29137
G1 X90.563 Y104.602 E6.30189
G1 X90.082 Y104.029 E6.33921
G1 X89.661 Y103.401 E6.37693
G1 X89.561 Y103.233 E6.38668
G1 X89.213 Y102.571 E6.424
G1 X88.906 Y101.777 E6.46647
G1 X88.828 Y101.532 E6.47929
G1 X88.659 Y100.9 E6.51193
G1 X88.536 Y100.162 E6.54926
G1 X88.493 Y99.516 E6.58156
G1 X88.473 Y98.479 E6.63331
G1 X88.473 Y98.235 E6.64548
G1 X88.482 Y97.659 E6.67422
G1 X88.533 Y96.912 E6.71157
G1 X88.627 Y96.345 E6.74025
G1 X88.687 Y96.056 E6.75497
G1 X88.878 Y95.333 E6.79228
G1 X89.207 Y94.498 E6.83706
G1 X89.295 Y94.311 E6.84737
G1 X89.65 Y93.653 E6.88467
G1 X90.307 Y92.745 E6.94058
G1 X90.536 Y92.477 E6.95817
G1 X91.052 Y91.935 E6.99551
G0 F3600 X91.342 Y92.211
G1 F1800 X92.022 Y91.653 E7.03939
G1 X92.057 Y91.628 E7.04154
G1 X92.89 Y91.122 E7.09016
G1 X93.162 Y90.983 E7.1054
G1 X93.826 Y90.688 E7.14165
G1 X94.658 Y90.434 E7.18505
G1 X94.803 Y90.4 E7.19248
G1 X95.519 Y90.274 E7.22875
G1 X96.069 Y90.23 E7.25628
G1 X96.288 Y90.222 E7.26721
G1 X97.014 Y90.236 E7.30344
G1 X97.638 Y90.312 E7.3348
G1 X98.381 Y90.454 E7.37254
G1 X99.408 Y90.702 E7.42525
G1 X99.942 Y90.839 E7.45275
G1 X102.886 Y91.498 E7.60327
G1 X103.578 Y91.642 E7.63853
G1 X104.154 Y91.789 E7.66819
G1 X104.358 Y91.851 E7.67882
G1 X105.041 Y92.1 E7.71509
G1 X105.691 Y92.423 E7.7513
G1 X106.194 Y92.734 E7.78081
G1 X106.764 Y93.147 E7.81593
G1 X107.288 Y93.574 E7.84965
G1 X108.256 Y94.401 E7.91317
G1 X108.835 Y94.947 E7.95287
G1 X109.325 Y95.483 E7.9891
G1 X109.708 Y96 E8.0212
G1 X109.864 Y96.234 E8.03523
G1 X110.233 Y96.86 E8.07149
G1 X110.479 Y97.391 E8.10068
G1 X110.577 Y97.63 E8.11357
G1 X110.815 Y98.316 E8.1498
G1 X111.025 Y99.368 E8.20332
G1 X111.07 Y99.753 E8.22266
G1 X111.115 Y100.478 E8.2589
G1 X111.095 Y101.038 E8.28685
G1 X111.079 Y101.241 E8.29701
G1 X110.947 Y102.132 E8.34195
G1 X110.763 Y102.848 E8.37883
G1 X110.727 Y102.978 E8.38556
G1 X110.349 Y104.276 E8.45301
G1 X110.135 Y104.903 E8.48606
G1 X109.848 Y105.57 E8.52229
G1 X109.405 Y106.329 E8.56613
G1 X109.25 Y106.558 E8.57993
G1 X108.81 Y107.137 E8.61621
G1 X108.064 Y107.883 E8.66884
G1 X107.868 Y108.05 E8.68169
G1 X107.29 Y108.49 E8.71793
G1 X106.668 Y108.863 E8.75411
G1 X106.046 Y109.157 E8.78844
G1 X105.368 Y109.418 E8.82468
G1 X104.827 Y109.569 E8.85271
G1 X104.114 Y109.707 E8.88894
G1 X103.46 Y109.77 E8.92172
G1 X103.051 Y109.788 E8.94214
G1 X102.337 Y109.798 E8.97777
G1 X100.386 Y109.796 E9.0751
G1 X99.864 Y109.789 E9.10115
G1 X99.083 Y109.741 E9.14019
G1 X98.364 Y109.642 E9.1764
G1 X97.497 Y109.411 E9.22116
G1 X97.306 Y109.346 E9.23122
G1 X96.632 Y109.075 E9.26747
G1 X95.979 Y108.723 E9.30448
G1 X95.777 Y108.599 E9.3163
G1 X95.015 Y108.053 E9.36307
G1 X94.753 Y107.831 E9.3802
G1 X94.026 Y107.185 E9.42872
G1 X93.906 Y107.093 E9.43627
G1 X92.36 Y105.705 E9.53992
G1 X91.514 Y104.977 E9.5956
G1 X90.999 Y104.483 E9.63121
G1 X90.855 Y104.329 E9.64173
G1 X90.389 Y103.772 E9.67796
G1 X90.005 Y103.197 E9.71245
G1 X89.905 Y103.029 E9.72221
G1 X89.568 Y102.385 E9.75847
G1 X89.287 Y101.655 E9.7975
G1 X89.209 Y101.41 E9.81032
G1 X89.049 Y100.813 E9.84116
G1 X88.931 Y100.096 E9.87741
G1 X88.893 Y99.508 E9.90681
G1 X88.873 Y98.471 E9.95855
G1 X88.873 Y98.241 E9.97003
G1 X88.882 Y97.665 E9.99877
G1 X88.933 Y96.94 E10.03503
G1 X89.019 Y96.426 E10.06103
G1 X89.079 Y96.137 E10.07575
G1 X89.265 Y95.435 E10.11199
G1 X89.569 Y94.669 E10.1531
G1 X89.657 Y94.482 E10.16341
G1 X90.002 Y93.843 E10.19964
G1 X90.611 Y93.004 E10.25136
G1 X90.84 Y92.736 E10.26895
G1 X91.342 Y92.211 E10.30519
G0 F3600 X91.631 Y92.488
G1 F1800 X92.254 Y91.979 E10.34533
G1 X92.289 Y91.954 E10.34747
G1 X93.072 Y91.478 E10.39319
G1 X93.344 Y91.339 E10.40843
G1 X93.988 Y91.055 E10.44354
G1 X94.75 Y90.824 E10.48327
G1 X94.895 Y90.79 E10.4907
G1 X95.588 Y90.668 E10.5258
G1 X96.303 Y90.622 E10.56155
G1 X97.007 Y90.636 E10.59668
G1 X97.571 Y90.706 E10.62503
G1 X98.288 Y90.843 E10.66145
G1 X99.308 Y91.09 E10.71381
G1 X99.845 Y91.228 E10.74147
G1 X102.783 Y91.886 E10.89168
G1 X103.497 Y92.034 E10.92806
G1 X104.038 Y92.172 E10.95591
G1 X104.242 Y92.234 E10.96655
G1 X104.903 Y92.477 E11.00169
G1 X105.802 Y92.957 E11.05253
G1 X105.977 Y93.07 E11.06292
G1 X106.513 Y93.458 E11.09593
G1 X107.028 Y93.878 E11.12909
G1 X107.996 Y94.705 E11.19261
G1 X108.555 Y95.232 E11.23094
G1 X109.029 Y95.753 E11.26608
G1 X109.375 Y96.222 E11.29515
G1 X109.531 Y96.456 E11.30918
G1 X109.887 Y97.063 E11.34429
G1 X110.108 Y97.543 E11.37065
G1 X110.206 Y97.782 E11.38354
G1 X110.436 Y98.447 E11.41865
G1 X110.628 Y99.414 E11.46783
G1 X110.673 Y99.799 E11.48717
G1 X110.715 Y100.502 E11.52231
G1 X110.696 Y101.006 E11.54747
G1 X110.68 Y101.209 E11.55763
G1 X110.556 Y102.047 E11.59989
G1 X110.377 Y102.744 E11.63579
G1 X110.343 Y102.867 E11.64216
G1 X109.965 Y104.165 E11.70961
G1 X109.76 Y104.765 E11.74124
G1 X109.48 Y105.411 E11.77637
G1 X109.073 Y106.105 E11.81651
G1 X108.918 Y106.334 E11.8303
G1 X108.491 Y106.894 E11.86543
G1 X107.805 Y107.578 E11.91377
G1 X107.609 Y107.745 E11.92661
G1 X107.048 Y108.171 E11.96176
G1 X106.129 Y108.681 E12.01419
G1 X105.882 Y108.792 E12.0277
G1 X105.225 Y109.044 E12.06281
G1 X104.729 Y109.181 E12.08848
G1 X103.69 Y109.351 E12.14101
G1 X103.045 Y109.388 E12.17324
G1 X102.338 Y109.398 E12.20851
G1 X100.391 Y109.396 E12.30565
G1 X99.869 Y109.389 E12.33169
G1 X99.116 Y109.342 E12.36933
G1 X98.419 Y109.245 E12.40444
G1 X97.626 Y109.032 E12.44541
G1 X97.435 Y108.967 E12.45547
G1 X96.782 Y108.703 E12.49061
G1 X96.188 Y108.382 E12.5243
G1 X95.986 Y108.258 E12.53612
G1 X95.271 Y107.745 E12.58003
G1 X95.019 Y107.532 E12.59649
G1 X94.338 Y106.927 E12.64194
G1 X94.174 Y106.795 E12.65244
G1 X92.656 Y105.433 E12.75419
G1 X91.775 Y104.674 E12.8122
G1 X91.291 Y104.21 E12.84565
G1 X91.147 Y104.056 E12.85617
G1 X90.697 Y103.515 E12.89128
G1 X90.348 Y102.992 E12.92265
G1 X90.248 Y102.824 E12.9324
G1 X89.923 Y102.2 E12.9675
G1 X89.668 Y101.534 E13.00308
G1 X89.59 Y101.289 E13.01591
G1 X89.44 Y100.726 E13.04498
G1 X89.326 Y100.031 E13.08011
G1 X89.293 Y99.501 E13.10661
G1 X89.273 Y98.464 E13.15835
G1 X89.273 Y98.247 E13.16918
G1 X89.282 Y97.671 E13.19792
G1 X89.333 Y96.969 E13.23304
G1 X89.47 Y96.219 E13.27107
G1 X89.652 Y95.539 E13.30619
G1 X89.931 Y94.839 E13.34379
G1 X90.019 Y94.652 E13.3541
G1 X90.355 Y94.033 E13.38924
G1 X90.915 Y93.264 E13.4367
G1 X91.144 Y92.996 E13.45428
G1 X91.631 Y92.488 E13.48939
G0 F3600 X91.92 Y92.765
G1 F1800 X92.487 Y92.304 E13.52585
G1 X92.522 Y92.279 E13.528
G1 X93.254 Y91.834 E13.57073
G1 X93.526 Y91.695 E13.58597
G1 X94.149 Y91.422 E13.61991
G1 X94.841 Y91.213 E13.65597
G1 X94.986 Y91.179 E13.6634
G1 X95.657 Y91.063 E13.69738
G1 X96.317 Y91.022 E13.73037
G1 X96.998 Y91.037 E13.76435
G1 X97.504 Y91.101 E13.7898
G1 X98.194 Y91.232 E13.82483
G1 X99.209 Y91.477 E13.87693
G1 X99.762 Y91.619 E13.90541
G1 X102.68 Y92.272 E14.05459
G1 X103.415 Y92.425 E14.09205
G1 X103.922 Y92.555 E14.11816
G1 X104.126 Y92.617 E14.1288
G1 X104.764 Y92.853 E14.16274
G1 X105.585 Y93.294 E14.20923
G1 X105.76 Y93.407 E14.21962
G1 X106.261 Y93.769 E14.25046
G1 X106.768 Y94.182 E14.28308
G1 X107.736 Y95.009 E14.3466
G1 X108.275 Y95.518 E14.38359
G1 X108.733 Y96.022 E14.41757
G1 X109.042 Y96.444 E14.44366
G1 X109.198 Y96.678 E14.45769
G1 X109.542 Y97.265 E14.49163
G1 X109.836 Y97.934 E14.52809
G1 X110.057 Y98.578 E14.56206
G1 X110.231 Y99.461 E14.60696
G1 X110.276 Y99.846 E14.6263
G1 X110.315 Y100.525 E14.66023
G1 X110.281 Y101.178 E14.69285
G1 X110.165 Y101.961 E14.73234
G1 X109.991 Y102.64 E14.76731
G1 X109.581 Y104.053 E14.84072
G1 X109.384 Y104.627 E14.87099
G1 X109.113 Y105.252 E14.90498
G1 X108.742 Y105.881 E14.94141
G1 X108.587 Y106.11 E14.95521
G1 X108.173 Y106.651 E14.98919
G1 X107.546 Y107.274 E15.03329
G1 X107.35 Y107.441 E15.04614
G1 X106.806 Y107.851 E15.08012
G1 X105.965 Y108.316 E15.12807
G1 X105.718 Y108.427 E15.14158
G1 X104.758 Y108.761 E15.19229
G1 X104.631 Y108.793 E15.19882
G1 X103.659 Y108.952 E15.24796
G1 X103.039 Y108.988 E15.27894
G1 X102.338 Y108.998 E15.31392
G1 X100.396 Y108.996 E15.41081
G1 X99.874 Y108.989 E15.43685
G1 X99.149 Y108.944 E15.47309
G1 X98.474 Y108.848 E15.50711
G1 X97.754 Y108.654 E15.54431
G1 X97.563 Y108.589 E15.55437
G1 X96.933 Y108.332 E15.58832
G1 X96.398 Y108.041 E15.6187
G1 X96.196 Y107.917 E15.63053
G1 X95.526 Y107.437 E15.67165
G1 X95.284 Y107.232 E15.68747
G1 X94.543 Y106.573 E15.73695
G1 X94.441 Y106.497 E15.74329
G1 X92.928 Y105.139 E15.84472
G1 X92.036 Y104.371 E15.90345
G1 X91.584 Y103.936 E15.93474
G1 X91.44 Y103.782 E15.94526
G1 X91.004 Y103.259 E15.97923
G1 X90.692 Y102.788 E16.00742
G1 X90.592 Y102.62 E16.01717
G1 X90.279 Y102.015 E16.05116
G1 X90.049 Y101.413 E16.08331
G1 X89.971 Y101.168 E16.09613
G1 X89.83 Y100.639 E16.12345
G1 X89.722 Y99.967 E16.1574
G1 X89.693 Y99.493 E16.1811
G1 X89.673 Y98.456 E16.23284
G1 X89.673 Y98.253 E16.24297
G1 X89.682 Y97.677 E16.27171
G1 X89.732 Y96.998 E16.30568
G1 X89.862 Y96.3 E16.3411
G1 X90.039 Y95.643 E16.37505
G1 X90.293 Y95.009 E16.40912
G1 X90.381 Y94.822 E16.41943
G1 X90.707 Y94.224 E16.45341
G1 X91.22 Y93.524 E16.49671
G1 X91.449 Y93.256 E16.51429
G1 X91.92 Y92.765 E16.54824
G0 F3600 X92.209 Y93.043
G1 F1800 X92.719 Y92.63 E16.58098
G1 X92.754 Y92.605 E16.58313
G1 X93.436 Y92.19 E16.62296
G1 X93.708 Y92.051 E16.63819
G1 X94.31 Y91.789 E16.67095
G1 X94.932 Y91.603 E16.70334
G1 X95.077 Y91.569 E16.71077
G1 X95.725 Y91.458 E16.74357
G1 X96.332 Y91.422 E16.77391
G1 X96.989 Y91.438 E16.80669
G1 X97.742 Y91.547 E16.84465
G1 X98.1 Y91.62 E16.86288
G1 X99.033 Y91.845 E16.91076
G1 X99.634 Y92 E16.94173
G1 X102.64 Y92.673 E17.09541
G1 X103.334 Y92.817 E17.13077
G1 X104.009 Y92.999 E17.16565
G1 X104.625 Y93.228 E17.19844
G1 X105.368 Y93.63 E17.24058
G1 X105.543 Y93.743 E17.25098
G1 X106.01 Y94.08 E17.27971
G1 X106.509 Y94.486 E17.3118
G1 X107.477 Y95.313 E17.37532
G1 X107.995 Y95.804 E17.41093
G1 X108.436 Y96.291 E17.44371
G1 X108.865 Y96.9 E17.48087
G1 X109.196 Y97.467 E17.51363
G1 X109.466 Y98.085 E17.54727
G1 X109.678 Y98.707 E17.58006
G1 X109.833 Y99.507 E17.62071
G1 X109.878 Y99.892 E17.64005
G1 X109.915 Y100.548 E17.67283
G1 X109.882 Y101.146 E17.70271
G1 X109.774 Y101.876 E17.73953
G1 X109.604 Y102.536 E17.77353
G1 X109.575 Y102.643 E17.77906
