;FLAVOR:Marlin
;TIME:715
;Filament used: 0.556324m
;Layer height: 0.15
;MINX:64.265
;MINY:61.771
;MINZ:0.3
;MAXX:135.729
;MAXY:138.234
;MAXZ:8.55
;Generated with Cura_SteamEngine 4.12.1
M140 S90
M105
M190 S90
M104 S235
M105
M109 S235
M82 ;absolute extrusion mode
G21 ;metric values
G90 ;absolute positioning
M82 ;set extruder to absolute mode
M107 ;start with the fan off
G28 X0 Y0 ;move X/Y to min endstops
G28 Z0 ;move Z to min endstops
G1 Z15.0 F9000 ;move the platform down 15mm
G92 E0 ;zero the extruded length
G1 F200 E6 ;extrude 6 mm of feed stock
G92 E0 ;zero the extruded length again
G1 F9000
;Put printing message on LCD screen
M117 Printing...
G92 E0
G92 E0
G1 F3000 E-5
;LAYER_COUNT:56
;LAYER:0
M107
G0 F3600 X69.079 Y85.054 Z0.3
;TYPE:SKIRT
G1 F3000 E0
G1 F1800 X69.989 Y84.341 E0.05768
G1 X71.036 Y83.606 E0.1215
G1 X71.392 Y83.364 E0.14297
G1 X73.411 Y81.915 E0.26696
G1 X75.434 Y80.377 E0.39374
G1 X77.379 Y78.806 E0.51848
G1 X79.309 Y77.158 E0.64509
G1 X81.173 Y75.47 E0.77055
G1 X82.974 Y73.746 E0.89494
G1 X84.755 Y71.941 E1.02144
G1 X86.474 Y70.099 E1.14714
G1 X88.124 Y68.226 E1.27168
G1 X88.962 Y67.249 E1.33589
G1 X89.1 Y67.091 E1.34636
G1 X89.82 Y66.283 E1.40035
G1 X90.422 Y65.659 E1.44361
G1 X90.542 Y65.544 E1.4519
G1 X91.184 Y64.975 E1.4947
G1 X91.65 Y64.602 E1.52448
G1 X91.851 Y64.449 E1.53708
G1 X92.925 Y63.727 E1.60165
G1 X93.181 Y63.576 E1.61647
G1 X94.057 Y63.112 E1.66593
G1 X94.154 Y63.066 E1.67129
G1 X94.871 Y62.756 E1.71026
G1 X95.148 Y62.648 E1.72509
G1 X96.297 Y62.272 E1.78541
G1 X96.562 Y62.201 E1.79909
G1 X97.45 Y62.002 E1.84449
G1 X97.671 Y61.962 E1.8557
G1 X98.796 Y61.818 E1.91228
G1 X99.138 Y61.792 E1.9294
G1 X100.453 Y61.771 E1.99501
G1 X100.75 Y61.784 E2.00984
G1 X101.867 Y61.89 E2.06582
G1 X102.153 Y61.932 E2.08024
G1 X103.371 Y62.182 E2.14227
G1 X103.658 Y62.258 E2.15709
G1 X104.714 Y62.595 E2.21239
G1 X104.948 Y62.683 E2.22486
G1 X105.981 Y63.133 E2.28107
G1 X106.258 Y63.271 E2.29651
G1 X107.229 Y63.818 E2.35211
G1 X107.449 Y63.957 E2.3651
G1 X108.203 Y64.479 E2.41085
G1 X108.342 Y64.584 E2.41954
G1 X109.26 Y65.359 E2.47948
G1 X109.524 Y65.608 E2.49758
G1 X110.005 Y66.091 E2.53159
G1 X110.182 Y66.28 E2.54451
G1 X110.612 Y66.767 E2.57692
G1 X110.881 Y67.091 E2.59793
G1 X112.593 Y69.092 E2.72931
G1 X114.258 Y70.929 E2.85301
G1 X116.013 Y72.761 E2.97958
G1 X117.804 Y74.526 E3.10503
G1 X119.65 Y76.245 E3.23087
G1 X121.546 Y77.913 E3.35686
G1 X123.455 Y79.499 E3.48068
G1 X125.464 Y81.075 E3.60807
G1 X127.509 Y82.588 E3.73498
G1 X128.685 Y83.417 E3.80677
G1 X129.879 Y84.244 E3.87923
G1 X130.3 Y84.55 E3.90519
G1 X131.105 Y85.215 E3.95729
G1 X131.261 Y85.357 E3.96781
G1 X131.88 Y85.968 E4.0112
G1 X132.121 Y86.225 E4.02878
G1 X132.854 Y87.092 E4.08542
G1 X133.022 Y87.313 E4.09927
G1 X133.464 Y87.938 E4.13746
G1 X133.584 Y88.121 E4.14838
G1 X134.064 Y88.927 E4.19518
G1 X134.347 Y89.488 E4.22653
G1 X134.48 Y89.772 E4.24218
G1 X134.72 Y90.323 E4.27216
G1 X134.745 Y90.385 E4.2755
G1 X134.931 Y90.881 E4.30192
G1 X135.001 Y91.082 E4.31254
G1 X135.218 Y91.779 E4.34896
G1 X135.291 Y92.044 E4.36268
G1 X135.551 Y93.247 E4.42408
G1 X135.591 Y93.5 E4.43686
G1 X135.711 Y94.642 E4.49415
G1 X135.725 Y94.909 E4.50749
G1 X135.729 Y95.974 E4.56062
G1 X135.716 Y96.266 E4.5752
G1 X135.625 Y97.272 E4.6256
G1 X135.601 Y97.447 E4.63441
G1 X135.494 Y98.088 E4.66683
G1 X135.455 Y98.285 E4.67685
G1 X135.229 Y99.213 E4.7245
G1 X135.171 Y99.413 E4.73489
G1 X134.853 Y100.349 E4.78421
G1 X134.748 Y100.618 E4.79862
G1 X134.332 Y101.554 E4.84972
G1 X134.21 Y101.797 E4.86328
G1 X133.628 Y102.815 E4.92179
G1 X133.478 Y103.048 E4.93561
G1 X132.834 Y103.946 E4.99074
G1 X132.662 Y104.162 E5.00452
G1 X132.196 Y104.709 E5.04037
G1 X131.821 Y105.106 E5.06761
G1 X131.459 Y105.464 E5.09301
G1 X130.369 Y106.503 E5.16814
G1 X129.75 Y107.085 E5.21053
G1 X127.951 Y108.871 E5.337
G1 X126.238 Y110.672 E5.46101
G1 X124.537 Y112.563 E5.5879
G1 X122.9 Y114.492 E5.71412
G1 X121.332 Y116.447 E5.83915
G1 X119.826 Y118.44 E5.96378
G1 X118.356 Y120.501 E6.09008
G1 X116.934 Y122.621 E6.21743
G1 X115.608 Y124.723 E6.34143
G1 X114.357 Y126.839 E6.46406
G1 X112.456 Y130.327 E6.66225
G1 X112.194 Y130.831 E6.69059
G1 X111.877 Y131.406 E6.72334
G1 X111.312 Y132.295 E6.7759
G1 X111.145 Y132.532 E6.79036
G1 X110.434 Y133.437 E6.84778
G1 X110.253 Y133.644 E6.8615
G1 X109.71 Y134.221 E6.90103
G1 X109.612 Y134.318 E6.90791
G1 X108.956 Y134.917 E6.95222
G1 X108.729 Y135.108 E6.96702
G1 X107.996 Y135.674 E7.01323
G1 X107.863 Y135.768 E7.02135
G1 X107.103 Y136.259 E7.06649
G1 X106.864 Y136.4 E7.08034
G1 X105.857 Y136.926 E7.13702
G1 X105.606 Y137.041 E7.15079
G1 X104.596 Y137.445 E7.20506
G1 X104.328 Y137.537 E7.2192
G1 X103.571 Y137.767 E7.25867
G1 X103.469 Y137.794 E7.26394
G1 X102.576 Y137.991 E7.30956
G1 X102.221 Y138.054 E7.32755
G1 X101.011 Y138.2 E7.38835
G1 X100.749 Y138.217 E7.40145
G1 X99.664 Y138.234 E7.45559
G1 X99.399 Y138.225 E7.46882
G1 X98.31 Y138.133 E7.52334
G1 X98.049 Y138.098 E7.53648
G1 X96.906 Y137.883 E7.5945
G1 X96.586 Y137.805 E7.61094
G1 X95.682 Y137.543 E7.65789
G1 X95.578 Y137.508 E7.66337
G1 X94.736 Y137.186 E7.70834
G1 X94.39 Y137.037 E7.72714
G1 X93.233 Y136.456 E7.79173
G1 X93.029 Y136.338 E7.80349
G1 X92.435 Y135.969 E7.83837
G1 X92.324 Y135.895 E7.84503
G1 X91.612 Y135.378 E7.88893
G1 X91.375 Y135.191 E7.90399
G1 X90.411 Y134.333 E7.96837
G1 X90.164 Y134.086 E7.9858
G1 X89.601 Y133.479 E8.0271
G1 X89.552 Y133.422 E8.03085
G1 X88.834 Y132.491 E8.08951
G1 X88.564 Y132.099 E8.11326
G1 X88.035 Y131.25 E8.16316
G1 X87.73 Y130.7 E8.19454
G1 X87.392 Y130.057 E8.23078
G1 X86.962 Y129.222 E8.27764
G1 X85.764 Y127.051 E8.40135
G1 X84.472 Y124.857 E8.52838
G1 X83.147 Y122.745 E8.65276
G1 X81.736 Y120.633 E8.77948
G1 X80.276 Y118.577 E8.90529
G1 X78.772 Y116.58 E9.03001
G1 X77.213 Y114.627 E9.15469
G1 X75.559 Y112.673 E9.28241
G1 X73.899 Y110.819 E9.40656
G1 X72.204 Y109.03 E9.52951
G1 X69.377 Y106.251 E9.72729
G1 X68.536 Y105.458 E9.78496
G1 X68.278 Y105.208 E9.80288
G1 X67.35 Y104.168 E9.87242
G1 X67.07 Y103.811 E9.89506
G1 X66.4 Y102.856 E9.95326
G1 X66.268 Y102.645 E9.96567
G1 X65.643 Y101.5 E10.03075
G1 X65.52 Y101.239 E10.04515
G1 X65.107 Y100.24 E10.09908
G1 X65.008 Y99.962 E10.1138
G1 X64.702 Y98.951 E10.1665
G1 X64.647 Y98.732 E10.17777
G1 X64.407 Y97.464 E10.24215
G1 X64.342 Y96.925 E10.26924
G1 X64.318 Y96.687 E10.28117
G1 X64.268 Y95.933 E10.31887
G1 X64.265 Y95.26 E10.35245
G1 X64.272 Y94.998 E10.36552
G1 X64.362 Y93.86 E10.42248
G1 X64.401 Y93.563 E10.43742
G1 X64.605 Y92.453 E10.49373
G1 X64.662 Y92.213 E10.50603
G1 X64.86 Y91.49 E10.54343
G1 X64.906 Y91.342 E10.55116
G1 X65.241 Y90.412 E10.60048
G1 X65.359 Y90.126 E10.61591
G1 X65.848 Y89.097 E10.67275
G1 X65.984 Y88.845 E10.68704
G1 X66.341 Y88.231 E10.72247
G1 X66.403 Y88.132 E10.7283
G1 X66.968 Y87.314 E10.7779
G1 X67.158 Y87.064 E10.79357
G1 X67.903 Y86.184 E10.85109
G1 X68.077 Y85.999 E10.86376
G1 X68.86 Y85.245 E10.91799
G1 X69.079 Y85.054 E10.93249
G0 F3600 X69.342 Y85.355
G1 F1800 X70.219 Y84.668 E10.98807
G1 X71.266 Y83.933 E11.05189
G1 X71.627 Y83.688 E11.07366
G1 X73.664 Y82.226 E11.19875
G1 X75.678 Y80.695 E11.32496
G1 X77.649 Y79.102 E11.4514
G1 X79.554 Y77.475 E11.57639
G1 X81.415 Y75.791 E11.7016
G1 X83.288 Y73.997 E11.83099
G1 X85.05 Y72.212 E11.95613
G1 X86.766 Y70.373 E12.08161
G1 X88.414 Y68.503 E12.20597
G1 X89.266 Y67.509 E12.27128
G1 X89.399 Y67.357 E12.28136
G1 X90.119 Y66.549 E12.33535
G1 X90.699 Y65.948 E12.37702
G1 X90.819 Y65.833 E12.38531
G1 X91.438 Y65.284 E12.42659
G1 X91.893 Y64.921 E12.45563
G1 X92.094 Y64.768 E12.46823
G1 X93.129 Y64.072 E12.53046
G1 X93.385 Y63.921 E12.54529
G1 X94.228 Y63.473 E12.59292
G1 X94.325 Y63.427 E12.59827
G1 X95.016 Y63.129 E12.63582
G1 X95.293 Y63.021 E12.65065
G1 X96.401 Y62.658 E12.70882
G1 X96.666 Y62.587 E12.7225
G1 X97.521 Y62.395 E12.76622
G1 X97.742 Y62.355 E12.77743
G1 X98.826 Y62.216 E12.83195
G1 X99.168 Y62.19 E12.84906
G1 X100.436 Y62.17 E12.91233
G1 X100.733 Y62.183 E12.92716
G1 X101.809 Y62.285 E12.98109
G1 X102.095 Y62.327 E12.99551
G1 X103.268 Y62.568 E13.05525
G1 X103.555 Y62.644 E13.07006
G1 X104.573 Y62.969 E13.12338
G1 X104.807 Y63.057 E13.13585
G1 X105.803 Y63.491 E13.19005
G1 X106.08 Y63.629 E13.20549
G1 X107.015 Y64.156 E13.25904
G1 X107.235 Y64.295 E13.27202
G1 X107.962 Y64.798 E13.31613
G1 X108.101 Y64.903 E13.32482
G1 X108.985 Y65.65 E13.38256
G1 X109.249 Y65.899 E13.40066
G1 X109.713 Y66.364 E13.43344
G1 X109.89 Y66.553 E13.44636
G1 X110.305 Y67.023 E13.47764
G1 X110.592 Y67.368 E13.50003
G1 X112.276 Y69.337 E13.62929
G1 X113.99 Y71.228 E13.75662
G1 X115.726 Y73.04 E13.88181
G1 X117.534 Y74.821 E14.00843
G1 X119.377 Y76.537 E14.13406
G1 X121.275 Y78.207 E14.26019
G1 X123.215 Y79.82 E14.38606
G1 X125.225 Y81.396 E14.51349
G1 X127.252 Y82.896 E14.63929
G1 X128.458 Y83.746 E14.7129
G1 X129.652 Y84.573 E14.78537
G1 X130.06 Y84.87 E14.81054
G1 X130.835 Y85.511 E14.86072
G1 X130.991 Y85.653 E14.87124
G1 X131.588 Y86.241 E14.91305
G1 X131.829 Y86.498 E14.93063
G1 X132.536 Y87.334 E14.98525
G1 X132.704 Y87.555 E14.9991
G1 X133.129 Y88.157 E15.03586
G1 X133.249 Y88.34 E15.04678
G1 X133.72 Y89.132 E15.09275
G1 X133.984 Y89.657 E15.12207
G1 X134.117 Y89.941 E15.13772
G1 X134.349 Y90.473 E15.16667
G1 X134.374 Y90.535 E15.17001
G1 X134.553 Y91.013 E15.19547
G1 X134.623 Y91.214 E15.20609
G1 X134.832 Y91.885 E15.24115
G1 X134.905 Y92.15 E15.25487
G1 X135.156 Y93.31 E15.31408
G1 X135.196 Y93.563 E15.32686
G1 X135.311 Y94.663 E15.38204
G1 X135.325 Y94.93 E15.39537
G1 X135.33 Y95.956 E15.44656
G1 X135.317 Y96.248 E15.46114
G1 X135.229 Y97.217 E15.50969
G1 X135.205 Y97.392 E15.5185
G1 X135.101 Y98.011 E15.54981
G1 X135.062 Y98.208 E15.55983
G1 X134.845 Y99.101 E15.60568
G1 X134.787 Y99.301 E15.61607
G1 X134.48 Y100.203 E15.66361
G1 X134.375 Y100.472 E15.67801
G1 X133.974 Y101.374 E15.72726
G1 X133.852 Y101.617 E15.74083
G1 X133.292 Y102.599 E15.79723
G1 X133.142 Y102.832 E15.81105
G1 X132.521 Y103.697 E15.86418
G1 X132.349 Y103.913 E15.87795
G1 X131.9 Y104.44 E15.91249
G1 X131.538 Y104.824 E15.93882
G1 X131.183 Y105.175 E15.96373
G1 X130.095 Y106.212 E16.03871
G1 X129.477 Y106.793 E16.08103
G1 X127.662 Y108.595 E16.20863
G1 X125.933 Y110.412 E16.33377
G1 X124.236 Y112.3 E16.46042
G1 X122.589 Y114.24 E16.58738
G1 X121.016 Y116.202 E16.71284
G1 X119.497 Y118.212 E16.83853
G1 X118.014 Y120.291 E16.96594
G1 X116.622 Y122.366 E17.0906
G1 X115.269 Y124.513 E17.21721
G1 X114 Y126.658 E17.34154
G1 X112.108 Y130.129 E17.53877
G1 X111.839 Y130.647 E17.56789
G1 X111.529 Y131.208 E17.59987
G1 X110.985 Y132.065 E17.65051
G1 X110.818 Y132.302 E17.66497
G1 X110.133 Y133.173 E17.72026
G1 X109.952 Y133.38 E17.73397
G1 X109.429 Y133.937 E17.77209
G1 X109.331 Y134.034 E17.77897
G1 X108.699 Y134.611 E17.82167
G1 X108.472 Y134.802 E17.83647
G1 X107.765 Y135.347 E17.881
G1 X107.632 Y135.441 E17.88913
G1 X106.9 Y135.915 E17.93264
G1 X106.661 Y136.056 E17.94648
G1 X105.69 Y136.563 E18.00113
G1 X105.439 Y136.678 E18.0149
G1 X104.466 Y137.067 E18.06718
G1 X104.198 Y137.159 E18.08132
G1 X103.468 Y137.38 E18.11937
G1 X103.366 Y137.407 E18.12464
G1 X102.506 Y137.597 E18.16858
G1 X102.151 Y137.66 E18.18656
G1 X100.985 Y137.801 E18.24516
G1 X100.723 Y137.818 E18.25826
G1 X99.677 Y137.834 E18.31045
G1 X99.412 Y137.825 E18.32368
G1 X98.363 Y137.737 E18.3762
G1 X98.102 Y137.702 E18.38934
G1 X97.001 Y137.494 E18.44524
G1 X96.681 Y137.416 E18.46167
G1 X95.81 Y137.164 E18.5069
G1 X95.706 Y137.129 E18.51238
G1 X94.894 Y136.819 E18.55574
G1 X94.548 Y136.67 E18.57454
G1 X93.434 Y136.11 E18.63674
G1 X93.23 Y135.992 E18.6485
G1 X92.657 Y135.636 E18.68215
G1 X92.546 Y135.562 E18.68881
G1 X91.86 Y135.064 E18.7311
G1 X91.623 Y134.877 E18.74616
G1 X90.694 Y134.05 E18.80822
G1 X90.447 Y133.803 E18.82564
G1 X89.904 Y133.218 E18.86546
G1 X89.855 Y133.161 E18.86921
G1 X89.163 Y132.264 E18.92573
G1 X88.893 Y131.872 E18.94948
G1 X88.383 Y131.054 E18.99757
G1 X88.084 Y130.514 E19.02837
G1 X87.748 Y129.874 E19.06443
G1 X87.317 Y129.037 E19.1114
G1 X86.11 Y126.849 E19.23607
G1 X84.813 Y124.647 E19.36357
G1 X83.501 Y122.557 E19.48668
G1 X82.061 Y120.401 E19.61603
G1 X80.595 Y118.336 E19.74237
G1 X79.105 Y116.358 E19.86592
G1 X77.498 Y114.344 E19.99447
G1 X75.879 Y112.432 E20.11946
G1 X74.173 Y110.527 E20.24704
G1 X72.478 Y108.738 E20.36999
G1 X69.673 Y105.98 E20.56625
G1 X68.81 Y105.167 E20.6254
G1 X68.559 Y104.923 E20.64287
G1 X67.664 Y103.921 E20.70989
G1 X67.384 Y103.564 E20.73253
G1 X66.739 Y102.644 E20.78859
G1 X66.607 Y102.433 E20.801
G1 X66.004 Y101.33 E20.86372
G1 X65.881 Y101.069 E20.87811
G1 X65.484 Y100.106 E20.93008
G1 X65.385 Y99.828 E20.9448
G1 X65.09 Y98.854 E20.99558
G1 X65.035 Y98.635 E21.00684
G1 X64.804 Y97.412 E21.06894
G1 X64.739 Y96.885 E21.09543
G1 X64.715 Y96.647 E21.10736
G1 X64.667 Y95.919 E21.14376
G1 X64.665 Y95.271 E21.17609
G1 X64.672 Y95.009 E21.18916
G1 X64.758 Y93.912 E21.24406
G1 X64.797 Y93.615 E21.25901
G1 X64.994 Y92.546 E21.31324
G1 X65.051 Y92.306 E21.32554
G1 X65.242 Y91.609 E21.3616
G1 X65.288 Y91.461 E21.36933
G1 X65.611 Y90.564 E21.4169
G1 X65.729 Y90.278 E21.43233
G1 X66.2 Y89.287 E21.48707
G1 X66.336 Y89.035 E21.50136
G1 X66.68 Y88.443 E21.53552
G1 X66.742 Y88.344 E21.54135
G1 X67.287 Y87.556 E21.58915
G1 X67.477 Y87.306 E21.60481
G1 X68.195 Y86.458 E21.66025
G1 X68.369 Y86.273 E21.67292
G1 X69.123 Y85.546 E21.72517
G1 X69.342 Y85.355 E21.73967
G0 F3600 X69.605 Y85.657
G1 F1800 X70.448 Y84.996 E21.79311
G1 X71.495 Y84.261 E21.85694
G1 X71.838 Y84.028 E21.87762
G1 X73.893 Y82.554 E22.00379
G1 X75.926 Y81.008 E22.13122
G1 X77.915 Y79.401 E22.25879
G1 X79.817 Y77.777 E22.38356
G1 X81.697 Y76.075 E22.51008
G1 X83.567 Y74.285 E22.63923
G1 X85.327 Y72.502 E22.76422
G1 X87.06 Y70.645 E22.89095
G1 X88.767 Y68.706 E23.01983
G1 X89.698 Y67.623 E23.09108
G1 X90.418 Y66.815 E23.14507
G1 X90.976 Y66.237 E23.18516
G1 X91.096 Y66.122 E23.19345
G1 X91.691 Y65.594 E23.23313
G1 X92.135 Y65.239 E23.2615
G1 X92.336 Y65.086 E23.2741
G1 X93.332 Y64.416 E23.33399
G1 X93.588 Y64.265 E23.34881
G1 X94.399 Y63.835 E23.39461
G1 X94.496 Y63.789 E23.39997
G1 X95.162 Y63.502 E23.43615
G1 X95.439 Y63.394 E23.45098
G1 X96.504 Y63.044 E23.50691
G1 X96.769 Y62.973 E23.5206
G1 X97.592 Y62.789 E23.56267
G1 X97.813 Y62.749 E23.57387
G1 X98.857 Y62.615 E23.62639
G1 X99.199 Y62.589 E23.6435
G1 X100.418 Y62.57 E23.70432
G1 X100.715 Y62.583 E23.71915
G1 X101.751 Y62.681 E23.77107
G1 X102.037 Y62.723 E23.78549
G1 X103.166 Y62.955 E23.843
G1 X103.453 Y63.031 E23.85781
G1 X104.432 Y63.344 E23.90909
G1 X104.666 Y63.432 E23.92156
G1 X105.624 Y63.849 E23.97368
G1 X105.901 Y63.987 E23.98912
G1 X106.801 Y64.494 E24.04066
G1 X107.021 Y64.633 E24.05364
G1 X107.721 Y65.117 E24.0961
G1 X107.86 Y65.222 E24.10479
G1 X108.711 Y65.941 E24.16037
G1 X108.975 Y66.19 E24.17848
G1 X109.421 Y66.638 E24.21002
G1 X109.598 Y66.827 E24.22293
G1 X109.997 Y67.279 E24.25301
G1 X110.264 Y67.601 E24.27388
G1 X111.992 Y69.62 E24.40647
G1 X113.671 Y71.473 E24.53122
G1 X115.457 Y73.336 E24.65998
G1 X117.263 Y75.116 E24.78649
G1 X119.105 Y76.832 E24.91208
G1 X120.997 Y78.497 E25.03782
G1 X122.98 Y80.143 E25.16639
G1 X124.969 Y81.705 E25.29257
G1 X127.038 Y83.235 E25.42095
G1 X128.23 Y84.075 E25.4937
G1 X129.424 Y84.902 E25.56616
G1 X129.82 Y85.19 E25.59059
G1 X130.566 Y85.807 E25.63889
G1 X130.722 Y85.949 E25.64941
G1 X131.296 Y86.515 E25.68963
G1 X131.537 Y86.772 E25.70721
G1 X132.217 Y87.576 E25.75974
G1 X132.385 Y87.797 E25.77359
G1 X132.795 Y88.377 E25.80903
G1 X132.915 Y88.56 E25.81995
G1 X133.376 Y89.336 E25.86498
G1 X133.622 Y89.827 E25.89238
G1 X133.755 Y90.111 E25.90802
G1 X133.978 Y90.623 E25.93588
G1 X134.176 Y91.144 E25.96369
G1 X134.246 Y91.345 E25.97431
G1 X134.447 Y91.991 E26.00806
G1 X134.52 Y92.256 E26.02177
G1 X134.761 Y93.372 E26.07874
G1 X134.801 Y93.625 E26.09151
G1 X134.912 Y94.684 E26.14464
G1 X134.926 Y94.951 E26.15798
G1 X134.93 Y95.939 E26.20727
G1 X134.917 Y96.231 E26.22185
G1 X134.832 Y97.163 E26.26854
G1 X134.808 Y97.338 E26.27735
G1 X134.709 Y97.933 E26.30745
G1 X134.67 Y98.13 E26.31747
G1 X134.46 Y98.99 E26.36163
G1 X134.402 Y99.19 E26.37202
