;FLAVOR:Marlin
;TIME:288
;Filament used: 0.213429m
;Layer height: 0.15
;MINX:74.91
;MINY:74.88
;MINZ:0.3
;MAXX:125.146
;MAXY:125.117
;MAXZ:3
;Generated with Cura_SteamEngine 4.13.0
M140 S90
M105
M190 S90
M104 S235
M105
M109 S235
M82 ;absolute extrusion mode
G21 ;metric values
G90 ;absolute positioning
M82 ;set extruder to absolute mode
M107 ;start with the fan off
G28 X0 Y0 ;move X/Y to min endstops
G28 Z0 ;move Z to min endstops
G1 Z15.0 F9000 ;move the platform down 15mm
G92 E0 ;zero the extruded length
G1 F200 E6 ;extrude 6 mm of feed stock
G92 E0 ;zero the extruded length again
G1 F9000
;Put printing message on LCD screen
M117 Printing...
G92 E0
G92 E0
G1 F3000 E-5
;LAYER_COUNT:19
;LAYER:0
M107
G0 F3600 X79.284 Y79.272 Z0.3
;TYPE:SKIRT
G1 F3000 E0
G1 F1800 X80.329 Y78.345 E0.06969
G1 X80.476 Y78.229 E0.07903
G1 X81.276 Y77.649 E0.12833
G1 X82.122 Y77.122 E0.17806
G1 X82.526 Y76.884 E0.20145
G1 X83.081 Y76.567 E0.23334
G1 X83.958 Y76.112 E0.28263
G1 X84.869 Y75.73 E0.33191
G1 X85.58 Y75.49 E0.36935
G1 X85.672 Y75.462 E0.37415
G1 X86.628 Y75.212 E0.42345
G1 X87.6 Y75.042 E0.47268
G1 X88.599 Y74.949 E0.52274
G1 X89.476 Y74.904 E0.56655
G1 X89.878 Y74.89 E0.58661
G1 X90.426 Y74.88 E0.61396
G1 X91.434 Y74.903 E0.66426
G1 X91.766 Y74.927 E0.68087
G1 X94.164 Y75.123 E0.8009
G1 X96.682 Y75.257 E0.9267
G1 X99.137 Y75.317 E1.04922
G1 X101.636 Y75.309 E1.1739
G1 X104.091 Y75.231 E1.29644
G1 X107.53 Y75.007 E1.46838
G1 X108.407 Y74.933 E1.51229
G1 X109.577 Y74.891 E1.57069
G1 X110.431 Y74.901 E1.6133
G1 X110.827 Y74.912 E1.63307
G1 X111.37 Y74.936 E1.66018
G1 X112.354 Y75.019 E1.70945
G1 X113.328 Y75.182 E1.75872
G1 X114.286 Y75.423 E1.808
G1 X115.221 Y75.741 E1.85728
G1 X116.143 Y76.141 E1.90742
G1 X116.327 Y76.23 E1.91761
G1 X116.894 Y76.523 E1.94946
G1 X117.417 Y76.817 E1.97939
G1 X117.884 Y77.094 E2.00648
G1 X118.498 Y77.469 E2.04237
G1 X119.319 Y78.018 E2.09164
G1 X120.094 Y78.631 E2.14094
G1 X120.816 Y79.305 E2.19022
G1 X121.481 Y80.035 E2.23948
G1 X122.085 Y80.816 E2.28874
G1 X122.539 Y81.504 E2.32987
G1 X122.967 Y82.202 E2.37071
G1 X123.154 Y82.516 E2.38895
G1 X123.481 Y83.087 E2.42178
G1 X123.937 Y83.963 E2.47105
G1 X124.32 Y84.874 E2.52035
G1 X124.628 Y85.812 E2.56961
G1 X124.86 Y86.772 E2.61888
G1 X125.046 Y88.068 E2.6842
G1 X125.097 Y88.754 E2.71852
G1 X125.129 Y89.525 E2.75702
G1 X125.146 Y90.432 E2.80227
G1 X125.122 Y91.43 E2.85208
G1 X125.092 Y91.875 E2.87433
G1 X124.91 Y94.084 E2.98491
G1 X124.777 Y96.534 E3.10732
G1 X124.712 Y99.025 E3.23164
G1 X124.719 Y101.517 E3.35597
G1 X124.793 Y103.95 E3.47741
G1 X125.024 Y107.532 E3.65649
G1 X125.096 Y108.395 E3.69969
G1 X125.138 Y109.549 E3.7573
G1 X125.129 Y110.371 E3.79831
G1 X125.118 Y110.775 E3.81848
G1 X125.093 Y111.341 E3.84674
G1 X125.01 Y112.326 E3.89606
G1 X124.847 Y113.3 E3.94533
G1 X124.606 Y114.258 E3.99461
G1 X124.288 Y115.193 E4.04388
G1 X123.935 Y116.017 E4.08861
G1 X123.857 Y116.182 E4.09771
G1 X123.529 Y116.825 E4.13372
G1 X123.221 Y117.374 E4.16513
G1 X122.907 Y117.904 E4.19586
G1 X122.558 Y118.474 E4.22921
G1 X122.008 Y119.294 E4.27847
G1 X121.394 Y120.068 E4.32776
G1 X120.72 Y120.789 E4.377
G1 X119.989 Y121.454 E4.4263
G1 X119.207 Y122.057 E4.47557
G1 X118.545 Y122.495 E4.51517
G1 X117.815 Y122.944 E4.55793
G1 X117.484 Y123.14 E4.57712
G1 X116.939 Y123.452 E4.60845
G1 X116.063 Y123.907 E4.65769
G1 X115.153 Y124.291 E4.70697
G1 X114.214 Y124.599 E4.75627
G1 X113.254 Y124.83 E4.80554
G1 X112.074 Y125.005 E4.86505
G1 X111.449 Y125.057 E4.89634
G1 X110.836 Y125.088 E4.92696
G1 X110.282 Y125.105 E4.95461
G1 X109.593 Y125.117 E4.98899
G1 X108.551 Y125.091 E5.04099
G1 X108.162 Y125.063 E5.06045
G1 X106.014 Y124.886 E5.16798
G1 X103.505 Y124.752 E5.29333
G1 X101.041 Y124.69 E5.4163
G1 X98.549 Y124.697 E5.54063
G1 X96.058 Y124.775 E5.66496
G1 X93.608 Y124.921 E5.78741
G1 X92.901 Y124.984 E5.82282
G1 X91.666 Y125.079 E5.88462
G1 X90.581 Y125.114 E5.93878
G1 X89.679 Y125.103 E5.98378
G1 X89.283 Y125.092 E6.00355
G1 X88.746 Y125.068 E6.03037
G1 X87.762 Y124.984 E6.07964
G1 X86.375 Y124.726 E6.15002
G1 X86.245 Y124.694 E6.1567
G1 X85.296 Y124.42 E6.20598
G1 X84.373 Y124.069 E6.25525
G1 X83.146 Y123.462 E6.32354
G1 X82.412 Y123.046 E6.36563
G1 X82.095 Y122.86 E6.38397
G1 X81.619 Y122.571 E6.41175
G1 X80.797 Y122.025 E6.46099
G1 X80.021 Y121.414 E6.51026
G1 X79.297 Y120.742 E6.55954
G1 X78.738 Y120.141 E6.60049
G1 X78.659 Y120.05 E6.6065
G1 X78.042 Y119.278 E6.65581
G1 X77.455 Y118.402 E6.70842
G1 X77.11 Y117.836 E6.74149
G1 X76.933 Y117.537 E6.75882
G1 X76.596 Y116.947 E6.79272
G1 X76.142 Y116.07 E6.84199
G1 X75.759 Y115.159 E6.89129
G1 X75.474 Y114.297 E6.93659
G1 X75.447 Y114.204 E6.94142
G1 X75.21 Y113.246 E6.99066
G1 X75.052 Y112.271 E7.03993
G1 X74.979 Y111.433 E7.0819
G1 X74.934 Y110.563 E7.12536
G1 X74.92 Y110.152 E7.14588
G1 X74.91 Y109.595 E7.17367
G1 X74.934 Y108.582 E7.22422
G1 X74.958 Y108.244 E7.24113
G1 X75.146 Y105.948 E7.35606
G1 X75.281 Y103.419 E7.48241
G1 X75.341 Y100.97 E7.60463
G1 X75.334 Y98.479 E7.72891
G1 X75.254 Y95.98 E7.85365
G1 X75.106 Y93.516 E7.9768
G1 X74.996 Y92.244 E8.0405
G1 X74.945 Y91.55 E8.07521
G1 X74.913 Y90.485 E8.12837
G1 X74.924 Y89.702 E8.16744
G1 X74.935 Y89.336 E8.18571
G1 X74.962 Y88.723 E8.21632
G1 X75.045 Y87.739 E8.26558
G1 X75.314 Y86.301 E8.33857
G1 X75.346 Y86.173 E8.34515
G1 X75.624 Y85.225 E8.39444
G1 X75.978 Y84.303 E8.44371
G1 X76.573 Y83.108 E8.51031
G1 X76.996 Y82.363 E8.55306
G1 X77.173 Y82.061 E8.57052
G1 X77.455 Y81.596 E8.59765
G1 X78.001 Y80.773 E8.64692
G1 X78.612 Y79.996 E8.69624
G1 X79.284 Y79.272 E8.74552
G0 F3600 X79.6 Y79.522
G1 F1800 X80.577 Y78.659 E8.81056
G1 X80.724 Y78.543 E8.8199
G1 X81.904 Y77.723 E8.89159
G1 X82.466 Y77.383 E8.92436
G1 X82.725 Y77.232 E8.93932
G1 X83.28 Y76.915 E8.9712
G1 X84.142 Y76.468 E9.01965
G1 X85.039 Y76.094 E9.06813
G1 X85.696 Y75.872 E9.10273
G1 X85.788 Y75.844 E9.10753
G1 X86.728 Y75.6 E9.15598
G1 X87.686 Y75.434 E9.20449
G1 X88.619 Y75.349 E9.25123
G1 X89.496 Y75.304 E9.29504
G1 X89.886 Y75.29 E9.31451
G1 X90.434 Y75.28 E9.34185
G1 X91.409 Y75.302 E9.39051
G1 X91.734 Y75.325 E9.40676
G1 X94.182 Y75.525 E9.5293
G1 X96.651 Y75.656 E9.65265
G1 X99.129 Y75.717 E9.77632
G1 X101.65 Y75.709 E9.90209
G1 X104.1 Y75.631 E10.02438
G1 X107.591 Y75.404 E10.19892
G1 X108.441 Y75.332 E10.24148
G1 X109.572 Y75.291 E10.29794
G1 X110.426 Y75.301 E10.34055
G1 X110.809 Y75.312 E10.35967
G1 X111.352 Y75.336 E10.38678
G1 X112.32 Y75.418 E10.43525
G1 X113.278 Y75.58 E10.48372
G1 X114.219 Y75.821 E10.53218
G1 X115.137 Y76.138 E10.58064
G1 X115.969 Y76.501 E10.62592
G1 X116.153 Y76.59 E10.63612
G1 X116.702 Y76.874 E10.66696
G1 X117.214 Y77.161 E10.69624
G1 X117.675 Y77.436 E10.72302
G1 X118.289 Y77.811 E10.75892
G1 X119.097 Y78.351 E10.8074
G1 X119.857 Y78.955 E10.85583
G1 X120.565 Y79.62 E10.90429
G1 X121.216 Y80.341 E10.95276
G1 X121.806 Y81.114 E11.00127
G1 X122.198 Y81.713 E11.03699
G1 X122.626 Y82.411 E11.07784
G1 X122.807 Y82.715 E11.09549
G1 X123.134 Y83.286 E11.12832
G1 X123.581 Y84.148 E11.17676
G1 X123.957 Y85.044 E11.22524
G1 X124.257 Y85.968 E11.27371
G1 X124.48 Y86.913 E11.32215
G1 X124.647 Y88.103 E11.3821
G1 X124.698 Y88.78 E11.41597
G1 X124.729 Y89.538 E11.45382
G1 X124.746 Y90.439 E11.49878
G1 X124.723 Y91.404 E11.54693
G1 X124.693 Y91.842 E11.56884
G1 X124.512 Y94.03 E11.67837
G1 X124.376 Y96.538 E11.80368
G1 X124.312 Y99.015 E11.9273
G1 X124.319 Y101.53 E12.05277
G1 X124.393 Y103.959 E12.17401
G1 X124.623 Y107.537 E12.35289
G1 X124.698 Y108.428 E12.3975
G1 X124.738 Y109.544 E12.45321
G1 X124.729 Y110.366 E12.49422
G1 X124.719 Y110.758 E12.51379
G1 X124.694 Y111.324 E12.54205
G1 X124.611 Y112.292 E12.59052
G1 X124.449 Y113.249 E12.63895
G1 X124.208 Y114.191 E12.68746
G1 X123.891 Y115.109 E12.73591
G1 X123.573 Y115.846 E12.77595
G1 X123.495 Y116.011 E12.78506
G1 X123.178 Y116.633 E12.81989
G1 X122.877 Y117.17 E12.8506
G1 X122.565 Y117.695 E12.88107
G1 X122.216 Y118.265 E12.91442
G1 X121.676 Y119.072 E12.96286
G1 X121.07 Y119.831 E13.01131
G1 X120.404 Y120.538 E13.05977
G1 X119.682 Y121.189 E13.10827
G1 X118.91 Y121.777 E13.15669
G1 X118.335 Y122.154 E13.19099
G1 X117.605 Y122.603 E13.23375
G1 X117.286 Y122.793 E13.25227
G1 X116.741 Y123.105 E13.2836
G1 X115.878 Y123.552 E13.33209
G1 X114.982 Y123.927 E13.38055
G1 X114.058 Y124.227 E13.42902
G1 X113.113 Y124.45 E13.47746
G1 X112.035 Y124.607 E13.53181
G1 X111.426 Y124.657 E13.56229
G1 X110.823 Y124.689 E13.59242
G1 X110.275 Y124.705 E13.61977
G1 X109.586 Y124.717 E13.65415
G1 X108.578 Y124.692 E13.70445
G1 X108.194 Y124.664 E13.72366
G1 X106.031 Y124.486 E13.83194
G1 X103.535 Y124.353 E13.95664
G1 X101.05 Y124.29 E14.08066
G1 X98.535 Y124.298 E14.20613
G1 X96.057 Y124.375 E14.32982
G1 X93.581 Y124.522 E14.45357
G1 X92.87 Y124.585 E14.48918
G1 X91.635 Y124.68 E14.55098
G1 X90.586 Y124.714 E14.60334
G1 X89.684 Y124.703 E14.64834
G1 X89.301 Y124.692 E14.66746
G1 X88.764 Y124.668 E14.69428
G1 X87.796 Y124.585 E14.74275
G1 X86.471 Y124.338 E14.80999
G1 X86.341 Y124.306 E14.81667
G1 X85.408 Y124.035 E14.86514
G1 X84.5 Y123.689 E14.91362
G1 X83.343 Y123.114 E14.97808
G1 X82.609 Y122.698 E15.02017
G1 X82.303 Y122.518 E15.03788
G1 X81.827 Y122.229 E15.06566
G1 X81.018 Y121.692 E15.11411
G1 X80.256 Y121.089 E15.16259
G1 X79.547 Y120.426 E15.21101
G1 X79.04 Y119.879 E15.24822
G1 X78.961 Y119.788 E15.25424
G1 X78.355 Y119.029 E15.30269
G1 X77.796 Y118.194 E15.35282
G1 X77.451 Y117.628 E15.38589
G1 X77.281 Y117.339 E15.40262
G1 X76.944 Y116.749 E15.43652
G1 X76.497 Y115.886 E15.48501
G1 X76.123 Y114.99 E15.53345
G1 X75.858 Y114.186 E15.57568
G1 X75.831 Y114.093 E15.58051
G1 X75.599 Y113.15 E15.62896
G1 X75.445 Y112.191 E15.67742
G1 X75.379 Y111.413 E15.71637
G1 X75.334 Y110.543 E15.75984
G1 X75.32 Y110.145 E15.7797
G1 X75.31 Y109.588 E15.8075
G1 X75.333 Y108.608 E15.8564
G1 X75.356 Y108.277 E15.87296
G1 X75.548 Y105.933 E15.99029
G1 X75.68 Y103.449 E16.11439
G1 X75.742 Y100.979 E16.23766
G1 X75.734 Y98.465 E16.36309
G1 X75.654 Y95.979 E16.48718
G1 X75.506 Y93.493 E16.61142
G1 X75.408 Y92.384 E16.66697
G1 X75.344 Y91.521 E16.71014
G1 X75.313 Y90.49 E16.7616
G1 X75.324 Y89.707 E16.80067
G1 X75.334 Y89.354 E16.81829
G1 X75.361 Y88.741 E16.8489
G1 X75.444 Y87.773 E16.89737
G1 X75.702 Y86.398 E16.96717
G1 X75.734 Y86.27 E16.97375
G1 X76.009 Y85.338 E17.02223
G1 X76.358 Y84.432 E17.07067
G1 X76.921 Y83.306 E17.13347
G1 X77.344 Y82.561 E17.17622
G1 X77.515 Y82.268 E17.19314
G1 X77.797 Y81.803 E17.22027
G1 X78.335 Y80.994 E17.26874
G1 X78.937 Y80.232 E17.31719
G1 X79.6 Y79.522 E17.36566
G0 F3600 X79.916 Y79.772
G1 F1800 X80.825 Y78.973 E17.42604
G1 X80.972 Y78.857 E17.43538
G1 X82.112 Y78.065 E17.50463
G1 X82.669 Y77.727 E17.53714
G1 X82.923 Y77.579 E17.5518
G1 X83.478 Y77.262 E17.58369
G1 X84.326 Y76.824 E17.63131
G1 X85.208 Y76.458 E17.67895
G1 X85.813 Y76.255 E17.71079
G1 X85.905 Y76.227 E17.71558
G1 X86.829 Y75.987 E17.76321
G1 X87.77 Y75.826 E17.81084
G1 X88.64 Y75.748 E17.85442
G1 X89.517 Y75.703 E17.89823
G1 X89.893 Y75.69 E17.917
G1 X90.441 Y75.68 E17.94435
G1 X91.383 Y75.702 E17.99135
G1 X91.701 Y75.724 E18.00726
G1 X94.127 Y75.922 E18.12869
G1 X96.621 Y76.055 E18.2533
G1 X99.156 Y76.117 E18.37981
G1 X101.663 Y76.109 E18.50488
G1 X104.109 Y76.032 E18.62697
G1 X107.6 Y75.804 E18.80151
G1 X108.475 Y75.73 E18.84532
G1 X109.567 Y75.691 E18.89984
G1 X110.421 Y75.701 E18.94244
G1 X110.791 Y75.711 E18.96091
G1 X111.334 Y75.735 E18.98803
G1 X112.286 Y75.817 E19.0357
G1 X113.227 Y75.979 E19.08334
G1 X114.151 Y76.218 E19.13095
G1 X115.052 Y76.534 E19.17859
G1 X115.795 Y76.861 E19.21909
G1 X115.979 Y76.95 E19.22928
G1 X116.509 Y77.224 E19.25905
G1 X117.01 Y77.506 E19.28773
G1 X117.467 Y77.777 E19.31424
G1 X118.081 Y78.152 E19.35013
G1 X118.874 Y78.683 E19.39775
G1 X119.62 Y79.279 E19.44539
G1 X120.314 Y79.935 E19.49303
G1 X120.95 Y80.647 E19.54066
G1 X121.524 Y81.41 E19.58829
G1 X121.857 Y81.922 E19.61877
G1 X122.285 Y82.62 E19.65961
G1 X122.46 Y82.914 E19.67668
G1 X122.787 Y83.485 E19.70951
G1 X123.226 Y84.332 E19.75711
G1 X123.593 Y85.214 E19.80477
G1 X123.885 Y86.123 E19.8524
G1 X124.1 Y87.053 E19.90002
G1 X124.249 Y88.139 E19.95471
G1 X124.299 Y88.806 E19.98808
G1 X124.33 Y89.551 E20.02528
G1 X124.346 Y90.446 E20.06994
G1 X124.324 Y91.378 E20.11645
G1 X124.294 Y91.809 E20.138
G1 X124.112 Y94.009 E20.24814
G1 X123.977 Y96.507 E20.37295
G1 X123.912 Y99.006 E20.49766
G1 X123.919 Y101.507 E20.62244
G1 X123.995 Y103.995 E20.74662
G1 X124.227 Y107.6 E20.92685
G1 X124.299 Y108.462 E20.97001
G1 X124.338 Y109.54 E21.02382
G1 X124.329 Y110.362 E21.06483
G1 X124.319 Y110.74 E21.0837
G1 X124.294 Y111.306 E21.11197
G1 X124.212 Y112.257 E21.15959
G1 X124.051 Y113.198 E21.20722
G1 X123.811 Y114.123 E21.25489
G1 X123.495 Y115.024 E21.30253
G1 X123.211 Y115.675 E21.33796
G1 X123.133 Y115.84 E21.34707
G1 X122.827 Y116.441 E21.38071
G1 X122.533 Y116.967 E21.41078
G1 X122.224 Y117.486 E21.44091
G1 X121.875 Y118.056 E21.47426
G1 X121.343 Y118.848 E21.52186
G1 X120.746 Y119.594 E21.56953
G1 X120.089 Y120.287 E21.61717
G1 X119.377 Y120.922 E21.66476
G1 X118.614 Y121.496 E21.7124
G1 X118.125 Y121.813 E21.74147
G1 X117.395 Y122.262 E21.78423
G1 X117.087 Y122.446 E21.80213
G1 X116.542 Y122.758 E21.83346
G1 X115.694 Y123.197 E21.8811
G1 X114.813 Y123.564 E21.92871
G1 X113.903 Y123.855 E21.97638
G1 X112.973 Y124.07 E22.024
G1 X111.995 Y124.209 E22.07328
G1 X111.403 Y124.258 E22.10292
G1 X110.81 Y124.289 E22.13255
G1 X110.269 Y124.305 E22.15955
G1 X109.58 Y124.317 E22.19393
G1 X108.606 Y124.293 E22.24254
G1 X108.227 Y124.266 E22.26149
G1 X106.052 Y124.087 E22.37037
G1 X103.53 Y123.952 E22.49637
G1 X101.059 Y123.889 E22.61969
G1 X98.522 Y123.898 E22.74626
G1 X96.055 Y123.974 E22.8694
G1 X93.552 Y124.123 E22.9945
G1 X92.991 Y124.174 E23.0226
G1 X91.604 Y124.281 E23.092
G1 X90.591 Y124.314 E23.14257
G1 X89.689 Y124.303 E23.18757
G1 X89.319 Y124.293 E23.20604
G1 X88.782 Y124.269 E23.23286
G1 X87.831 Y124.186 E23.28048
G1 X86.566 Y123.95 E23.34468
G1 X86.436 Y123.918 E23.35136
G1 X85.519 Y123.651 E23.39901
G1 X84.628 Y123.308 E23.44664
G1 X83.54 Y122.766 E23.50729
G1 X82.806 Y122.35 E23.54938
G1 X82.511 Y122.177 E23.56644
G1 X82.035 Y121.888 E23.59422
G1 X81.24 Y121.358 E23.64189
G1 X80.492 Y120.764 E23.68955
G1 X79.797 Y120.11 E23.73716
G1 X79.342 Y119.616 E23.77066
G1 X79.263 Y119.525 E23.77668
G1 X78.668 Y118.779 E23.82428
G1 X78.138 Y117.985 E23.87191
G1 X77.793 Y117.419 E23.90498
G1 X77.628 Y117.14 E23.92115
G1 X77.291 Y116.55 E23.95505
G1 X76.853 Y115.702 E24.00267
G1 X76.487 Y114.82 E24.05031
G1 X76.242 Y114.074 E24.08948
G1 X76.215 Y113.981 E24.09431
G1 X75.987 Y113.054 E24.14194
G1 X75.838 Y112.111 E24.18957
G1 X75.778 Y111.392 E24.22557
G1 X75.733 Y110.522 E24.26903
G1 X75.72 Y110.138 E24.2882
G1 X75.71 Y109.581 E24.31599
G1 X75.732 Y108.634 E24.36325
G1 X75.755 Y108.309 E24.3795
G1 X75.945 Y105.986 E24.49579
G1 X76.079 Y103.48 E24.62099
G1 X76.141 Y100.952 E24.74715
G1 X76.133 Y98.452 E24.87188
G1 X76.055 Y95.977 E24.99542
G1 X75.902 Y93.434 E25.12252
G1 X75.794 Y92.185 E25.18506
G1 X75.743 Y91.491 E25.21978
G1 X75.713 Y90.496 E25.26944
G1 X75.724 Y89.713 E25.30851
G1 X75.734 Y89.371 E25.32558
G1 X75.761 Y88.758 E25.35619
G1 X75.843 Y87.807 E25.40381
G1 X76.09 Y86.495 E25.47042
G1 X76.122 Y86.367 E25.477
G1 X76.393 Y85.451 E25.52466
G1 X76.738 Y84.561 E25.57228
G1 X77.269 Y83.503 E25.63134
G1 X77.692 Y82.758 E25.67408
G1 X77.857 Y82.476 E25.69038
G1 X78.139 Y82.011 E25.71751
G1 X78.668 Y81.216 E25.76515
G1 X79.262 Y80.468 E25.81281
G1 X79.916 Y79.772 E25.86045
G0 F3600 X80.231 Y80.023
G1 F1800 X81.073 Y79.287 E25.91625
G1 X81.22 Y79.171 E25.92559
G1 X82.319 Y78.407 E25.99237
G1 X82.872 Y78.072 E26.02462
G1 X83.121 Y77.926 E26.03902
G1 X83.676 Y77.609 E26.07091
G1 X84.51 Y77.179 E26.11773
G1 X85.377 Y76.822 E26.1645
G1 X85.929 Y76.638 E26.19353
G1 X86.021 Y76.61 E26.19833
G1 X86.929 Y76.375 E26.24512
G1 X87.854 Y76.219 E26.29192
G1 X88.66 Y76.147 E26.3323
G1 X89.537 Y76.102 E26.37611
G1 X89.9 Y76.09 E26.39423
G1 X90.448 Y76.08 E26.42157
G1 X91.357 Y76.101 E26.46693
G1 X91.669 Y76.123 E26.48254
G1 X94.076 Y76.32 E26.60302
