;FLAVOR:Marlin
;TIME:941
;Filament used: 0.653761m
;Layer height: 0.15
;MINX:62.606
;MINY:63.848
;MINZ:0.3
;MAXX:162.316
;MAXY:149.254
;MAXZ:13.5
;Generated with Cura_SteamEngine 4.13.0
M140 S90
M105
M190 S90
M104 S235
M105
M109 S235
M82 ;absolute extrusion mode
G21 ;metric values
G90 ;absolute positioning
M82 ;set extruder to absolute mode
M107 ;start with the fan off
G28 X0 Y0 ;move X/Y to min endstops
G28 Z0 ;move Z to min endstops
G1 Z15.0 F9000 ;move the platform down 15mm
G92 E0 ;zero the extruded length
G1 F200 E6 ;extrude 6 mm of feed stock
G92 E0 ;zero the extruded length again
G1 F9000
;Put printing message on LCD screen
M117 Printing...
G92 E0
G92 E0
G1 F3000 E-5
;LAYER_COUNT:89
;LAYER:0
M107
G0 F3600 X88.05 Y68.855 Z0.3
;TYPE:SKIRT
G1 F3000 E0
G1 F1800 X88.182 Y68.695 E0.01035
G1 X89.105 Y67.706 E0.07784
G1 X89.292 Y67.529 E0.09069
G1 X89.915 Y66.983 E0.13201
G1 X90.054 Y66.87 E0.14095
G1 X90.669 Y66.404 E0.17945
G1 X90.864 Y66.267 E0.19134
G1 X91.83 Y65.661 E0.24823
G1 X92.081 Y65.521 E0.26257
G1 X93.101 Y65.019 E0.31928
G1 X93.362 Y64.907 E0.33345
G1 X94.366 Y64.533 E0.38691
G1 X94.627 Y64.45 E0.40057
G1 X95.761 Y64.155 E0.45903
G1 X96.05 Y64.096 E0.47374
G1 X97.204 Y63.924 E0.53195
G1 X97.497 Y63.896 E0.54664
G1 X98.725 Y63.848 E0.60795
G1 X99.027 Y63.853 E0.62302
G1 X100.17 Y63.931 E0.68018
G1 X100.442 Y63.964 E0.69385
G1 X101.601 Y64.168 E0.75256
G1 X101.903 Y64.238 E0.76802
G1 X102.962 Y64.54 E0.82296
G1 X103.203 Y64.622 E0.83566
G1 X104.202 Y65.018 E0.88928
G1 X104.438 Y65.125 E0.90221
G1 X105.615 Y65.747 E0.96862
G1 X106.301 Y66.181 E1.00912
G1 X107.246 Y66.867 E1.06738
G1 X107.588 Y67.147 E1.08943
G1 X109.633 Y68.876 E1.22303
G1 X111.594 Y70.441 E1.34821
G1 X113.599 Y71.949 E1.47337
G1 X115.651 Y73.403 E1.59884
G1 X117.778 Y74.824 E1.72646
G1 X119.877 Y76.141 E1.85009
G1 X122.048 Y77.418 E1.97575
G1 X124.276 Y78.646 E2.10267
G1 X126.487 Y79.784 E2.22673
G1 X128.807 Y80.896 E2.35508
G1 X129.378 Y81.16 E2.38647
G1 X130.026 Y81.486 E2.42266
G1 X130.318 Y81.645 E2.43924
G1 X131.057 Y82.086 E2.48218
G1 X131.306 Y82.248 E2.497
G1 X132.266 Y82.949 E2.5563
G1 X132.49 Y83.132 E2.57073
G1 X133.361 Y83.925 E2.6295
G1 X133.775 Y84.354 E2.65924
G1 X134.134 Y84.751 E2.68595
G1 X134.426 Y85.088 E2.70819
G1 X135.398 Y86.229 E2.78297
G1 X137.058 Y88.069 E2.90661
G1 X138.807 Y89.903 E3.03304
G1 X140.594 Y91.671 E3.15846
G1 X142.428 Y93.388 E3.2838
G1 X144.327 Y95.066 E3.41023
G1 X146.243 Y96.665 E3.53473
G1 X148.237 Y98.237 E3.66141
G1 X150.261 Y99.74 E3.78718
G1 X152.293 Y101.162 E3.91092
G1 X154.442 Y102.577 E4.03929
G1 X155.359 Y103.149 E4.09321
G1 X155.984 Y103.552 E4.13031
G1 X156.713 Y104.065 E4.17478
G1 X156.961 Y104.255 E4.19037
G1 X157.756 Y104.926 E4.24227
G1 X157.966 Y105.121 E4.25657
G1 X158.649 Y105.815 E4.30514
G1 X158.787 Y105.968 E4.31542
G1 X159.339 Y106.63 E4.35843
G1 X159.512 Y106.855 E4.37259
G1 X160.07 Y107.651 E4.42109
G1 X160.184 Y107.83 E4.43167
G1 X160.574 Y108.493 E4.47005
G1 X160.695 Y108.716 E4.48271
G1 X161.154 Y109.668 E4.53543
G1 X161.274 Y109.951 E4.55077
G1 X161.658 Y111.001 E4.60655
G1 X161.733 Y111.244 E4.61924
G1 X161.974 Y112.167 E4.66683
G1 X162.042 Y112.482 E4.6829
G1 X162.211 Y113.486 E4.7337
G1 X162.235 Y113.685 E4.7437
G1 X162.304 Y114.544 E4.78669
G1 X162.316 Y114.832 E4.80107
G1 X162.299 Y116.06 E4.86235
G1 X162.243 Y116.809 E4.89982
G1 X162.065 Y118.67 E4.99309
G1 X161.897 Y121.191 E5.11914
G1 X161.799 Y123.723 E5.24556
G1 X161.774 Y126.212 E5.36974
G1 X161.819 Y128.734 E5.49558
G1 X161.935 Y131.227 E5.62009
G1 X162.152 Y134.023 E5.76
G1 X162.187 Y134.614 E5.78954
G1 X162.2 Y135.39 E5.82826
G1 X162.196 Y135.617 E5.83959
G1 X162.15 Y136.453 E5.88136
G1 X162.128 Y136.687 E5.89309
G1 X162.006 Y137.586 E5.93835
G1 X161.962 Y137.833 E5.95086
G1 X161.801 Y138.584 E5.98918
G1 X161.748 Y138.795 E6.00004
G1 X161.462 Y139.747 E6.04963
G1 X161.363 Y140.03 E6.06459
G1 X160.93 Y141.088 E6.12162
G1 X160.79 Y141.385 E6.138
G1 X160.195 Y142.481 E6.20022
G1 X160.028 Y142.751 E6.21606
G1 X159.396 Y143.667 E6.27158
G1 X159.207 Y143.913 E6.28706
G1 X158.46 Y144.786 E6.34438
G1 X158.252 Y145.005 E6.35945
G1 X157.509 Y145.718 E6.41082
G1 X157.289 Y145.91 E6.42539
G1 X156.352 Y146.642 E6.48471
G1 X156.097 Y146.82 E6.50023
G1 X155.109 Y147.435 E6.55829
G1 X154.824 Y147.592 E6.57452
G1 X153.801 Y148.088 E6.63124
G1 X153.522 Y148.206 E6.64635
G1 X152.526 Y148.572 E6.69929
G1 X152.242 Y148.661 E6.71414
G1 X151.071 Y148.958 E6.77441
G1 X150.755 Y149.02 E6.79048
G1 X149.639 Y149.18 E6.84673
G1 X149.322 Y149.209 E6.86261
G1 X148.195 Y149.254 E6.91888
G1 X147.932 Y149.251 E6.932
G1 X147.273 Y149.224 E6.96491
G1 X146.902 Y149.194 E6.98348
G1 X146.311 Y149.136 E7.0131
G1 X143.735 Y148.921 E7.14207
G1 X141.225 Y148.782 E7.26748
G1 X138.71 Y148.714 E7.393
G1 X136.188 Y148.718 E7.51883
G1 X133.69 Y148.792 E7.64351
G1 X131.143 Y148.939 E7.77079
G1 X129.444 Y149.081 E7.85585
G1 X128.859 Y149.117 E7.88509
G1 X128.085 Y149.13 E7.92371
G1 X127.86 Y149.126 E7.93494
G1 X127.031 Y149.08 E7.97636
G1 X126.796 Y149.058 E7.98813
G1 X125.892 Y148.936 E8.03364
G1 X125.645 Y148.892 E8.04616
G1 X124.871 Y148.725 E8.08566
G1 X124.658 Y148.671 E8.09663
G1 X123.852 Y148.433 E8.13855
G1 X123.647 Y148.364 E8.14935
G1 X122.91 Y148.087 E8.18863
G1 X122.671 Y147.987 E8.20155
G1 X121.584 Y147.46 E8.26182
G1 X121.317 Y147.312 E8.27705
G1 X120.695 Y146.939 E8.31323
G1 X120.563 Y146.854 E8.32107
G1 X119.83 Y146.339 E8.36576
G1 X119.578 Y146.146 E8.3816
G1 X118.89 Y145.574 E8.42623
G1 X118.425 Y145.138 E8.45803
G1 X117.863 Y144.581 E8.49751
G1 X116.488 Y143.19 E8.59509
G1 X114.673 Y141.454 E8.72039
G1 X112.806 Y139.767 E8.84593
G1 X110.894 Y138.136 E8.97131
G1 X108.922 Y136.547 E9.09766
G1 X106.942 Y135.043 E9.22171
G1 X104.88 Y133.565 E9.34828
G1 X102.802 Y132.164 E9.47331
G1 X100.653 Y130.801 E9.60027
G1 X98.511 Y129.527 E9.72461
G1 X96.3 Y128.295 E9.85089
G1 X94.095 Y127.147 E9.97491
G1 X91.809 Y126.037 E10.1017
G1 X89.511 Y125 E10.22748
G1 X87.184 Y124.03 E10.35325
G1 X84.815 Y123.117 E10.47992
G1 X82.449 Y122.286 E10.60503
G1 X80.078 Y121.525 E10.72926
G1 X77.67 Y120.827 E10.85434
G1 X75.196 Y120.185 E10.98186
G1 X73.747 Y119.843 E11.05613
G1 X73.257 Y119.731 E11.08121
G1 X72.711 Y119.592 E11.10932
G1 X72.456 Y119.52 E11.12254
G1 X71.439 Y119.179 E11.17605
G1 X71.283 Y119.118 E11.18441
G1 X70.706 Y118.873 E11.21568
G1 X70.514 Y118.785 E11.22622
G1 X69.644 Y118.338 E11.27502
G1 X69.411 Y118.205 E11.2884
G1 X68.888 Y117.887 E11.31894
G1 X68.82 Y117.843 E11.32298
G1 X68.228 Y117.432 E11.35894
G1 X68.052 Y117.301 E11.36988
G1 X67.395 Y116.772 E11.41197
G1 X67.209 Y116.61 E11.42427
G1 X66.471 Y115.904 E11.47523
G1 X66.309 Y115.734 E11.48694
G1 X65.615 Y114.931 E11.53989
G1 X65.43 Y114.695 E11.55485
G1 X64.783 Y113.777 E11.61088
G1 X64.672 Y113.601 E11.62126
G1 X64.155 Y112.688 E11.67361
G1 X63.987 Y112.355 E11.69222
G1 X63.49 Y111.214 E11.75431
G1 X63.412 Y111.003 E11.76553
G1 X63.097 Y110.007 E11.81765
G1 X63.022 Y109.724 E11.83225
G1 X62.789 Y108.616 E11.88874
G1 X62.741 Y108.311 E11.90415
G1 X62.618 Y107.102 E11.96477
G1 X62.606 Y106.839 E11.97791
G1 X62.612 Y105.726 E12.03344
G1 X62.63 Y105.403 E12.04958
G1 X62.776 Y104.128 E12.1136
G1 X62.819 Y103.881 E12.12611
G1 X62.981 Y103.112 E12.16532
G1 X63.032 Y102.907 E12.17586
G1 X63.296 Y102.013 E12.22236
G1 X63.37 Y101.796 E12.2338
G1 X63.71 Y100.922 E12.28059
G1 X63.968 Y100.375 E12.31076
G1 X64.2 Y99.917 E12.33638
G1 X64.905 Y98.72 E12.40568
G1 X65.033 Y98.531 E12.41707
G1 X65.655 Y97.699 E12.4689
G1 X65.834 Y97.482 E12.48293
G1 X66.503 Y96.743 E12.53266
G1 X66.945 Y96.311 E12.5635
G1 X68.07 Y95.269 E12.64
G1 X69.915 Y93.512 E12.76711
G1 X71.695 Y91.717 E12.89323
G1 X73.405 Y89.893 E13.01796
G1 X75.083 Y87.997 E13.14428
G1 X76.697 Y86.067 E13.2698
G1 X78.264 Y84.082 E13.39597
G1 X79.775 Y82.051 E13.52227
G1 X81.197 Y80.024 E13.6458
G1 X82.593 Y77.906 E13.77235
G1 X83.913 Y75.778 E13.89728
G1 X85.193 Y73.576 E14.02435
G1 X86.287 Y71.572 E14.13826
G1 X86.704 Y70.801 E14.18199
G1 X86.772 Y70.683 E14.18879
G1 X87.397 Y69.718 E14.24615
G1 X87.629 Y69.398 E14.26587
G1 X88.05 Y68.855 E14.30015
G0 F3600 X88.358 Y69.109
G1 F1800 X88.49 Y68.949 E14.31049
G1 X89.38 Y67.997 E14.37551
G1 X89.567 Y67.82 E14.38836
G1 X90.167 Y67.293 E14.4282
G1 X90.306 Y67.18 E14.43714
G1 X90.899 Y66.732 E14.47422
G1 X91.094 Y66.595 E14.4861
G1 X92.025 Y66.011 E14.54093
G1 X92.276 Y65.871 E14.55527
G1 X93.259 Y65.387 E14.60994
G1 X93.52 Y65.275 E14.62411
G1 X94.488 Y64.914 E14.67565
G1 X94.749 Y64.831 E14.68931
G1 X95.841 Y64.547 E14.74561
G1 X96.13 Y64.488 E14.76032
G1 X97.242 Y64.322 E14.81641
G1 X97.535 Y64.294 E14.8311
G1 X98.718 Y64.247 E14.89017
G1 X99.02 Y64.252 E14.90523
G1 X100.122 Y64.328 E14.96034
G1 X100.394 Y64.361 E14.97401
G1 X101.51 Y64.558 E15.03055
G1 X101.812 Y64.628 E15.04602
G1 X102.833 Y64.919 E15.09898
G1 X103.074 Y65.001 E15.11169
G1 X104.037 Y65.382 E15.16335
G1 X104.273 Y65.489 E15.17628
G1 X105.407 Y66.088 E15.24026
G1 X106.084 Y66.517 E15.28025
G1 X106.994 Y67.177 E15.33633
G1 X107.329 Y67.452 E15.35796
G1 X109.353 Y69.163 E15.49018
G1 X111.35 Y70.757 E15.61766
G1 X113.389 Y72.291 E15.74496
G1 X115.427 Y73.735 E15.86957
G1 X117.524 Y75.136 E15.99539
G1 X119.683 Y76.49 E16.12253
G1 X121.858 Y77.769 E16.24842
G1 X124.079 Y78.994 E16.37496
G1 X126.31 Y80.142 E16.50013
G1 X128.73 Y81.303 E16.63404
G1 X129.21 Y81.524 E16.66041
G1 X129.835 Y81.838 E16.6953
G1 X130.127 Y81.997 E16.71189
G1 X130.839 Y82.421 E16.75323
G1 X131.088 Y82.583 E16.76805
G1 X132.013 Y83.259 E16.82521
G1 X132.237 Y83.442 E16.83964
G1 X133.076 Y84.206 E16.89626
G1 X133.481 Y84.625 E16.92533
G1 X133.832 Y85.014 E16.95147
G1 X134.121 Y85.347 E16.97347
G1 X135.095 Y86.491 E17.04842
G1 X136.772 Y88.349 E17.1733
G1 X138.502 Y90.163 E17.29835
G1 X140.323 Y91.965 E17.42617
G1 X142.158 Y93.684 E17.55161
G1 X144.051 Y95.357 E17.67765
G1 X146.002 Y96.984 E17.80439
G1 X147.98 Y98.544 E17.93007
G1 X150.016 Y100.056 E18.05659
G1 X152.09 Y101.507 E18.18288
G1 X154.233 Y102.918 E18.31088
G1 X155.142 Y103.485 E18.36433
G1 X155.767 Y103.888 E18.40143
G1 X156.47 Y104.383 E18.44433
G1 X156.718 Y104.573 E18.45992
G1 X157.484 Y105.219 E18.50991
G1 X157.694 Y105.414 E18.52421
G1 X158.352 Y106.082 E18.57098
G1 X158.49 Y106.235 E18.58126
G1 X159.022 Y106.874 E18.62275
G1 X159.195 Y107.099 E18.63691
G1 X159.733 Y107.866 E18.68365
G1 X159.847 Y108.045 E18.69423
G1 X160.223 Y108.684 E18.73122
G1 X160.344 Y108.907 E18.74388
G1 X160.786 Y109.824 E18.79467
G1 X160.906 Y110.107 E18.81
G1 X161.276 Y111.119 E18.86376
G1 X161.351 Y111.362 E18.87645
G1 X161.583 Y112.251 E18.92229
G1 X161.651 Y112.566 E18.93836
G1 X161.814 Y113.534 E18.98734
G1 X161.838 Y113.733 E18.99734
G1 X161.905 Y114.561 E19.03878
G1 X161.917 Y114.849 E19.05316
G1 X161.9 Y116.032 E19.11219
G1 X161.845 Y116.77 E19.14911
G1 X161.668 Y118.614 E19.24153
G1 X161.497 Y121.182 E19.36993
G1 X161.399 Y123.704 E19.49585
G1 X161.374 Y126.215 E19.62113
G1 X161.419 Y128.726 E19.74643
G1 X161.537 Y131.276 E19.87378
G1 X161.753 Y134.054 E20.01279
G1 X161.787 Y134.635 E20.04183
G1 X161.8 Y135.383 E20.07915
G1 X161.796 Y135.61 E20.09048
G1 X161.751 Y136.415 E20.13071
G1 X161.729 Y136.649 E20.14243
G1 X161.612 Y137.516 E20.18608
G1 X161.568 Y137.763 E20.19859
G1 X161.413 Y138.486 E20.23549
G1 X161.36 Y138.697 E20.24634
G1 X161.084 Y139.615 E20.29416
G1 X160.985 Y139.898 E20.30912
G1 X160.568 Y140.918 E20.3641
G1 X160.428 Y141.215 E20.38048
G1 X159.855 Y142.271 E20.44042
G1 X159.688 Y142.541 E20.45626
G1 X159.079 Y143.423 E20.50973
G1 X158.89 Y143.669 E20.52521
G1 X158.17 Y144.511 E20.58048
G1 X157.962 Y144.73 E20.59555
G1 X157.246 Y145.416 E20.64502
G1 X157.026 Y145.608 E20.65959
G1 X156.123 Y146.314 E20.71677
G1 X155.868 Y146.492 E20.73229
G1 X154.916 Y147.084 E20.78822
G1 X154.631 Y147.241 E20.80445
G1 X153.645 Y147.72 E20.85914
G1 X153.366 Y147.838 E20.87425
G1 X152.407 Y148.19 E20.92522
G1 X152.123 Y148.279 E20.94007
G1 X150.994 Y148.566 E20.99818
G1 X150.678 Y148.628 E21.01425
G1 X149.603 Y148.782 E21.06843
G1 X149.286 Y148.811 E21.08431
G1 X148.199 Y148.854 E21.13858
G1 X147.936 Y148.851 E21.15171
G1 X147.302 Y148.825 E21.18336
G1 X146.941 Y148.796 E21.20143
G1 X146.315 Y148.735 E21.23281
G1 X143.79 Y148.524 E21.35922
G1 X141.222 Y148.381 E21.48754
G1 X138.72 Y148.314 E21.61241
G1 X136.175 Y148.318 E21.73938
G1 X133.655 Y148.393 E21.86516
G1 X131.126 Y148.539 E21.99154
G1 X129.411 Y148.682 E22.0774
G1 X128.838 Y148.717 E22.10604
G1 X128.093 Y148.73 E22.14321
G1 X127.868 Y148.726 E22.15444
G1 X127.068 Y148.682 E22.19441
G1 X126.833 Y148.66 E22.20619
G1 X125.962 Y148.542 E22.25004
G1 X125.715 Y148.498 E22.26256
G1 X124.969 Y148.337 E22.30063
G1 X124.756 Y148.283 E22.3116
G1 X123.98 Y148.054 E22.35196
G1 X123.775 Y147.985 E22.36275
G1 X123.065 Y147.718 E22.4006
G1 X122.826 Y147.618 E22.41352
G1 X121.778 Y147.11 E22.47163
G1 X121.511 Y146.962 E22.48686
G1 X120.911 Y146.603 E22.52174
G1 X120.779 Y146.518 E22.52957
G1 X120.073 Y146.021 E22.57265
G1 X119.821 Y145.828 E22.58848
G1 X119.158 Y145.277 E22.63149
G1 X118.707 Y144.854 E22.66234
G1 X118.147 Y144.3 E22.70164
G1 X116.766 Y142.902 E22.79968
G1 X114.934 Y141.151 E22.92611
G1 X113.088 Y139.482 E23.05027
G1 X111.12 Y137.804 E23.1793
G1 X109.191 Y136.25 E23.30288
G1 X107.172 Y134.715 E23.42941
G1 X105.107 Y133.235 E23.55616
G1 X103.017 Y131.827 E23.68189
G1 X100.865 Y130.462 E23.80903
G1 X98.689 Y129.167 E23.93536
G1 X96.501 Y127.948 E24.06032
G1 X94.276 Y126.789 E24.18548
G1 X91.97 Y125.67 E24.31336
G1 X89.693 Y124.643 E24.43798
G1 X87.303 Y123.646 E24.56718
G1 X84.985 Y122.753 E24.69111
G1 X82.599 Y121.915 E24.81727
G1 X80.173 Y121.137 E24.94438
G1 X77.776 Y120.441 E25.0689
G1 X75.248 Y119.786 E25.19919
G1 X73.904 Y119.468 E25.26809
G1 X73.345 Y119.341 E25.29669
G1 X72.82 Y119.207 E25.32373
G1 X72.565 Y119.135 E25.33694
G1 X71.585 Y118.806 E25.38852
G1 X71.429 Y118.745 E25.39688
G1 X70.872 Y118.509 E25.42706
G1 X70.68 Y118.421 E25.43759
G1 X69.842 Y117.991 E25.48458
G1 X69.609 Y117.858 E25.49797
G1 X69.106 Y117.551 E25.52737
G1 X69.038 Y117.507 E25.53141
G1 X68.467 Y117.111 E25.56608
G1 X68.291 Y116.98 E25.57702
G1 X67.658 Y116.47 E25.61758
G1 X67.472 Y116.308 E25.62988
G1 X66.76 Y115.628 E25.679
G1 X66.598 Y115.458 E25.69072
G1 X65.93 Y114.685 E25.74169
G1 X65.745 Y114.449 E25.75665
G1 X65.121 Y113.564 E25.81067
G1 X65.01 Y113.388 E25.82105
G1 X64.512 Y112.508 E25.8715
G1 X64.344 Y112.175 E25.89011
G1 X63.866 Y111.075 E25.94995
G1 X63.788 Y110.864 E25.96117
G1 X63.484 Y109.904 E26.01141
G1 X63.409 Y109.621 E26.02601
G1 X63.184 Y108.554 E26.08042
G1 X63.136 Y108.249 E26.09582
G1 X63.018 Y107.084 E26.15424
G1 X63.006 Y106.821 E26.16738
G1 X63.011 Y105.748 E26.22091
G1 X63.029 Y105.425 E26.23705
G1 X63.17 Y104.197 E26.29872
G1 X63.213 Y103.95 E26.31122
G1 X63.37 Y103.209 E26.34901
G1 X63.421 Y103.004 E26.35955
G1 X63.674 Y102.142 E26.40437
G1 X63.748 Y101.925 E26.41581
G1 X64.083 Y101.067 E26.46176
G1 X64.325 Y100.556 E26.48997
G1 X64.557 Y100.098 E26.51558
G1 X65.236 Y98.944 E26.58238
G1 X65.364 Y98.755 E26.59377
G1 X65.964 Y97.954 E26.6437
G1 X66.143 Y97.737 E26.65774
G1 X66.787 Y97.024 E26.70567
G1 X67.217 Y96.605 E26.73562
G1 X68.264 Y95.635 E26.80683
G1 X70.227 Y93.766 E26.94206
G1 X71.971 Y92.007 E27.06563
G1 X73.714 Y90.148 E27.19277
G1 X75.397 Y88.246 E27.31948
G1 X77.002 Y86.326 E27.44433
G1 X78.583 Y84.323 E27.57164
G1 X80.078 Y82.314 E27.69657
G1 X81.549 Y80.216 E27.82441
G1 X82.923 Y78.131 E27.94898
G1 X84.265 Y75.968 E28.07598
G1 X85.54 Y73.774 E28.20258
G1 X86.682 Y71.684 E28.3214
G1 X87.051 Y71 E28.36017
G1 X87.119 Y70.882 E28.36697
G1 X87.721 Y69.953 E28.4222
G1 X87.953 Y69.633 E28.44191
G1 X88.358 Y69.109 E28.47496
G0 F3600 X88.667 Y69.364
G1 F1800 X88.799 Y69.204 E28.4853
G1 X89.655 Y68.287 E28.54789
G1 X89.842 Y68.11 E28.56073
G1 X90.42 Y67.603 E28.59909
G1 X90.559 Y67.49 E28.60803
G1 X91.129 Y67.059 E28.64368
G1 X91.324 Y66.922 E28.65557
G1 X92.219 Y66.36 E28.7083
G1 X92.47 Y66.22 E28.72263
G1 X93.417 Y65.755 E28.77527
G1 X93.678 Y65.643 E28.78944
G1 X94.609 Y65.296 E28.83901
G1 X94.87 Y65.213 E28.85267
