;FLAVOR:Marlin
;TIME:671
;Filament used: 0.485618m
;Layer height: 0.15
;MINX:63.673
;MINY:67.708
;MINZ:0.3
;MAXX:136.329
;MAXY:135.758
;MAXZ:11.55
;Generated with Cura_SteamEngine 4.13.0
M140 S90
M105
M190 S90
M104 S235
M105
M109 S235
M82 ;absolute extrusion mode
G21 ;metric values
G90 ;absolute positioning
M82 ;set extruder to absolute mode
M107 ;start with the fan off
G28 X0 Y0 ;move X/Y to min endstops
G28 Z0 ;move Z to min endstops
G1 Z15.0 F9000 ;move the platform down 15mm
G92 E0 ;zero the extruded length
G1 F200 E6 ;extrude 6 mm of feed stock
G92 E0 ;zero the extruded length again
G1 F9000
;Put printing message on LCD screen
M117 Printing...
G92 E0
G92 E0
G1 F3000 E-5
;LAYER_COUNT:76
;LAYER:0
M107
G0 F3600 X77.373 Y72.006 Z0.3
;TYPE:SKIRT
G1 F3000 E0
G1 F1800 X78.183 Y71.215 E0.05648
G1 X78.368 Y71.052 E0.06878
G1 X79.04 Y70.505 E0.11201
G1 X79.2 Y70.385 E0.12199
G1 X80.023 Y69.824 E0.17168
G1 X80.245 Y69.687 E0.1847
G1 X81.241 Y69.141 E0.24137
G1 X81.614 Y68.962 E0.26201
G1 X82.563 Y68.569 E0.31325
G1 X82.804 Y68.482 E0.32603
G1 X83.749 Y68.188 E0.37541
G1 X83.974 Y68.129 E0.38701
G1 X84.763 Y67.953 E0.42735
G1 X84.963 Y67.916 E0.43749
G1 X85.946 Y67.779 E0.48701
G1 X86.215 Y67.754 E0.50049
G1 X87.388 Y67.708 E0.55905
G1 X87.671 Y67.712 E0.57317
G1 X88.816 Y67.788 E0.63042
G1 X89.732 Y67.924 E0.67662
G1 X90.611 Y68.101 E0.72136
G1 X90.754 Y68.136 E0.7287
G1 X91.71 Y68.417 E0.77842
G1 X91.946 Y68.498 E0.79086
G1 X92.771 Y68.819 E0.83503
G1 X93.724 Y69.235 E0.88691
G1 X94.788 Y69.715 E0.94514
G1 X97.095 Y70.678 E1.06986
G1 X99.467 Y71.594 E1.19672
G1 X101.822 Y72.421 E1.32125
G1 X104.231 Y73.195 E1.44748
G1 X106.627 Y73.89 E1.57195
G1 X109.063 Y74.524 E1.69753
G1 X111.554 Y75.096 E1.82504
G1 X113.998 Y75.587 E1.94941
G1 X116.481 Y76.01 E2.07507
G1 X118.956 Y76.361 E2.19978
G1 X121.484 Y76.648 E2.32671
G1 X123.473 Y76.816 E2.4263
G1 X123.966 Y76.864 E2.45101
G1 X124.6 Y76.944 E2.48289
G1 X124.843 Y76.982 E2.49516
G1 X125.932 Y77.209 E2.55066
G1 X126.222 Y77.285 E2.56562
G1 X127.047 Y77.537 E2.60866
G1 X127.162 Y77.577 E2.61473
G1 X127.952 Y77.886 E2.65705
G1 X128.245 Y78.014 E2.673
G1 X129.231 Y78.505 E2.72796
G1 X129.416 Y78.609 E2.73854
G1 X130.114 Y79.037 E2.77939
G1 X130.272 Y79.142 E2.78886
G1 X131.039 Y79.7 E2.83618
G1 X131.285 Y79.896 E2.85187
G1 X131.993 Y80.511 E2.89866
G1 X132.396 Y80.914 E2.92709
G1 X132.655 Y81.186 E2.94583
G1 X133.027 Y81.596 E2.97345
G1 X133.597 Y82.31 E3.01903
G1 X133.783 Y82.564 E3.03474
G1 X134.438 Y83.57 E3.09463
G1 X134.57 Y83.799 E3.10781
G1 X134.932 Y84.48 E3.14629
G1 X134.986 Y84.591 E3.15245
G1 X135.34 Y85.401 E3.19655
G1 X135.431 Y85.634 E3.20903
G1 X135.795 Y86.734 E3.26684
G1 X135.891 Y87.085 E3.28499
G1 X136.123 Y88.128 E3.3383
G1 X136.159 Y88.338 E3.34893
G1 X136.295 Y89.498 E3.4072
G1 X136.316 Y89.828 E3.42369
G1 X136.329 Y90.974 E3.48087
G1 X136.319 Y91.22 E3.49316
G1 X136.213 Y92.362 E3.55037
G1 X136.167 Y92.677 E3.56626
G1 X135.966 Y93.706 E3.61856
G1 X135.917 Y93.906 E3.62884
G1 X135.678 Y94.739 E3.67207
G1 X135.602 Y94.969 E3.68416
G1 X135.217 Y95.968 E3.73757
G1 X135.102 Y96.228 E3.75175
G1 X134.702 Y97.039 E3.79687
G1 X134.641 Y97.151 E3.80323
G1 X134 Y98.188 E3.86405
G1 X133.75 Y98.546 E3.88584
G1 X133.329 Y99.11 E3.92095
G1 X132.997 Y99.526 E3.94751
G1 X131.641 Y101.164 E4.05359
G1 X130.095 Y103.14 E4.17876
G1 X128.598 Y105.171 E4.30464
G1 X127.159 Y107.242 E4.43046
G1 X125.774 Y109.359 E4.55667
G1 X124.467 Y111.491 E4.68143
G1 X123.216 Y113.663 E4.80648
G1 X122.021 Y115.882 E4.93222
G1 X120.868 Y118.177 E5.06036
G1 X119.822 Y120.413 E5.18351
G1 X118.828 Y122.709 E5.30834
G1 X117.874 Y125.09 E5.43631
G1 X117.371 Y126.446 E5.50846
G1 X117.14 Y127.044 E5.54044
G1 X116.839 Y127.75 E5.57873
G1 X116.726 Y127.991 E5.59201
G1 X116.272 Y128.856 E5.64075
G1 X116.18 Y129.014 E5.64987
G1 X115.714 Y129.747 E5.69321
G1 X115.558 Y129.972 E5.70687
G1 X114.884 Y130.846 E5.76193
G1 X114.703 Y131.058 E5.77584
G1 X113.916 Y131.888 E5.8329
G1 X113.713 Y132.081 E5.84688
G1 X112.89 Y132.79 E5.90107
G1 X112.687 Y132.948 E5.9139
G1 X111.954 Y133.472 E5.95886
G1 X111.792 Y133.578 E5.96852
G1 X111.048 Y134.023 E6.01177
G1 X110.825 Y134.145 E6.02445
G1 X109.934 Y134.582 E6.07396
G1 X109.711 Y134.679 E6.08609
G1 X108.802 Y135.028 E6.13467
G1 X108.589 Y135.099 E6.14587
G1 X107.69 Y135.356 E6.19252
G1 X107.462 Y135.411 E6.20422
G1 X106.541 Y135.592 E6.25105
G1 X105.937 Y135.667 E6.28141
G1 X105.522 Y135.707 E6.30221
G1 X104.404 Y135.758 E6.35805
G1 X104.054 Y135.756 E6.37551
G1 X103.117 Y135.71 E6.42231
G1 X102.378 Y135.618 E6.45947
G1 X101.972 Y135.553 E6.47998
G1 X100.842 Y135.31 E6.53765
G1 X100.594 Y135.243 E6.55046
G1 X99.365 Y134.832 E6.61512
G1 X99.086 Y134.72 E6.63011
G1 X98.02 Y134.224 E6.68877
G1 X97.768 Y134.09 E6.70301
G1 X97.043 Y133.669 E6.74484
G1 X95.681 Y132.805 E6.82531
G1 X95.274 Y132.542 E6.84948
G1 X93.088 Y131.212 E6.97714
G1 X90.929 Y129.98 E7.10116
G1 X88.669 Y128.773 E7.22898
G1 X86.459 Y127.673 E7.35214
G1 X84.156 Y126.607 E7.47875
G1 X81.836 Y125.61 E7.60473
G1 X79.475 Y124.674 E7.73144
G1 X77.144 Y123.828 E7.85516
G1 X74.735 Y123.028 E7.9818
G1 X74.349 Y122.909 E8.00195
G1 X73.194 Y122.542 E8.06241
G1 X72.532 Y122.309 E8.09743
G1 X72.283 Y122.212 E8.11076
G1 X71.2 Y121.721 E8.17008
G1 X70.927 Y121.579 E8.18543
G1 X70.089 Y121.095 E8.23371
G1 X69.951 Y121.007 E8.24188
G1 X69.253 Y120.523 E8.28426
G1 X69.019 Y120.347 E8.29886
G1 X68.118 Y119.59 E8.35757
G1 X67.933 Y119.417 E8.37021
G1 X67.163 Y118.622 E8.42543
G1 X66.948 Y118.376 E8.44173
G1 X66.205 Y117.424 E8.50198
G1 X66.042 Y117.19 E8.5162
G1 X65.405 Y116.158 E8.57671
G1 X65.281 Y115.93 E8.58966
G1 X64.854 Y115.055 E8.63823
G1 X64.742 Y114.797 E8.65226
G1 X64.324 Y113.669 E8.71228
G1 X64.242 Y113.404 E8.72612
G1 X63.997 Y112.469 E8.77434
G1 X63.944 Y112.223 E8.7869
G1 X63.795 Y111.374 E8.8299
G1 X63.774 Y111.218 E8.83775
G1 X63.676 Y109.83 E8.90717
G1 X63.673 Y109.417 E8.92778
G1 X63.727 Y108.253 E8.98591
G1 X63.767 Y107.849 E9.00617
G1 X63.899 Y106.921 E9.05293
G1 X64.042 Y106.257 E9.08682
G1 X64.267 Y105.431 E9.12953
G1 X64.318 Y105.269 E9.138
G1 X64.576 Y104.539 E9.17663
G1 X64.669 Y104.303 E9.18928
G1 X65.015 Y103.517 E9.23213
G1 X65.201 Y103.14 E9.2531
G1 X65.677 Y102.216 E9.30496
G1 X66.8 Y99.96 E9.43068
G1 X67.855 Y97.682 E9.55593
G1 X68.852 Y95.358 E9.6821
G1 X69.784 Y93.008 E9.80822
G1 X70.629 Y90.682 E9.93169
G1 X71.439 Y88.244 E10.05986
G1 X72.161 Y85.845 E10.18484
G1 X72.814 Y83.428 E10.30975
G1 X73.406 Y80.96 E10.43637
G1 X73.7 Y79.547 E10.50838
G1 X73.931 Y78.495 E10.56211
G1 X74.057 Y77.982 E10.58847
G1 X74.123 Y77.738 E10.60108
G1 X74.483 Y76.638 E10.65882
G1 X74.598 Y76.341 E10.67471
G1 X74.974 Y75.482 E10.72149
G1 X75.379 Y74.716 E10.76472
G1 X76.105 Y73.559 E10.83287
G1 X76.291 Y73.3 E10.84878
G1 X77.144 Y72.254 E10.91611
G1 X77.373 Y72.006 E10.93295
G0 F3600 X77.667 Y72.277
G1 F1800 X78.447 Y71.515 E10.98736
G1 X78.632 Y71.352 E10.99966
G1 X79.28 Y70.825 E11.04133
G1 X79.44 Y70.705 E11.05131
G1 X80.233 Y70.164 E11.0992
G1 X80.455 Y70.027 E11.11221
G1 X81.415 Y69.502 E11.1668
G1 X81.785 Y69.324 E11.18729
G1 X82.699 Y68.945 E11.23665
G1 X82.94 Y68.858 E11.24943
G1 X83.85 Y68.575 E11.29698
G1 X84.075 Y68.516 E11.30858
G1 X84.836 Y68.346 E11.34749
G1 X85.036 Y68.309 E11.35763
G1 X85.983 Y68.177 E11.40534
G1 X86.252 Y68.152 E11.41881
G1 X87.383 Y68.108 E11.47528
G1 X87.666 Y68.112 E11.4894
G1 X88.769 Y68.185 E11.54455
G1 X89.669 Y68.319 E11.58995
G1 X90.516 Y68.49 E11.63306
G1 X90.659 Y68.525 E11.6404
G1 X91.58 Y68.795 E11.68829
G1 X91.816 Y68.876 E11.70073
G1 X92.611 Y69.185 E11.74329
G1 X93.56 Y69.6 E11.79496
G1 X94.619 Y70.077 E11.85291
G1 X96.945 Y71.049 E11.97868
G1 X99.327 Y71.968 E12.10605
G1 X101.705 Y72.804 E12.23181
G1 X104.103 Y73.574 E12.35746
G1 X106.52 Y74.275 E12.48302
G1 X108.979 Y74.915 E12.60979
G1 X111.464 Y75.486 E12.73699
G1 X113.95 Y75.985 E12.86349
G1 X116.394 Y76.402 E12.98719
G1 X118.927 Y76.761 E13.11482
G1 X121.408 Y77.042 E13.23939
G1 X123.434 Y77.214 E13.34083
G1 X123.927 Y77.262 E13.36554
G1 X124.538 Y77.339 E13.39627
G1 X124.781 Y77.377 E13.40854
G1 X125.83 Y77.596 E13.462
G1 X126.12 Y77.672 E13.47696
G1 X126.915 Y77.914 E13.51842
G1 X127.03 Y77.954 E13.52449
G1 X127.791 Y78.252 E13.56527
G1 X128.084 Y78.38 E13.58122
G1 X129.035 Y78.854 E13.63423
G1 X129.22 Y78.958 E13.64482
G1 X129.893 Y79.37 E13.68419
G1 X130.051 Y79.475 E13.69365
G1 X130.789 Y80.013 E13.73922
G1 X131.035 Y80.209 E13.75491
G1 X131.73 Y80.813 E13.80085
G1 X132.107 Y81.189 E13.82741
G1 X132.692 Y81.821 E13.87038
G1 X132.725 Y81.859 E13.87289
G1 X133.274 Y82.546 E13.91676
G1 X133.46 Y82.8 E13.93247
G1 X134.092 Y83.769 E13.99018
G1 X134.224 Y83.998 E14.00337
G1 X134.572 Y84.655 E14.04046
G1 X134.626 Y84.766 E14.04662
G1 X134.968 Y85.547 E14.08916
G1 X135.059 Y85.78 E14.10164
G1 X135.409 Y86.84 E14.15733
G1 X135.505 Y87.191 E14.17548
G1 X135.729 Y88.196 E14.22685
G1 X135.765 Y88.406 E14.23748
G1 X135.896 Y89.524 E14.29364
G1 X135.917 Y89.854 E14.31014
G1 X135.929 Y90.958 E14.36522
G1 X135.919 Y91.204 E14.3775
G1 X135.817 Y92.305 E14.43267
G1 X135.771 Y92.62 E14.44855
G1 X135.578 Y93.61 E14.49887
G1 X135.529 Y93.81 E14.50915
G1 X135.298 Y94.614 E14.55088
G1 X135.222 Y94.844 E14.56296
G1 X134.851 Y95.806 E14.6144
G1 X134.736 Y96.066 E14.62859
G1 X134.351 Y96.848 E14.67207
G1 X134.29 Y96.96 E14.67844
G1 X133.672 Y97.959 E14.73704
G1 X133.422 Y98.317 E14.75883
G1 X133.016 Y98.86 E14.79265
G1 X132.56 Y99.429 E14.82903
G1 X131.32 Y100.925 E14.92597
G1 X129.762 Y102.916 E15.0521
G1 X128.275 Y104.934 E15.17716
G1 X126.828 Y107.017 E15.3037
G1 X125.442 Y109.137 E15.43006
G1 X124.122 Y111.288 E15.55597
G1 X122.867 Y113.468 E15.68147
G1 X121.655 Y115.719 E15.80901
G1 X120.526 Y117.964 E15.93438
G1 X119.451 Y120.263 E16.061
G1 X118.454 Y122.565 E16.18616
G1 X117.506 Y124.931 E16.31332
G1 X116.998 Y126.302 E16.38626
G1 X116.767 Y126.9 E16.41825
G1 X116.476 Y127.58 E16.45515
G1 X116.363 Y127.821 E16.46843
G1 X115.926 Y128.655 E16.5154
G1 X115.834 Y128.813 E16.52452
G1 X115.385 Y129.519 E16.56626
G1 X115.229 Y129.744 E16.57992
G1 X114.58 Y130.587 E16.633
G1 X114.399 Y130.799 E16.64691
G1 X113.641 Y131.598 E16.70186
G1 X113.438 Y131.791 E16.71583
G1 X112.645 Y132.474 E16.76804
G1 X112.442 Y132.632 E16.78088
G1 X111.735 Y133.137 E16.82422
G1 X111.573 Y133.243 E16.83388
G1 X110.857 Y133.672 E16.87553
G1 X110.634 Y133.794 E16.88821
G1 X109.774 Y134.215 E16.93598
G1 X109.551 Y134.312 E16.94811
G1 X108.675 Y134.648 E16.99492
G1 X108.462 Y134.719 E17.00612
G1 X107.596 Y134.967 E17.05106
G1 X107.368 Y135.022 E17.06276
G1 X106.464 Y135.199 E17.10872
G1 X105.899 Y135.269 E17.13712
G1 X105.484 Y135.309 E17.15792
G1 X104.406 Y135.358 E17.21176
G1 X104.056 Y135.356 E17.22922
G1 X103.137 Y135.311 E17.27513
G1 X102.441 Y135.223 E17.31013
G1 X102.035 Y135.158 E17.33064
G1 X100.946 Y134.924 E17.38621
G1 X100.698 Y134.857 E17.39903
G1 X99.514 Y134.461 E17.46131
G1 X99.235 Y134.349 E17.47631
G1 X98.207 Y133.871 E17.53287
G1 X97.955 Y133.737 E17.54711
G1 X97.257 Y133.331 E17.5874
G1 X95.898 Y132.469 E17.66769
G1 X95.478 Y132.197 E17.69265
G1 X93.289 Y130.865 E17.82049
G1 X91.122 Y129.629 E17.94495
G1 X88.857 Y128.42 E18.07304
G1 X86.641 Y127.316 E18.19656
G1 X84.303 Y126.234 E18.32509
G1 X82.005 Y125.247 E18.44987
G1 X79.611 Y124.297 E18.57836
G1 X77.27 Y123.448 E18.7026
G1 X74.863 Y122.649 E18.82913
G1 X74.47 Y122.528 E18.84964
G1 X73.315 Y122.161 E18.91011
G1 X72.677 Y121.936 E18.94386
G1 X72.428 Y121.839 E18.95719
G1 X71.385 Y121.366 E19.01432
G1 X71.112 Y121.224 E19.02968
G1 X70.304 Y120.757 E19.07624
G1 X70.166 Y120.669 E19.0844
G1 X69.493 Y120.203 E19.12524
G1 X69.259 Y120.027 E19.13985
G1 X68.391 Y119.298 E19.1964
G1 X68.206 Y119.125 E19.20904
G1 X67.465 Y118.359 E19.26221
G1 X67.25 Y118.113 E19.27851
G1 X66.533 Y117.196 E19.33658
G1 X66.37 Y116.962 E19.35081
G1 X65.756 Y115.967 E19.40914
G1 X65.632 Y115.739 E19.42209
G1 X65.221 Y114.896 E19.46888
G1 X65.109 Y114.638 E19.48291
G1 X64.706 Y113.55 E19.5408
G1 X64.624 Y113.285 E19.55464
G1 X64.388 Y112.385 E19.60106
G1 X64.335 Y112.139 E19.61361
G1 X64.192 Y111.32 E19.65509
G1 X64.171 Y111.164 E19.66294
G1 X64.076 Y109.827 E19.72981
G1 X64.073 Y109.414 E19.75042
G1 X64.125 Y108.293 E19.8064
G1 X64.165 Y107.889 E19.82666
G1 X64.385 Y106.546 E19.89455
G1 X64.431 Y106.347 E19.90474
G1 X64.648 Y105.551 E19.94591
G1 X64.699 Y105.389 E19.95438
G1 X64.948 Y104.686 E19.99159
G1 X65.041 Y104.45 E20.00424
G1 X65.374 Y103.692 E20.04555
G1 X65.557 Y103.324 E20.06605
G1 X66.01 Y102.444 E20.11543
G1 X67.157 Y100.142 E20.24374
G1 X68.214 Y97.859 E20.36926
G1 X69.228 Y95.497 E20.4975
G1 X70.156 Y93.155 E20.62318
G1 X71.013 Y90.796 E20.7484
G1 X71.816 Y88.38 E20.87542
G1 X72.541 Y85.973 E21.00083
G1 X73.201 Y83.529 E21.12713
G1 X73.792 Y81.062 E21.25369
G1 X74.091 Y79.633 E21.32653
G1 X74.322 Y78.581 E21.38026
G1 X74.443 Y78.086 E21.40569
G1 X74.509 Y77.842 E21.4183
G1 X74.856 Y76.783 E21.4739
G1 X74.971 Y76.486 E21.48978
G1 X75.546 Y75.245 E21.55802
G1 X75.73 Y74.907 E21.57722
G1 X76.43 Y73.792 E21.6429
G1 X76.616 Y73.533 E21.65881
G1 X77.438 Y72.525 E21.7237
G1 X77.667 Y72.277 E21.74054
G0 F3600 X77.961 Y72.548
G1 F1800 X78.712 Y71.815 E21.7929
G1 X78.897 Y71.652 E21.8052
G1 X79.52 Y71.145 E21.84527
G1 X79.68 Y71.025 E21.85525
G1 X80.443 Y70.505 E21.90132
G1 X80.665 Y70.368 E21.91433
G1 X81.589 Y69.862 E21.96689
G1 X81.955 Y69.686 E21.98715
G1 X82.835 Y69.321 E22.03468
G1 X83.076 Y69.234 E22.04746
G1 X83.952 Y68.962 E22.09323
G1 X84.177 Y68.903 E22.10483
G1 X84.908 Y68.739 E22.14221
G1 X85.108 Y68.702 E22.15235
G1 X86.02 Y68.576 E22.19829
G1 X86.289 Y68.551 E22.21176
G1 X87.377 Y68.508 E22.26609
G1 X87.66 Y68.512 E22.28021
G1 X88.722 Y68.583 E22.33331
G1 X89.606 Y68.714 E22.37789
G1 X90.421 Y68.878 E22.41937
G1 X90.564 Y68.913 E22.42671
G1 X91.45 Y69.173 E22.47278
G1 X91.686 Y69.254 E22.48523
G1 X92.452 Y69.552 E22.52624
G1 X93.396 Y69.964 E22.57762
G1 X94.479 Y70.452 E22.63689
G1 X96.795 Y71.42 E22.76212
G1 X99.216 Y72.354 E22.89158
G1 X101.565 Y73.179 E23.01579
G1 X103.974 Y73.953 E23.14202
G1 X106.413 Y74.661 E23.26873
G1 X108.894 Y75.306 E23.39662
G1 X111.367 Y75.874 E23.52321
G1 X113.869 Y76.377 E23.65054
G1 X116.342 Y76.798 E23.77569
G1 X118.862 Y77.155 E23.90267
G1 X121.396 Y77.443 E24.0299
G1 X123.395 Y77.612 E24.12999
G1 X123.888 Y77.66 E24.1547
G1 X124.476 Y77.734 E24.18427
G1 X124.719 Y77.772 E24.19654
G1 X125.729 Y77.983 E24.24802
G1 X126.019 Y78.059 E24.26297
G1 X126.784 Y78.292 E24.30287
G1 X126.899 Y78.332 E24.30894
G1 X127.631 Y78.619 E24.34817
G1 X127.924 Y78.747 E24.36412
G1 X128.839 Y79.203 E24.41513
G1 X129.024 Y79.307 E24.42572
G1 X129.672 Y79.703 E24.4636
G1 X129.83 Y79.808 E24.47307
G1 X130.54 Y80.325 E24.51689
G1 X130.786 Y80.521 E24.53258
G1 X131.467 Y81.115 E24.57766
G1 X132.076 Y81.737 E24.62109
G1 X132.423 Y82.121 E24.64691
G1 X132.951 Y82.783 E24.68916
G1 X133.137 Y83.037 E24.70486
G1 X133.745 Y83.969 E24.76038
G1 X133.877 Y84.198 E24.77357
G1 X134.212 Y84.83 E24.80925
G1 X134.266 Y84.941 E24.81541
G1 X134.595 Y85.692 E24.85632
G1 X134.686 Y85.925 E24.8688
G1 X135.024 Y86.945 E24.92241
G1 X135.12 Y87.296 E24.94056
G1 X135.334 Y88.264 E24.99002
G1 X135.37 Y88.474 E25.00065
G1 X135.496 Y89.549 E25.05465
G1 X135.517 Y89.879 E25.07115
G1 X135.53 Y90.941 E25.12413
G1 X135.52 Y91.187 E25.13642
G1 X135.421 Y92.247 E25.18953
G1 X135.375 Y92.562 E25.20541
G1 X135.189 Y93.515 E25.25386
G1 X135.14 Y93.715 E25.26413
G1 X134.918 Y94.488 E25.30425
G1 X134.842 Y94.718 E25.31634
G1 X134.485 Y95.644 E25.36585
G1 X134.37 Y95.904 E25.38003
G1 X134 Y96.657 E25.42189
G1 X133.939 Y96.769 E25.42825
G1 X133.344 Y97.73 E25.48464
G1 X133.094 Y98.088 E25.50643
G1 X132.703 Y98.611 E25.53901
G1 X132.252 Y99.174 E25.575
G1 X131.012 Y100.669 E25.6719
G1 X129.441 Y102.679 E25.79917
G1 X127.957 Y104.691 E25.9239
G1 X126.498 Y106.791 E26.05148
G1 X125.094 Y108.939 E26.1795
G1 X123.784 Y111.075 E26.30451
G1 X122.496 Y113.311 E26.43325
G1 X121.317 Y115.501 E26.55734
G1 X120.171 Y117.78 E26.6846
G1 X119.08 Y120.114 E26.81314
G1 X118.086 Y122.409 E26.93792
