;FLAVOR:Marlin
;TIME:963
;Filament used: 0.928891m
;Layer height: 0.15
;MINX:71.193
;MINY:73
;MINZ:0.3
;MAXX:131.5
;MAXY:127
;MAXZ:8.55
;Generated with Cura_SteamEngine 4.12.1
M140 S90
M105
M190 S90
M104 S235
M105
M109 S235
M82 ;absolute extrusion mode
G21 ;metric values
G90 ;absolute positioning
M82 ;set extruder to absolute mode
M107 ;start with the fan off
G28 X0 Y0 ;move X/Y to min endstops
G28 Z0 ;move Z to min endstops
G1 Z15.0 F9000 ;move the platform down 15mm
G92 E0 ;zero the extruded length
G1 F200 E6 ;extrude 6 mm of feed stock
G92 E0 ;zero the extruded length again
G1 F9000
;Put printing message on LCD screen
M117 Printing...
G92 E0
G92 E0
G1 F3000 E-5
;LAYER_COUNT:56
;LAYER:0
M107
G0 F3600 X80.824 Y77.026 Z0.3
;TYPE:SKIRT
G1 F3000 E0
G1 F1800 X81.299 Y76.544 E0.03376
G1 X81.454 Y76.396 E0.04445
G1 X82.159 Y75.778 E0.09123
G1 X82.739 Y75.342 E0.12743
G1 X82.946 Y75.197 E0.14004
G1 X83.736 Y74.693 E0.18679
G1 X84.867 Y74.121 E0.25002
G1 X84.952 Y74.084 E0.25464
G1 X85.416 Y73.895 E0.27964
G1 X85.662 Y73.801 E0.29278
G1 X86.551 Y73.503 E0.33956
G1 X87.245 Y73.328 E0.37526
G1 X87.456 Y73.282 E0.38604
G1 X88.54 Y73.102 E0.44086
G1 X88.731 Y73.08 E0.45045
G1 X89.851 Y73.009 E0.50644
G1 X90.622 Y73 E0.54491
G1 X118.371 Y73 E1.92931
G1 X119.08 Y73.008 E1.96469
G1 X119.899 Y73.048 E2.00559
G1 X120.152 Y73.07 E2.01826
G1 X121.082 Y73.191 E2.06505
G1 X121.784 Y73.334 E2.1008
G1 X122.691 Y73.574 E2.1476
G1 X123.493 Y73.857 E2.19003
G1 X123.712 Y73.944 E2.20179
G1 X124.568 Y74.327 E2.24858
G1 X125.202 Y74.67 E2.28454
G1 X125.409 Y74.791 E2.2965
G1 X126.198 Y75.299 E2.34332
G1 X126.856 Y75.801 E2.38461
G1 X127.067 Y75.975 E2.39825
G1 X127.765 Y76.602 E2.44506
G1 X128.235 Y77.092 E2.47894
G1 X128.309 Y77.174 E2.48445
G1 X129.137 Y78.21 E2.55061
G1 X129.287 Y78.423 E2.56361
G1 X129.793 Y79.213 E2.61041
G1 X130.36 Y80.323 E2.6726
G1 X130.397 Y80.407 E2.67718
G1 X130.611 Y80.929 E2.70532
G1 X130.705 Y81.176 E2.71851
G1 X131.001 Y82.065 E2.76526
G1 X131.169 Y82.734 E2.79967
G1 X131.215 Y82.944 E2.81039
G1 X131.398 Y84.039 E2.86578
G1 X131.42 Y84.23 E2.87537
G1 X131.491 Y85.343 E2.93101
G1 X131.5 Y86.09 E2.96829
G1 X131.499 Y114.007 E4.36107
G1 X131.492 Y114.572 E4.38926
G1 X131.455 Y115.35 E4.42812
G1 X131.433 Y115.614 E4.44134
G1 X131.315 Y116.544 E4.48811
G1 X131.218 Y117.046 E4.51361
G1 X131.168 Y117.275 E4.52531
G1 X130.929 Y118.182 E4.5721
G1 X130.647 Y118.983 E4.61447
G1 X130.559 Y119.205 E4.62638
G1 X130.176 Y120.061 E4.67317
G1 X129.83 Y120.702 E4.70951
G1 X129.709 Y120.909 E4.72147
G1 X129.201 Y121.698 E4.76829
G1 X128.699 Y122.356 E4.80958
G1 X128.525 Y122.567 E4.82322
G1 X127.898 Y123.265 E4.87003
G1 X127.418 Y123.726 E4.90324
G1 X127.334 Y123.802 E4.90889
G1 X126.271 Y124.651 E4.97676
G1 X126.06 Y124.799 E4.98962
G1 X125.27 Y125.304 E5.0364
G1 X124.133 Y125.879 E5.09996
G1 X124.048 Y125.916 E5.10459
G1 X123.584 Y126.105 E5.12958
G1 X123.338 Y126.199 E5.14272
G1 X122.449 Y126.497 E5.1895
G1 X121.755 Y126.672 E5.22521
G1 X121.544 Y126.718 E5.23598
G1 X120.46 Y126.898 E5.2908
G1 X120.269 Y126.92 E5.3004
G1 X119.149 Y126.991 E5.35638
G1 X118.378 Y127 E5.39485
G1 X90.495 Y126.999 E6.78594
G1 X89.921 Y126.992 E6.81458
G1 X89.106 Y126.952 E6.85529
G1 X88.852 Y126.93 E6.86801
G1 X87.922 Y126.809 E6.9148
G1 X87.216 Y126.666 E6.95074
G1 X86.309 Y126.426 E6.99754
G1 X85.499 Y126.14 E7.0404
G1 X85.278 Y126.052 E7.05227
G1 X84.422 Y125.668 E7.09907
G1 X83.79 Y125.325 E7.13495
G1 X83.585 Y125.205 E7.1468
G1 X82.797 Y124.697 E7.19357
G1 X82.029 Y124.103 E7.24201
G1 X81.773 Y123.886 E7.25876
G1 X80.98 Y123.143 E7.31297
G1 X80.859 Y123.018 E7.32165
G1 X79.04 Y121.197 E7.45006
G1 X77.21 Y119.467 E7.5757
G1 X76.076 Y118.453 E7.65159
G1 X75.982 Y118.362 E7.65812
G1 X75.042 Y117.526 E7.72088
G1 X74.368 Y116.873 E7.7677
G1 X73.752 Y116.166 E7.81448
G1 X73.302 Y115.56 E7.85214
G1 X73.181 Y115.385 E7.86276
G1 X72.681 Y114.591 E7.90957
G1 X72.251 Y113.758 E7.95634
G1 X71.892 Y112.891 E8.00315
G1 X71.61 Y111.997 E8.04992
G1 X71.35 Y110.755 E8.11323
G1 X71.321 Y110.561 E8.12302
G1 X71.222 Y109.629 E8.16977
G1 X71.201 Y109.065 E8.19793
G1 X71.194 Y108.437 E8.22927
G1 X71.193 Y105.526 E8.3745
G1 X71.215 Y103.964 E8.45243
G1 X71.206 Y100.858 E8.60739
G1 X71.194 Y100.245 E8.63798
G1 X71.193 Y99.64 E8.66816
G1 X71.208 Y98.513 E8.72439
G1 X71.208 Y95.887 E8.85541
G1 X71.194 Y94.572 E8.92102
G1 X71.194 Y93.278 E8.98557
G1 X71.203 Y92.553 E9.02175
G1 X71.254 Y91.617 E9.06851
G1 X71.386 Y90.688 E9.11533
G1 X71.595 Y89.774 E9.1621
G1 X71.89 Y88.861 E9.20997
G1 X71.965 Y88.659 E9.22072
G1 X72.328 Y87.795 E9.26748
G1 X72.764 Y86.964 E9.3143
G1 X73.533 Y85.815 E9.38327
G1 X73.591 Y85.739 E9.38804
G1 X74.205 Y85.003 E9.43586
G1 X74.454 Y84.73 E9.4543
G1 X76.196 Y82.763 E9.58538
G1 X77.789 Y80.857 E9.70931
G1 X80.216 Y77.741 E9.90636
G1 X80.824 Y77.026 E9.95319
G0 F3600 X81.129 Y77.286
G1 F1800 X81.575 Y76.834 E9.98487
G1 X81.73 Y76.686 E9.99556
G1 X82.423 Y76.079 E10.04152
G1 X82.968 Y75.67 E10.07551
G1 X83.175 Y75.525 E10.08812
G1 X83.952 Y75.03 E10.13409
G1 X85.026 Y74.488 E10.1941
G1 X85.558 Y74.268 E10.22283
G1 X85.804 Y74.174 E10.23596
G1 X86.678 Y73.883 E10.28192
G1 X87.33 Y73.719 E10.31546
G1 X87.541 Y73.673 E10.32624
G1 X88.586 Y73.5 E10.37908
G1 X88.777 Y73.478 E10.38867
G1 X89.856 Y73.409 E10.44262
G1 X90.622 Y73.4 E10.48083
G1 X118.371 Y73.4 E11.86524
G1 X119.075 Y73.408 E11.90036
G1 X119.864 Y73.447 E11.93977
G1 X120.117 Y73.469 E11.95244
G1 X121.466 Y73.674 E12.02052
G1 X121.699 Y73.725 E12.03242
G1 X122.588 Y73.961 E12.07831
G1 X123.345 Y74.229 E12.11837
G1 X123.564 Y74.316 E12.13013
G1 X124.405 Y74.693 E12.17611
G1 X125 Y75.016 E12.20988
G1 X125.207 Y75.137 E12.22185
G1 X125.981 Y75.635 E12.26776
G1 X126.602 Y76.11 E12.30677
G1 X126.813 Y76.284 E12.32041
G1 X127.497 Y76.9 E12.36634
G1 X127.938 Y77.36 E12.39813
G1 X128.012 Y77.442 E12.40364
G1 X128.81 Y78.441 E12.46743
G1 X128.96 Y78.654 E12.48043
G1 X129.457 Y79.429 E12.52636
G1 X129.994 Y80.484 E12.58542
G1 X130.031 Y80.568 E12.59
G1 X130.237 Y81.071 E12.61712
G1 X130.331 Y81.318 E12.6303
G1 X130.621 Y82.192 E12.67624
G1 X130.778 Y82.82 E12.70854
G1 X130.824 Y83.03 E12.71926
G1 X131 Y84.085 E12.77263
G1 X131.022 Y84.276 E12.78222
G1 X131.091 Y85.348 E12.83581
G1 X131.1 Y86.09 E12.87283
G1 X131.099 Y114.002 E14.26537
G1 X131.092 Y114.567 E14.29356
G1 X131.056 Y115.316 E14.33097
G1 X131.034 Y115.58 E14.34419
G1 X130.918 Y116.494 E14.39015
G1 X130.777 Y117.19 E14.42558
G1 X130.542 Y118.08 E14.4715
G1 X130.275 Y118.835 E14.51146
G1 X130.187 Y119.057 E14.52337
G1 X129.811 Y119.897 E14.56929
G1 X129.484 Y120.5 E14.60351
G1 X129.363 Y120.707 E14.61547
G1 X128.865 Y121.481 E14.66139
G1 X128.39 Y122.102 E14.70039
G1 X128.216 Y122.313 E14.71404
G1 X127.6 Y122.997 E14.75996
G1 X127.15 Y123.429 E14.79108
G1 X127.066 Y123.505 E14.79673
G1 X126.041 Y124.323 E14.86216
G1 X125.83 Y124.471 E14.87502
G1 X125.054 Y124.967 E14.92097
G1 X123.974 Y125.512 E14.98132
G1 X123.442 Y125.732 E15.01004
G1 X123.196 Y125.826 E15.02318
G1 X122.322 Y126.117 E15.06914
G1 X121.67 Y126.281 E15.10268
G1 X121.459 Y126.327 E15.11345
G1 X120.414 Y126.5 E15.1663
G1 X120.223 Y126.522 E15.17589
G1 X119.144 Y126.591 E15.22983
G1 X118.378 Y126.6 E15.26805
G1 X90.5 Y126.599 E16.65889
G1 X89.926 Y126.592 E16.68753
G1 X89.14 Y126.553 E16.72679
G1 X88.886 Y126.531 E16.73951
G1 X87.534 Y126.326 E16.80773
G1 X87.301 Y126.275 E16.81963
G1 X86.412 Y126.039 E16.86552
G1 X85.647 Y125.768 E16.90601
G1 X85.426 Y125.68 E16.91788
G1 X84.586 Y125.303 E16.96381
G1 X83.992 Y124.98 E16.99755
G1 X83.787 Y124.86 E17.0094
G1 X83.014 Y124.361 E17.0553
G1 X82.288 Y123.798 E17.10113
G1 X82.032 Y123.581 E17.11788
G1 X81.267 Y122.865 E17.17015
G1 X81.146 Y122.74 E17.17883
G1 X79.314 Y120.906 E17.30816
G1 X77.47 Y119.163 E17.43475
G1 X76.343 Y118.155 E17.51019
G1 X76.251 Y118.065 E17.51661
G1 X75.308 Y117.227 E17.57954
G1 X74.647 Y116.586 E17.62548
G1 X74.044 Y115.89 E17.67142
G1 X73.631 Y115.332 E17.70606
G1 X73.51 Y115.157 E17.71667
G1 X73.02 Y114.378 E17.76259
G1 X72.599 Y113.559 E17.80853
G1 X72.251 Y112.707 E17.85445
G1 X71.978 Y111.828 E17.90037
G1 X71.745 Y110.696 E17.95802
G1 X71.716 Y110.502 E17.96781
G1 X71.62 Y109.587 E18.01371
G1 X71.601 Y109.061 E18.03997
G1 X71.594 Y108.437 E18.0711
G1 X71.593 Y105.532 E18.21604
G1 X71.615 Y103.978 E18.29357
G1 X71.606 Y100.848 E18.44973
G1 X71.594 Y100.237 E18.48022
G1 X71.593 Y99.641 E18.50995
G1 X71.608 Y98.518 E18.56598
G1 X71.608 Y95.878 E18.69769
G1 X71.594 Y94.571 E18.7629
G1 X71.594 Y93.283 E18.82716
G1 X71.603 Y92.558 E18.86334
G1 X71.654 Y91.639 E18.90926
G1 X71.785 Y90.728 E18.95517
G1 X71.995 Y89.831 E19.00114
G1 X72.265 Y89 E19.04473
G1 X72.34 Y88.798 E19.05548
G1 X72.697 Y87.95 E19.10138
G1 X73.127 Y87.136 E19.14731
G1 X73.851 Y86.057 E19.21214
G1 X73.909 Y85.981 E19.21691
G1 X74.5 Y85.272 E19.26296
G1 X74.8 Y84.942 E19.28521
G1 X76.502 Y83.021 E19.41325
G1 X78.102 Y81.107 E19.53771
G1 X80.532 Y77.987 E19.73501
G1 X81.129 Y77.286 E19.78095
G0 F3600 X81.433 Y77.545
G1 F1800 X81.851 Y77.123 E19.81058
G1 X82.006 Y76.975 E19.82127
G1 X82.686 Y76.381 E19.86632
G1 X83.198 Y75.998 E19.89822
G1 X83.405 Y75.853 E19.91083
G1 X84.167 Y75.368 E19.95589
G1 X85.186 Y74.855 E20.01281
G1 X85.701 Y74.642 E20.04061
G1 X85.947 Y74.548 E20.05375
G1 X86.804 Y74.263 E20.09881
G1 X87.415 Y74.11 E20.13023
G1 X87.626 Y74.064 E20.14101
G1 X88.632 Y73.897 E20.19188
G1 X88.823 Y73.875 E20.20147
G1 X89.861 Y73.809 E20.25336
G1 X90.622 Y73.8 E20.29133
G1 X118.371 Y73.8 E21.67574
G1 X119.07 Y73.808 E21.71061
G1 X119.83 Y73.845 E21.74857
G1 X120.083 Y73.867 E21.76124
G1 X121.38 Y74.065 E21.8267
G1 X121.613 Y74.116 E21.8386
G1 X122.486 Y74.348 E21.88367
G1 X123.198 Y74.601 E21.92136
G1 X123.417 Y74.688 E21.93312
G1 X124.241 Y75.058 E21.97818
G1 X124.798 Y75.361 E22.00982
G1 X125.005 Y75.482 E22.02178
G1 X125.764 Y75.972 E22.06685
G1 X126.347 Y76.419 E22.1035
G1 X126.558 Y76.593 E22.11715
G1 X127.229 Y77.197 E22.16219
G1 X127.641 Y77.628 E22.19194
G1 X127.715 Y77.71 E22.19745
G1 X128.483 Y78.671 E22.25882
G1 X128.633 Y78.884 E22.27182
G1 X129.119 Y79.645 E22.31687
G1 X129.628 Y80.645 E22.37285
G1 X129.665 Y80.729 E22.37743
G1 X129.863 Y81.213 E22.40352
G1 X129.957 Y81.46 E22.4167
G1 X130.241 Y82.317 E22.46174
G1 X130.388 Y82.905 E22.49198
G1 X130.434 Y83.115 E22.50271
G1 X130.603 Y84.131 E22.55409
G1 X130.625 Y84.322 E22.56368
G1 X130.691 Y85.353 E22.61523
G1 X130.7 Y86.09 E22.652
G1 X130.699 Y113.997 E24.04428
G1 X130.692 Y114.562 E24.07247
G1 X130.658 Y115.283 E24.10849
G1 X130.636 Y115.547 E24.1217
G1 X130.436 Y116.876 E24.18875
G1 X130.386 Y117.105 E24.20045
G1 X130.155 Y117.978 E24.2455
G1 X129.903 Y118.688 E24.28309
G1 X129.815 Y118.91 E24.295
G1 X129.446 Y119.734 E24.34004
G1 X129.139 Y120.298 E24.37208
G1 X129.018 Y120.505 E24.38404
G1 X128.528 Y121.264 E24.42912
G1 X128.081 Y121.847 E24.46577
G1 X127.907 Y122.058 E24.47941
G1 X127.303 Y122.729 E24.52445
G1 X126.881 Y123.133 E24.5536
G1 X126.797 Y123.209 E24.55925
G1 X125.811 Y123.996 E24.62219
G1 X125.6 Y124.144 E24.63505
G1 X124.839 Y124.629 E24.68007
G1 X123.814 Y125.145 E24.73732
G1 X123.299 Y125.358 E24.76513
G1 X123.053 Y125.452 E24.77826
G1 X122.196 Y125.737 E24.82332
G1 X121.585 Y125.89 E24.85475
G1 X121.374 Y125.936 E24.86552
G1 X120.368 Y126.103 E24.9164
G1 X120.177 Y126.125 E24.92599
G1 X119.139 Y126.191 E24.97788
G1 X118.378 Y126.2 E25.01585
G1 X90.505 Y126.199 E26.40644
G1 X89.931 Y126.192 E26.43508
G1 X89.175 Y126.155 E26.47284
G1 X88.921 Y126.133 E26.48556
G1 X87.62 Y125.935 E26.55121
G1 X87.387 Y125.884 E26.56311
G1 X86.514 Y125.652 E26.60818
G1 X85.795 Y125.396 E26.64626
G1 X85.574 Y125.308 E26.65812
G1 X84.75 Y124.937 E26.70321
G1 X84.194 Y124.635 E26.73477
G1 X83.989 Y124.515 E26.74663
G1 X83.231 Y124.024 E26.79168
G1 X82.547 Y123.493 E26.83488
G1 X82.291 Y123.276 E26.85163
G1 X81.555 Y122.587 E26.90193
G1 X81.435 Y122.463 E26.91053
G1 X79.607 Y120.633 E27.03958
G1 X77.729 Y118.857 E27.16853
G1 X76.61 Y117.857 E27.24341
G1 X76.528 Y117.777 E27.24912
G1 X75.573 Y116.928 E27.31287
G1 X74.926 Y116.298 E27.35793
G1 X74.336 Y115.614 E27.40299
G1 X73.96 Y115.105 E27.43456
G1 X73.839 Y114.93 E27.44518
G1 X73.359 Y114.165 E27.49023
G1 X72.948 Y113.361 E27.53528
G1 X72.61 Y112.523 E27.58036
G1 X72.348 Y111.659 E27.62541
G1 X72.141 Y110.637 E27.67743
G1 X72.112 Y110.443 E27.68722
G1 X72.018 Y109.545 E27.73226
G1 X72.001 Y109.056 E27.75667
G1 X71.994 Y108.436 E27.78761
G1 X71.993 Y105.537 E27.93224
G1 X72.015 Y103.982 E28.00983
G1 X72.006 Y100.839 E28.16663
G1 X71.994 Y100.229 E28.19707
G1 X71.993 Y99.642 E28.22636
G1 X72.008 Y98.524 E28.28214
G1 X72.008 Y95.869 E28.4146
G1 X71.994 Y94.571 E28.47936
G1 X71.994 Y93.288 E28.54337
G1 X72.003 Y92.563 E28.57954
G1 X72.054 Y91.662 E28.62456
G1 X72.185 Y90.768 E28.66964
G1 X72.394 Y89.89 E28.71467
G1 X72.64 Y89.14 E28.75405
G1 X72.715 Y88.938 E28.7648
G1 X73.066 Y88.106 E28.80985
G1 X73.49 Y87.308 E28.85493
G1 X74.168 Y86.3 E28.91554
G1 X74.226 Y86.224 E28.92031
G1 X74.796 Y85.541 E28.96469
G1 X75.077 Y85.232 E28.98553
G1 X76.809 Y83.277 E29.11584
G1 X78.427 Y81.342 E29.24168
G1 X80.848 Y78.233 E29.43827
G1 X81.433 Y77.545 E29.48332
G1 F3000 E24.48332
;MESH:sky04x_rx_bracket.stl
G0 F3600 X87.862 Y85.157
G0 X89.119 Y85.531
G0 X89.17 Y92.87
G1 F3000 E29.48332
G0 F3600 X89.1 Y92.8
;TYPE:WALL-INNER
G1 F1800 X89.1 Y85.53 E29.84602
G1 X89.146 Y85.229 E29.86121
G1 X89.28 Y84.968 E29.87585
G1 X89.47 Y84.778 E29.88926
G1 X89.719 Y84.65 E29.90322
G1 X90.035 Y84.6 E29.91919
G1 X118.968 Y84.6 E31.36266
G1 X119.272 Y84.647 E31.37801
G1 X119.533 Y84.781 E31.39264
G1 X119.722 Y84.97 E31.40598
G1 X119.85 Y85.219 E31.41995
G1 X119.9 Y85.532 E31.43576
G1 X119.9 Y114.47 E32.87948
G1 X119.854 Y114.771 E32.89467
G1 X119.72 Y115.032 E32.90931
G1 X119.53 Y115.222 E32.92272
G1 X119.281 Y115.35 E32.93668
G1 X118.965 Y115.4 E32.95265
G1 X90.032 Y115.4 E34.39612
G1 X89.728 Y115.353 E34.41147
G1 X89.467 Y115.219 E34.4261
G1 X89.278 Y115.03 E34.43944
G1 X89.147 Y114.776 E34.4537
G1 X89.1 Y114.385 E34.47334
G1 X89.1 Y108.9 E34.74699
G1 X82.918 Y108.899 E35.05541
G1 X82.794 Y108.873 E35.06173
G1 X82.793 Y105.132 E35.24837
G1 X82.935 Y105.1 E35.25563
G1 X89.1 Y105.1 E35.56321
G1 X89.1 Y100.9 E35.77275
G1 X82.921 Y100.899 E36.08102
G1 X82.792 Y100.871 E36.0876
G1 X82.793 Y99.124 E36.17476
G1 X82.944 Y99.1 E36.18239
G1 X89.1 Y99.1 E36.48951
G1 X89.1 Y94.9 E36.69905
G1 X82.921 Y94.899 E37.00732
G1 X82.794 Y94.871 E37.01381
G1 X82.793 Y92.831 E37.11559
G1 X82.935 Y92.8 E37.12284
G1 X89.1 Y92.8 E37.43041
G0 F3600 X89.17 Y92.87
G0 X90.06 Y110.998
G0 X90.461 Y112.23
G0 X91.222 Y113.278
G0 X92.164 Y113.974
G0 X93.493 Y114.499
G0 X93.508 Y114.401
G1 F1800 X94.131 Y114.45 E37.46159
G1 X114.869 Y114.45 E38.49621
G1 X115.492 Y114.401 E38.52739
G1 X116.118 Y114.251 E38.55951
G1 X116.712 Y114.004 E38.5916
G1 X117.26 Y113.668 E38.62367
G1 X117.75 Y113.25 E38.6558
G1 X118.168 Y112.76 E38.68794
G1 X118.504 Y112.212 E38.72001
G1 X118.751 Y111.618 E38.7521
G1 X118.901 Y110.992 E38.78422
G1 X118.95 Y110.369 E38.81539
G1 X118.95 Y89.631 E39.85002
G1 X118.901 Y89.008 E39.88119
G1 X118.751 Y88.382 E39.91331
G1 X118.504 Y87.788 E39.9454
G1 X118.168 Y87.24 E39.97747
G1 X117.75 Y86.75 E40.00961
G1 X117.26 Y86.332 E40.04174
G1 X116.712 Y85.996 E40.07381
G1 X116.118 Y85.749 E40.1059
G1 X115.492 Y85.599 E40.13802
G1 X114.869 Y85.55 E40.1692
G1 X94.131 Y85.55 E41.20382
G1 X93.508 Y85.599 E41.235
G1 X92.882 Y85.749 E41.26711
G1 X92.288 Y85.996 E41.29921
G1 X91.74 Y86.332 E41.33128
G1 X91.25 Y86.75 E41.36341
G1 X90.832 Y87.24 E41.39554
G1 X90.496 Y87.788 E41.42761
G1 X90.249 Y88.382 E41.45971
G1 X90.099 Y89.008 E41.49182
G1 X90.05 Y89.631 E41.523
G1 X90.05 Y110.369 E42.55762
G1 X90.099 Y110.992 E42.5888
G1 X90.249 Y111.618 E42.62092
G1 X90.496 Y112.212 E42.65301
G1 X90.832 Y112.76 E42.68508
G1 X91.25 Y113.25 E42.71721
G1 X91.74 Y113.668 E42.74935
G1 X92.288 Y114.004 E42.78142
G1 X92.882 Y114.251 E42.81351
G1 X93.508 Y114.401 E42.84563
G0 F3600 X93.571 Y114.005
;TYPE:WALL-OUTER
G1 F1800 X94.147 Y114.05 E42.87445
G1 X114.853 Y114.05 E43.90748
