;FLAVOR:Marlin
;TIME:710
;Filament used: 0.550999m
;Layer height: 0.15
;MINX:64.32
;MINY:61.815
;MINZ:0.3
;MAXX:135.686
;MAXY:138.186
;MAXZ:8.55
;Generated with Cura_SteamEngine 4.12.1
M140 S90
M105
M190 S90
M104 S235
M105
M109 S235
M82 ;absolute extrusion mode
G21 ;metric values
G90 ;absolute positioning
M82 ;set extruder to absolute mode
M107 ;start with the fan off
G28 X0 Y0 ;move X/Y to min endstops
G28 Z0 ;move Z to min endstops
G1 Z15.0 F9000 ;move the platform down 15mm
G92 E0 ;zero the extruded length
G1 F200 E6 ;extrude 6 mm of feed stock
G92 E0 ;zero the extruded length again
G1 F9000
;Put printing message on LCD screen
M117 Printing...
G92 E0
G92 E0
G1 F3000 E-5
;LAYER_COUNT:56
;LAYER:0
M107
G0 F3600 X69.089 Y85.115 Z0.3
;TYPE:SKIRT
G1 F3000 E0
G1 F1800 X70.133 Y84.304 E0.06595
G1 X70.533 Y84.03 E0.09014
G1 X72.62 Y82.566 E0.21733
G1 X74.679 Y81.033 E0.3454
G1 X76.612 Y79.507 E0.46826
G1 X78.562 Y77.875 E0.59513
G1 X80.447 Y76.205 E0.72077
G1 X82.282 Y74.485 E0.84625
G1 X84.051 Y72.73 E0.97056
G1 X85.795 Y70.9 E1.09668
G1 X87.833 Y68.624 E1.2491
G1 X89.262 Y66.976 E1.35793
G1 X89.863 Y66.303 E1.40294
G1 X90.68 Y65.481 E1.46076
G1 X90.937 Y65.248 E1.47807
G1 X91.913 Y64.459 E1.54068
G1 X92.143 Y64.294 E1.55481
G1 X93.056 Y63.705 E1.60901
G1 X93.276 Y63.578 E1.62168
G1 X94.107 Y63.145 E1.66843
G1 X94.751 Y62.867 E1.70343
G1 X95.209 Y62.687 E1.72798
G1 X96.334 Y62.314 E1.78711
G1 X96.528 Y62.261 E1.79714
G1 X97.556 Y62.032 E1.84969
G1 X97.782 Y61.993 E1.86113
G1 X98.714 Y61.873 E1.90801
G1 X98.959 Y61.852 E1.92028
G1 X100.142 Y61.815 E1.97933
G1 X100.458 Y61.822 E1.9951
G1 X101.668 Y61.915 E2.05564
G1 X101.938 Y61.951 E2.06923
G1 X102.912 Y62.126 E2.1186
G1 X103.155 Y62.181 E2.13103
G1 X104.173 Y62.464 E2.18375
G1 X104.367 Y62.528 E2.19394
G1 X105.043 Y62.775 E2.22985
G1 X105.236 Y62.853 E2.24023
G1 X106.265 Y63.333 E2.29688
G1 X106.548 Y63.483 E2.31286
G1 X107.729 Y64.207 E2.38197
G1 X108.006 Y64.402 E2.39887
G1 X108.716 Y64.947 E2.44353
G1 X108.872 Y65.077 E2.45366
G1 X109.754 Y65.898 E2.51377
G1 X109.961 Y66.113 E2.52866
G1 X110.445 Y66.649 E2.56469
G1 X112.151 Y68.671 E2.69668
G1 X113.823 Y70.541 E2.82183
G1 X115.554 Y72.372 E2.94754
G1 X117.323 Y74.139 E3.07228
G1 X119.16 Y75.873 E3.19831
G1 X121.047 Y77.556 E3.32445
G1 X122.971 Y79.177 E3.44997
G1 X124.938 Y80.742 E3.57538
G1 X126.954 Y82.254 E3.7011
G1 X128.991 Y83.694 E3.82555
G1 X129.809 Y84.257 E3.8751
G1 X130.421 Y84.709 E3.91305
G1 X130.611 Y84.86 E3.92516
G1 X131.545 Y85.694 E3.98763
G1 X131.8 Y85.949 E4.00562
G1 X132.594 Y86.833 E4.06491
G1 X132.746 Y87.022 E4.07701
G1 X133.238 Y87.684 E4.11816
G1 X133.271 Y87.732 E4.12106
G1 X133.618 Y88.269 E4.15296
G1 X133.805 Y88.578 E4.17098
G1 X134.443 Y89.798 E4.23966
G1 X134.557 Y90.054 E4.25365
G1 X134.959 Y91.097 E4.30941
G1 X135.048 Y91.368 E4.32364
G1 X135.352 Y92.493 E4.38178
G1 X135.411 Y92.768 E4.39581
G1 X135.591 Y93.878 E4.45192
G1 X135.62 Y94.143 E4.46522
G1 X135.685 Y95.305 E4.52328
G1 X135.686 Y95.615 E4.53875
G1 X135.626 Y96.793 E4.59759
G1 X135.598 Y97.061 E4.61104
G1 X135.426 Y98.167 E4.66688
G1 X135.374 Y98.416 E4.67957
G1 X135.076 Y99.539 E4.73753
G1 X134.981 Y99.834 E4.753
G1 X134.597 Y100.851 E4.80723
G1 X134.493 Y101.09 E4.82023
G1 X133.987 Y102.106 E4.87686
G1 X133.842 Y102.363 E4.89158
G1 X133.206 Y103.361 E4.95062
G1 X133.08 Y103.537 E4.96142
G1 X132.422 Y104.369 E5.01434
G1 X132.188 Y104.637 E5.03209
G1 X131.569 Y105.29 E5.07698
G1 X131.301 Y105.55 E5.09561
G1 X129.264 Y107.486 E5.23582
G1 X127.503 Y109.259 E5.36049
G1 X125.804 Y111.068 E5.4843
G1 X124.11 Y112.977 E5.61163
G1 X122.507 Y114.891 E5.73619
G1 X120.921 Y116.897 E5.86377
G1 X119.427 Y118.9 E5.98844
G1 X118.006 Y120.924 E6.11182
G1 X116.583 Y123.076 E6.24053
G1 X115.274 Y125.182 E6.36424
G1 X114.006 Y127.359 E6.48993
G1 X112.784 Y129.598 E6.61719
G1 X112.571 Y130.012 E6.64042
G1 X112.049 Y130.995 E6.69595
G1 X111.637 Y131.705 E6.7369
G1 X111.502 Y131.919 E6.74952
G1 X110.715 Y133.012 E6.81672
G1 X110.491 Y133.286 E6.83437
G1 X109.566 Y134.285 E6.9023
G1 X109.308 Y134.531 E6.92008
G1 X108.311 Y135.375 E6.98525
G1 X108.084 Y135.545 E6.9994
G1 X107.187 Y136.15 E7.05338
G1 X107.002 Y136.262 E7.06417
G1 X106.032 Y136.785 E7.11915
G1 X105.721 Y136.933 E7.13633
G1 X104.626 Y137.383 E7.1954
G1 X104.423 Y137.454 E7.20613
G1 X103.459 Y137.743 E7.25634
G1 X103.307 Y137.781 E7.26415
G1 X102.594 Y137.934 E7.30053
G1 X102.223 Y138.001 E7.31934
G1 X100.905 Y138.158 E7.38556
G1 X100.681 Y138.171 E7.39676
G1 X99.803 Y138.186 E7.44057
G1 X99.575 Y138.181 E7.45194
G1 X98.641 Y138.121 E7.49864
G1 X98.427 Y138.098 E7.50938
G1 X97.445 Y137.947 E7.55894
G1 X97.2 Y137.898 E7.57141
G1 X96.179 Y137.643 E7.62391
G1 X95.894 Y137.557 E7.63876
G1 X94.949 Y137.224 E7.68875
G1 X94.808 Y137.167 E7.69634
G1 X94.076 Y136.84 E7.73634
G1 X93.832 Y136.72 E7.7499
G1 X93.062 Y136.302 E7.79361
G1 X92.941 Y136.23 E7.80064
G1 X92.226 Y135.766 E7.84316
G1 X92.002 Y135.608 E7.85684
G1 X91.123 Y134.919 E7.91256
G1 X90.908 Y134.732 E7.92677
G1 X90.033 Y133.88 E7.9877
G1 X89.837 Y133.667 E8.00215
G1 X89.131 Y132.819 E8.05719
G1 X88.96 Y132.591 E8.07141
G1 X88.43 Y131.817 E8.11821
G1 X88.128 Y131.303 E8.14796
G1 X87.752 Y130.619 E8.1869
G1 X86.58 Y128.404 E8.31192
G1 X85.351 Y126.227 E8.43664
G1 X84.059 Y124.087 E8.56136
G1 X82.688 Y121.951 E8.68799
G1 X81.264 Y119.866 E8.81395
G1 X79.805 Y117.854 E8.93795
G1 X78.251 Y115.835 E9.06506
G1 X76.655 Y113.878 E9.19104
G1 X75.032 Y111.998 E9.31495
G1 X73.318 Y110.124 E9.44165
G1 X71.605 Y108.353 E9.56458
G1 X69.481 Y106.307 E9.71171
G1 X69.306 Y106.123 E9.72438
G1 X68.551 Y105.405 E9.77636
G1 X68.131 Y104.984 E9.80603
G1 X67.965 Y104.808 E9.8181
G1 X67.458 Y104.232 E9.85638
G1 X67.331 Y104.077 E9.86638
G1 X66.687 Y103.207 E9.92038
G1 X66.545 Y102.994 E9.93315
G1 X65.979 Y102.044 E9.98832
G1 X65.838 Y101.778 E10.00334
G1 X65.266 Y100.511 E10.0727
G1 X65.152 Y100.209 E10.0888
G1 X64.771 Y98.992 E10.15243
G1 X64.694 Y98.684 E10.16826
G1 X64.535 Y97.938 E10.20632
G1 X64.494 Y97.707 E10.21802
G1 X64.348 Y96.496 E10.27888
G1 X64.334 Y96.28 E10.28968
G1 X64.32 Y95.122 E10.34745
G1 X64.333 Y94.802 E10.36343
G1 X64.435 Y93.688 E10.41924
G1 X64.477 Y93.395 E10.43401
G1 X64.701 Y92.26 E10.49173
G1 X64.769 Y91.991 E10.50557
G1 X65.122 Y90.857 E10.56482
G1 X65.213 Y90.612 E10.57786
G1 X65.7 Y89.495 E10.63866
G1 X65.844 Y89.209 E10.65463
G1 X66.398 Y88.236 E10.71049
G1 X66.527 Y88.034 E10.72245
G1 X67.079 Y87.247 E10.77041
G1 X67.209 Y87.078 E10.78104
G1 X67.774 Y86.401 E10.82504
G1 X67.937 Y86.221 E10.83715
G1 X68.836 Y85.337 E10.90005
G1 X69.089 Y85.115 E10.91685
G0 F3600 X69.353 Y85.415
G1 F1800 X70.359 Y84.634 E10.98039
G1 X70.708 Y84.395 E11.00149
G1 X72.883 Y82.87 E11.13402
G1 X74.902 Y81.365 E11.25965
G1 X76.87 Y79.812 E11.38472
G1 X78.838 Y78.166 E11.51272
G1 X80.702 Y76.514 E11.63698
G1 X82.572 Y74.761 E11.76486
G1 X84.34 Y73.008 E11.88907
G1 X86.084 Y71.177 E12.01523
G1 X88.151 Y68.868 E12.16984
G1 X89.455 Y67.363 E12.26919
G1 X90.162 Y66.57 E12.32219
G1 X90.948 Y65.777 E12.3779
G1 X91.205 Y65.544 E12.3952
G1 X92.146 Y64.784 E12.45555
G1 X92.376 Y64.619 E12.46967
G1 X93.256 Y64.052 E12.5219
G1 X93.476 Y63.925 E12.53457
G1 X94.292 Y63.5 E12.58047
G1 X94.898 Y63.24 E12.61337
G1 X95.356 Y63.06 E12.63792
G1 X96.439 Y62.7 E12.69486
G1 X96.633 Y62.647 E12.70489
G1 X97.624 Y62.426 E12.75555
G1 X97.85 Y62.387 E12.76699
G1 X98.748 Y62.272 E12.81216
G1 X98.993 Y62.251 E12.82443
G1 X100.133 Y62.215 E12.88133
G1 X100.449 Y62.222 E12.8971
G1 X101.615 Y62.312 E12.95544
G1 X101.885 Y62.348 E12.96903
G1 X102.824 Y62.517 E13.01663
G1 X103.067 Y62.572 E13.02906
G1 X104.048 Y62.844 E13.07985
G1 X104.242 Y62.908 E13.09004
G1 X104.893 Y63.146 E13.12463
G1 X105.086 Y63.224 E13.13501
G1 X106.078 Y63.686 E13.18961
G1 X106.361 Y63.836 E13.20559
G1 X107.499 Y64.534 E13.27219
G1 X107.776 Y64.729 E13.28909
G1 X108.46 Y65.254 E13.33211
G1 X108.616 Y65.384 E13.34224
G1 X109.466 Y66.175 E13.40017
G1 X109.673 Y66.39 E13.41506
G1 X110.139 Y66.907 E13.44978
G1 X111.831 Y68.912 E13.58067
G1 X113.535 Y70.818 E13.70822
G1 X115.263 Y72.646 E13.83372
G1 X117.049 Y74.43 E13.95966
G1 X118.902 Y76.18 E14.08682
G1 X120.766 Y77.841 E14.21138
G1 X122.73 Y79.497 E14.33954
G1 X124.695 Y81.059 E14.46478
G1 X126.705 Y82.568 E14.59017
G1 X128.737 Y84.004 E14.71431
G1 X129.583 Y84.586 E14.76554
G1 X130.172 Y85.023 E14.80213
G1 X130.362 Y85.174 E14.81424
G1 X131.262 Y85.977 E14.87441
G1 X131.517 Y86.232 E14.8924
G1 X132.282 Y87.084 E14.94953
G1 X132.434 Y87.273 E14.96163
G1 X132.909 Y87.911 E15.00131
G1 X132.942 Y87.959 E15.00422
G1 X133.276 Y88.476 E15.03493
G1 X133.463 Y88.785 E15.05295
G1 X134.077 Y89.961 E15.11913
G1 X134.191 Y90.217 E15.13311
G1 X134.579 Y91.222 E15.18686
G1 X134.668 Y91.493 E15.20109
G1 X134.961 Y92.576 E15.25707
G1 X135.02 Y92.851 E15.2711
G1 X135.193 Y93.922 E15.32522
G1 X135.222 Y94.187 E15.33852
G1 X135.285 Y95.306 E15.39444
G1 X135.286 Y95.616 E15.4099
G1 X135.229 Y96.751 E15.4666
G1 X135.201 Y97.019 E15.48004
G1 X135.034 Y98.085 E15.53388
G1 X134.982 Y98.334 E15.54657
G1 X134.696 Y99.416 E15.6024
G1 X134.601 Y99.711 E15.61786
G1 X134.231 Y100.691 E15.67012
G1 X134.127 Y100.93 E15.68313
G1 X133.639 Y101.91 E15.73775
G1 X133.494 Y102.167 E15.75247
G1 X132.881 Y103.128 E15.80934
G1 X132.755 Y103.304 E15.82014
G1 X132.121 Y104.106 E15.87114
G1 X131.887 Y104.374 E15.88889
G1 X131.29 Y105.003 E15.93215
G1 X131.025 Y105.26 E15.95057
G1 X129.005 Y107.179 E16.08958
G1 X127.211 Y108.986 E16.21661
G1 X125.497 Y110.811 E16.34152
G1 X123.818 Y112.704 E16.46776
G1 X122.188 Y114.65 E16.5944
G1 X120.602 Y116.655 E16.72195
G1 X119.124 Y118.637 E16.84529
G1 X117.65 Y120.736 E16.97326
G1 X116.269 Y122.825 E17.09819
G1 X114.923 Y124.991 E17.22542
G1 X113.661 Y127.157 E17.35049
G1 X112.427 Y129.418 E17.47899
G1 X112.218 Y129.824 E17.50178
G1 X111.696 Y130.807 E17.5573
G1 X111.299 Y131.492 E17.5968
G1 X111.164 Y131.706 E17.60943
G1 X110.406 Y132.759 E17.67416
G1 X110.182 Y133.033 E17.69181
G1 X109.29 Y133.996 E17.7573
G1 X109.032 Y134.242 E17.77509
G1 X108.071 Y135.054 E17.83785
G1 X107.844 Y135.224 E17.852
G1 X106.98 Y135.808 E17.90403
G1 X106.795 Y135.92 E17.91482
G1 X105.86 Y136.423 E17.96779
G1 X105.549 Y136.571 E17.98497
G1 X104.494 Y137.006 E18.04191
G1 X104.291 Y137.077 E18.05263
G1 X103.362 Y137.355 E18.10101
G1 X103.21 Y137.393 E18.10883
G1 X102.523 Y137.54 E18.14388
G1 X102.152 Y137.607 E18.16269
G1 X100.882 Y137.758 E18.2265
G1 X100.658 Y137.771 E18.23769
G1 X99.812 Y137.786 E18.2799
G1 X99.584 Y137.781 E18.29128
G1 X98.683 Y137.723 E18.33633
G1 X98.469 Y137.7 E18.34706
G1 X97.523 Y137.555 E18.39481
G1 X97.278 Y137.506 E18.40728
G1 X96.295 Y137.26 E18.45783
G1 X96.01 Y137.174 E18.47268
G1 X95.099 Y136.853 E18.52087
G1 X94.958 Y136.796 E18.52846
G1 X94.253 Y136.481 E18.56698
G1 X94.009 Y136.361 E18.58055
G1 X93.267 Y135.958 E18.62267
G1 X93.146 Y135.886 E18.6297
G1 X92.456 Y135.439 E18.67072
G1 X92.232 Y135.281 E18.68439
G1 X91.386 Y134.617 E18.73805
G1 X91.171 Y134.43 E18.75226
G1 X90.327 Y133.61 E18.81097
G1 X90.131 Y133.397 E18.82541
G1 X89.451 Y132.579 E18.87848
G1 X89.28 Y132.351 E18.8927
G1 X88.76 Y131.591 E18.93864
G1 X88.478 Y131.11 E18.96646
G1 X88.106 Y130.432 E19.00504
G1 X86.948 Y128.243 E19.12859
G1 X85.699 Y126.03 E19.25537
G1 X84.379 Y123.844 E19.38277
G1 X83.028 Y121.739 E19.50756
G1 X81.585 Y119.628 E19.63513
G1 X80.13 Y117.621 E19.7588
G1 X78.563 Y115.584 E19.88702
G1 X76.966 Y113.627 E20.01304
G1 X75.314 Y111.713 E20.13918
G1 X73.635 Y109.878 E20.26327
G1 X71.873 Y108.056 E20.38972
G1 X69.759 Y106.019 E20.53618
G1 X69.594 Y105.846 E20.54811
G1 X68.826 Y105.115 E20.60101
G1 X68.422 Y104.709 E20.62958
G1 X68.256 Y104.533 E20.64165
G1 X67.768 Y103.978 E20.67852
G1 X67.641 Y103.823 E20.68852
G1 X67.02 Y102.985 E20.74056
G1 X66.878 Y102.772 E20.75333
G1 X66.332 Y101.856 E20.80653
G1 X66.191 Y101.59 E20.82155
G1 X65.64 Y100.369 E20.88838
G1 X65.526 Y100.067 E20.90449
G1 X65.159 Y98.895 E20.96576
G1 X65.082 Y98.587 E20.9816
G1 X64.929 Y97.868 E21.01827
G1 X64.888 Y97.637 E21.02998
G1 X64.747 Y96.471 E21.08857
G1 X64.733 Y96.255 E21.09937
G1 X64.72 Y95.139 E21.15505
G1 X64.733 Y94.819 E21.17103
G1 X64.831 Y93.745 E21.22483
G1 X64.873 Y93.452 E21.2396
G1 X65.089 Y92.358 E21.29524
G1 X65.157 Y92.089 E21.30908
G1 X65.497 Y90.996 E21.36619
G1 X65.588 Y90.751 E21.37922
G1 X66.057 Y89.675 E21.43778
G1 X66.201 Y89.389 E21.45376
G1 X66.735 Y88.451 E21.50761
G1 X66.864 Y88.249 E21.51957
G1 X67.396 Y87.491 E21.56577
G1 X67.526 Y87.322 E21.5764
G1 X68.071 Y86.67 E21.6188
G1 X68.234 Y86.49 E21.63092
G1 X69.1 Y85.637 E21.69156
G1 X69.353 Y85.415 E21.70835
G0 F3600 X69.617 Y85.716
G1 F1800 X70.585 Y84.964 E21.76951
G1 X70.98 Y84.694 E21.79338
G1 X73.106 Y83.203 E21.92293
G1 X75.121 Y81.701 E22.04831
G1 X77.151 Y80.099 E22.17733
G1 X79.077 Y78.488 E22.3026
G1 X80.995 Y76.788 E22.43046
G1 X82.826 Y75.071 E22.55569
G1 X84.646 Y73.267 E22.68354
G1 X86.373 Y71.454 E22.80846
G1 X88.439 Y69.147 E22.96297
G1 X89.859 Y67.509 E23.07112
G1 X90.46 Y66.836 E23.11613
G1 X91.217 Y66.073 E23.16976
G1 X91.474 Y65.84 E23.18706
G1 X92.379 Y65.109 E23.2451
G1 X92.609 Y64.944 E23.25923
G1 X93.456 Y64.398 E23.3095
G1 X93.676 Y64.271 E23.32217
G1 X94.477 Y63.855 E23.3672
G1 X95.044 Y63.612 E23.39798
G1 X95.502 Y63.432 E23.42253
G1 X96.545 Y63.086 E23.47736
G1 X96.739 Y63.033 E23.48739
G1 X97.692 Y62.821 E23.5361
G1 X97.918 Y62.782 E23.54754
G1 X98.782 Y62.67 E23.591
G1 X99.027 Y62.649 E23.60327
G1 X100.124 Y62.615 E23.65803
G1 X100.44 Y62.622 E23.6738
G1 X101.562 Y62.708 E23.72994
G1 X101.832 Y62.744 E23.74353
G1 X102.736 Y62.907 E23.78936
G1 X102.979 Y62.962 E23.80179
G1 X103.923 Y63.223 E23.85065
G1 X104.117 Y63.287 E23.86084
G1 X104.743 Y63.517 E23.89411
G1 X104.936 Y63.595 E23.9045
G1 X105.891 Y64.04 E23.95706
G1 X106.174 Y64.19 E23.97304
G1 X107.269 Y64.861 E24.03711
G1 X107.546 Y65.056 E24.05401
G1 X108.204 Y65.561 E24.0954
G1 X108.36 Y65.691 E24.10553
G1 X109.178 Y66.453 E24.1613
G1 X109.385 Y66.668 E24.17619
G1 X109.834 Y67.165 E24.20961
G1 X111.558 Y69.209 E24.34301
G1 X113.211 Y71.057 E24.46671
G1 X114.99 Y72.939 E24.59591
G1 X116.775 Y74.722 E24.72178
G1 X118.627 Y76.47 E24.84884
G1 X120.505 Y78.145 E24.97438
G1 X122.469 Y79.8 E25.10252
G1 X124.451 Y81.377 E25.22888
G1 X126.48 Y82.899 E25.35542
G1 X128.517 Y84.339 E25.47988
G1 X129.356 Y84.916 E25.53068
G1 X129.923 Y85.336 E25.56588
G1 X130.113 Y85.487 E25.57799
G1 X130.979 Y86.26 E25.6359
G1 X131.234 Y86.515 E25.65389
G1 X131.97 Y87.335 E25.70887
G1 X132.122 Y87.524 E25.72097
G1 X132.579 Y88.137 E25.75911
G1 X132.612 Y88.185 E25.76202
G1 X132.933 Y88.683 E25.79158
G1 X133.12 Y88.992 E25.8096
G1 X133.712 Y90.124 E25.87333
G1 X133.826 Y90.38 E25.88731
G1 X134.199 Y91.346 E25.93897
G1 X134.288 Y91.617 E25.9532
G1 X134.57 Y92.66 E26.00711
G1 X134.629 Y92.935 E26.02114
G1 X134.795 Y93.965 E26.07319
G1 X134.824 Y94.23 E26.08649
G1 X134.885 Y95.307 E26.14031
G1 X134.886 Y95.617 E26.15577
G1 X134.831 Y96.71 E26.21037
G1 X134.803 Y96.978 E26.22382
G1 X134.643 Y98.003 E26.27557
G1 X134.591 Y98.252 E26.28826
G1 X134.315 Y99.294 E26.34204
G1 X134.22 Y99.589 E26.3575
G1 X133.864 Y100.532 E26.40779
G1 X133.76 Y100.771 E26.42079
G1 X133.291 Y101.713 E26.47329
G1 X133.146 Y101.97 E26.48802
G1 X132.556 Y102.896 E26.54279
G1 X132.43 Y103.072 E26.55359
G1 X131.819 Y103.843 E26.60267
G1 X131.585 Y104.111 E26.62042
G1 X131.012 Y104.716 E26.66199
G1 X130.75 Y104.97 E26.6802
G1 X128.711 Y106.907 E26.82051
G1 X126.935 Y108.696 E26.94628
G1 X125.189 Y110.555 E27.07351
G1 X123.515 Y112.442 E27.19936
G1 X121.869 Y114.407 E27.32725
G1 X120.313 Y116.374 E27.45237
G1 X118.792 Y118.414 E27.57932
G1 X117.322 Y120.507 E27.70693
G1 X115.923 Y122.623 E27.83348
G1 X114.58 Y124.785 E27.96046
G1 X113.314 Y126.958 E28.08593
G1 X112.07 Y129.238 E28.21551
G1 X111.865 Y129.637 E28.23789
G1 X111.343 Y130.62 E28.29342
G1 X110.961 Y131.278 E28.33137
G1 X110.826 Y131.492 E28.344
G1 X110.096 Y132.506 E28.40633
G1 X109.872 Y132.78 E28.42399
G1 X109.014 Y133.706 E28.48697
G1 X108.756 Y133.952 E28.50475
G1 X107.831 Y134.734 E28.56518
