;FLAVOR:Marlin
;TIME:695
;Filament used: 0.532671m
;Layer height: 0.15
;MINX:64.42
;MINY:61.913
;MINZ:0.3
;MAXX:135.586
;MAXY:138.086
;MAXZ:8.55
;Generated with Cura_SteamEngine 4.12.1
M140 S90
M105
M190 S90
M104 S235
M105
M109 S235
M82 ;absolute extrusion mode
G21 ;metric values
G90 ;absolute positioning
M82 ;set extruder to absolute mode
M107 ;start with the fan off
G28 X0 Y0 ;move X/Y to min endstops
G28 Z0 ;move Z to min endstops
G1 Z15.0 F9000 ;move the platform down 15mm
G92 E0 ;zero the extruded length
G1 F200 E6 ;extrude 6 mm of feed stock
G92 E0 ;zero the extruded length again
G1 F9000
;Put printing message on LCD screen
M117 Printing...
G92 E0
G92 E0
G1 F3000 E-5
;LAYER_COUNT:56
;LAYER:0
M107
G0 F3600 X69.339 Y85.028 Z0.3
;TYPE:SKIRT
G1 F3000 E0
G1 F1800 X70.101 Y84.443 E0.04793
G1 X70.822 Y83.938 E0.09184
G1 X71.187 Y83.692 E0.1138
G1 X73.219 Y82.246 E0.23823
G1 X75.256 Y80.708 E0.36557
G1 X77.205 Y79.149 E0.49009
G1 X79.123 Y77.523 E0.61553
G1 X81.01 Y75.829 E0.74205
G1 X82.814 Y74.117 E0.86613
G1 X84.614 Y72.307 E0.99348
G1 X86.334 Y70.477 E1.11877
G1 X88.249 Y68.315 E1.26287
G1 X89.271 Y67.124 E1.34116
G1 X89.88 Y66.439 E1.38689
G1 X90.605 Y65.698 E1.43861
G1 X90.91 Y65.414 E1.4594
G1 X91.623 Y64.804 E1.50622
G1 X92.268 Y64.336 E1.54597
G1 X92.613 Y64.104 E1.56672
G1 X93.413 Y63.614 E1.61352
G1 X94.049 Y63.285 E1.64924
G1 X94.899 Y62.906 E1.69567
G1 X95.096 Y62.828 E1.70625
G1 X96.146 Y62.473 E1.76154
G1 X96.453 Y62.386 E1.77746
G1 X97.603 Y62.125 E1.8363
G1 X97.82 Y62.088 E1.84728
G1 X98.697 Y61.975 E1.89139
G1 X98.9 Y61.957 E1.90156
G1 X99.764 Y61.915 E1.94472
G1 X99.967 Y61.913 E1.95484
G1 X100.55 Y61.922 E1.98393
G1 X101.188 Y61.965 E2.01584
G1 X101.446 Y61.99 E2.02877
G1 X102.264 Y62.101 E2.06995
G1 X102.414 Y62.127 E2.07755
G1 X103.397 Y62.344 E2.12777
G1 X103.679 Y62.42 E2.14234
G1 X104.804 Y62.789 E2.20141
G1 X105.02 Y62.873 E2.21297
G1 X105.882 Y63.252 E2.25995
G1 X106.108 Y63.363 E2.27251
G1 X107.14 Y63.94 E2.3315
G1 X107.385 Y64.095 E2.34596
G1 X108.261 Y64.711 E2.39939
G1 X108.41 Y64.827 E2.40881
G1 X109.356 Y65.654 E2.4715
G1 X109.821 Y66.119 E2.50431
G1 X109.966 Y66.271 E2.51479
G1 X110.46 Y66.825 E2.55182
G1 X110.871 Y67.319 E2.58388
G1 X112.566 Y69.293 E2.71369
G1 X114.274 Y71.172 E2.84037
G1 X115.995 Y72.962 E2.96426
G1 X117.805 Y74.74 E3.09084
G1 X119.653 Y76.455 E3.21662
G1 X121.545 Y78.113 E3.34213
G1 X123.473 Y79.711 E3.46706
G1 X125.462 Y81.265 E3.59299
G1 X127.531 Y82.79 E3.72122
G1 X128.706 Y83.616 E3.79288
G1 X129.774 Y84.353 E3.85762
G1 X130.609 Y84.991 E3.91004
G1 X130.868 Y85.209 E3.92693
G1 X131.827 Y86.119 E3.99289
G1 X132.051 Y86.359 E4.00927
G1 X132.858 Y87.331 E4.0723
G1 X133.016 Y87.545 E4.08557
G1 X133.676 Y88.549 E4.14551
G1 X133.808 Y88.776 E4.15861
G1 X134.302 Y89.73 E4.21221
G1 X134.415 Y89.977 E4.22576
G1 X134.852 Y91.088 E4.28532
G1 X134.929 Y91.32 E4.29752
G1 X135.224 Y92.384 E4.3526
G1 X135.292 Y92.688 E4.36814
G1 X135.491 Y93.883 E4.42858
G1 X135.52 Y94.146 E4.44178
G1 X135.586 Y95.352 E4.50204
G1 X135.586 Y95.636 E4.51621
G1 X135.531 Y96.739 E4.57131
G1 X135.505 Y96.997 E4.58424
G1 X135.355 Y98.006 E4.63514
G1 X135.31 Y98.236 E4.64683
G1 X135.02 Y99.386 E4.706
G1 X134.934 Y99.663 E4.72047
G1 X134.553 Y100.703 E4.77573
G1 X134.454 Y100.936 E4.78836
G1 X134.063 Y101.76 E4.83386
G1 X133.984 Y101.91 E4.84232
G1 X133.451 Y102.814 E4.89467
G1 X133.295 Y103.052 E4.90887
G1 X132.895 Y103.622 E4.94361
G1 X132.832 Y103.706 E4.94885
G1 X131.967 Y104.724 E5.0155
G1 X131.582 Y105.125 E5.04323
G1 X131.203 Y105.501 E5.06987
G1 X129.396 Y107.209 E5.19392
G1 X127.623 Y108.983 E5.31905
G1 X125.887 Y110.82 E5.44515
G1 X124.217 Y112.691 E5.57026
G1 X122.596 Y114.614 E5.69574
G1 X121.025 Y116.589 E5.82165
G1 X119.515 Y118.6 E5.94711
G1 X118.06 Y120.658 E6.07285
G1 X116.659 Y122.763 E6.19901
G1 X115.329 Y124.889 E6.32412
G1 X114.065 Y127.042 E6.44867
G1 X112.377 Y130.151 E6.62517
G1 X112.111 Y130.667 E6.65413
G1 X111.81 Y131.212 E6.68519
G1 X111.617 Y131.539 E6.70414
G1 X111.012 Y132.457 E6.75899
G1 X110.852 Y132.675 E6.77248
G1 X110.009 Y133.689 E6.83827
G1 X109.829 Y133.881 E6.8514
G1 X108.997 Y134.681 E6.90898
G1 X108.776 Y134.872 E6.92355
G1 X107.958 Y135.514 E6.97543
G1 X107.778 Y135.642 E6.98645
G1 X106.98 Y136.158 E7.03386
G1 X106.793 Y136.268 E7.04469
G1 X105.849 Y136.764 E7.09789
G1 X105.61 Y136.875 E7.11103
G1 X104.613 Y137.28 E7.16472
G1 X104.356 Y137.37 E7.17831
G1 X103.276 Y137.687 E7.23446
G1 X103.05 Y137.741 E7.24606
G1 X102.089 Y137.926 E7.29488
G1 X101.857 Y137.96 E7.30658
G1 X100.908 Y138.057 E7.35417
G1 X100.687 Y138.07 E7.36522
G1 X99.779 Y138.086 E7.41052
G1 X99.569 Y138.081 E7.421
G1 X98.411 Y137.992 E7.47895
G1 X98.073 Y137.948 E7.49595
G1 X96.806 Y137.707 E7.5603
G1 X96.54 Y137.64 E7.57398
G1 X95.545 Y137.338 E7.62586
G1 X95.469 Y137.311 E7.62988
G1 X94.825 Y137.06 E7.66436
G1 X94.486 Y136.915 E7.68276
G1 X93.559 Y136.466 E7.73415
G1 X93.467 Y136.416 E7.73937
G1 X92.795 Y136.019 E7.77831
G1 X92.576 Y135.879 E7.79128
G1 X91.748 Y135.294 E7.84186
G1 X91.568 Y135.154 E7.85323
G1 X90.777 Y134.476 E7.90521
G1 X90.586 Y134.296 E7.9183
G1 X89.999 Y133.699 E7.96007
G1 X89.876 Y133.564 E7.96919
G1 X89.274 Y132.845 E8.01597
G1 X88.951 Y132.4 E8.0434
G1 X88.76 Y132.123 E8.06019
G1 X88.363 Y131.505 E8.09684
G1 X87.991 Y130.864 E8.13381
G1 X87.84 Y130.584 E8.14968
G1 X87.556 Y130.042 E8.18021
G1 X87.174 Y129.302 E8.22176
G1 X85.981 Y127.128 E8.34548
G1 X84.69 Y124.928 E8.47274
G1 X83.345 Y122.776 E8.59935
G1 X81.962 Y120.695 E8.724
G1 X80.515 Y118.649 E8.84903
G1 X78.998 Y116.626 E8.97518
G1 X77.43 Y114.653 E9.10091
G1 X75.813 Y112.735 E9.22607
G1 X74.123 Y110.84 E9.35275
G1 X72.415 Y109.029 E9.47694
G1 X70.634 Y107.246 E9.60267
G1 X69.531 Y106.191 E9.67882
G1 X68.614 Y105.326 E9.74171
G1 X68.059 Y104.763 E9.78115
G1 X67.914 Y104.605 E9.79185
G1 X67.242 Y103.799 E9.84421
G1 X67.075 Y103.578 E9.85803
G1 X66.477 Y102.702 E9.91094
G1 X66.407 Y102.588 E9.91762
G1 X65.937 Y101.74 E9.96599
G1 X65.756 Y101.377 E9.98622
G1 X65.374 Y100.521 E10.03299
G1 X65.179 Y99.99 E10.06121
G1 X65.104 Y99.768 E10.0729
G1 X64.856 Y98.925 E10.11674
G1 X64.796 Y98.686 E10.12903
G1 X64.564 Y97.48 E10.19031
G1 X64.527 Y97.206 E10.2041
G1 X64.441 Y96.265 E10.25124
G1 X64.431 Y96.058 E10.26158
G1 X64.42 Y95.326 E10.2981
G1 X64.425 Y95.052 E10.31178
G1 X64.52 Y93.796 E10.37462
G1 X64.549 Y93.579 E10.38554
G1 X64.733 Y92.566 E10.43691
G1 X64.783 Y92.349 E10.44802
G1 X65.077 Y91.309 E10.50194
G1 X65.177 Y91.012 E10.51757
G1 X65.628 Y89.884 E10.57818
G1 X65.741 Y89.641 E10.59155
G1 X66.305 Y88.582 E10.65141
G1 X66.44 Y88.359 E10.66441
G1 X66.959 Y87.578 E10.7112
G1 X67.308 Y87.125 E10.73973
G1 X67.549 Y86.828 E10.75881
G1 X68.057 Y86.245 E10.79739
G1 X68.216 Y86.075 E10.809
G1 X69.177 Y85.164 E10.87506
G1 X69.339 Y85.028 E10.88561
G0 F3600 X69.597 Y85.335
G1 F1800 X70.331 Y84.771 E10.9318
G1 X71.052 Y84.266 E10.97571
G1 X71.402 Y84.028 E10.99683
G1 X73.485 Y82.547 E11.12434
G1 X75.479 Y81.042 E11.24898
G1 X77.45 Y79.464 E11.37494
G1 X79.421 Y77.794 E11.50383
G1 X81.252 Y76.15 E11.62659
G1 X83.108 Y74.389 E11.75424
G1 X84.906 Y72.58 E11.88148
G1 X86.609 Y70.769 E12.00551
G1 X88.539 Y68.59 E12.15073
G1 X89.443 Y67.535 E12.22004
G1 X90.179 Y66.705 E12.27539
G1 X90.877 Y65.99 E12.32524
G1 X91.182 Y65.706 E12.34603
G1 X91.883 Y65.109 E12.39197
G1 X92.491 Y64.668 E12.42944
G1 X92.836 Y64.436 E12.45018
G1 X93.621 Y63.956 E12.49609
G1 X94.227 Y63.643 E12.53012
G1 X95.046 Y63.278 E12.57485
G1 X95.243 Y63.2 E12.58542
G1 X96.255 Y62.858 E12.63872
G1 X96.562 Y62.771 E12.65463
G1 X97.67 Y62.52 E12.71131
G1 X97.887 Y62.483 E12.7223
G1 X98.733 Y62.373 E12.76486
G1 X98.936 Y62.355 E12.77503
G1 X99.768 Y62.315 E12.81658
G1 X99.971 Y62.313 E12.82671
G1 X100.534 Y62.322 E12.8548
G1 X101.149 Y62.363 E12.88555
G1 X101.407 Y62.388 E12.89849
G1 X102.195 Y62.495 E12.93816
G1 X102.345 Y62.521 E12.94575
G1 X103.293 Y62.73 E12.99419
G1 X103.575 Y62.806 E13.00876
G1 X104.659 Y63.162 E13.06568
G1 X104.875 Y63.246 E13.07724
G1 X105.706 Y63.611 E13.12252
G1 X105.932 Y63.722 E13.13509
G1 X106.926 Y64.278 E13.19191
G1 X107.171 Y64.433 E13.20637
G1 X108.016 Y65.027 E13.2579
G1 X108.165 Y65.143 E13.26732
G1 X109.076 Y65.94 E13.32771
G1 X109.532 Y66.395 E13.35985
G1 X109.677 Y66.547 E13.37033
G1 X110.152 Y67.081 E13.40599
G1 X110.53 Y67.535 E13.43546
G1 X112.268 Y69.559 E13.56856
G1 X113.973 Y71.435 E13.69503
G1 X115.727 Y73.259 E13.82128
G1 X117.535 Y75.035 E13.94772
G1 X119.383 Y76.75 E14.0735
G1 X121.271 Y78.406 E14.19879
G1 X123.218 Y80.018 E14.3249
G1 X125.24 Y81.599 E14.45295
G1 X127.274 Y83.098 E14.57901
G1 X128.543 Y83.991 E14.65643
G1 X129.546 Y84.683 E14.71722
G1 X130.352 Y85.297 E14.76777
G1 X130.611 Y85.515 E14.78466
G1 X131.534 Y86.392 E14.84818
G1 X131.758 Y86.632 E14.86456
G1 X132.537 Y87.569 E14.92535
G1 X132.695 Y87.783 E14.93862
G1 X133.33 Y88.751 E14.99638
G1 X133.462 Y88.978 E15.00948
G1 X133.938 Y89.896 E15.06107
G1 X134.051 Y90.143 E15.07462
G1 X134.472 Y91.214 E15.13204
G1 X134.549 Y91.446 E15.14423
G1 X134.833 Y92.471 E15.19729
G1 X134.901 Y92.775 E15.21284
G1 X135.093 Y93.927 E15.2711
G1 X135.122 Y94.19 E15.2843
G1 X135.186 Y95.352 E15.34236
G1 X135.186 Y95.636 E15.35653
G1 X135.133 Y96.699 E15.40963
G1 X135.107 Y96.957 E15.42257
G1 X134.963 Y97.929 E15.47159
G1 X134.918 Y98.159 E15.48328
G1 X134.638 Y99.267 E15.5403
G1 X134.552 Y99.544 E15.55477
G1 X134.185 Y100.546 E15.60801
G1 X134.086 Y100.779 E15.62064
G1 X133.709 Y101.573 E15.66449
G1 X133.63 Y101.723 E15.67295
G1 X133.116 Y102.595 E15.72345
G1 X132.96 Y102.833 E15.73764
G1 X132.575 Y103.382 E15.7711
G1 X132.512 Y103.466 E15.77634
G1 X131.678 Y104.447 E15.84057
G1 X131.293 Y104.848 E15.86831
G1 X130.929 Y105.21 E15.89392
G1 X129.103 Y106.936 E16.01928
G1 X127.349 Y108.691 E16.14307
G1 X125.581 Y110.562 E16.27149
G1 X123.931 Y112.41 E16.39509
G1 X122.276 Y114.374 E16.52323
G1 X120.707 Y116.345 E16.64891
G1 X119.184 Y118.375 E16.77552
G1 X117.733 Y120.427 E16.90091
G1 X116.33 Y122.535 E17.02724
G1 X114.988 Y124.68 E17.15347
G1 X113.72 Y126.84 E17.27843
G1 X112.019 Y129.974 E17.45633
G1 X111.756 Y130.483 E17.48492
G1 X111.466 Y131.009 E17.51488
G1 X111.273 Y131.336 E17.53383
G1 X110.689 Y132.22 E17.58668
G1 X110.529 Y132.438 E17.60017
G1 X109.717 Y133.416 E17.66359
G1 X109.537 Y133.608 E17.67672
G1 X108.735 Y134.378 E17.73219
G1 X108.514 Y134.569 E17.74676
G1 X107.726 Y135.188 E17.79676
G1 X107.546 Y135.316 E17.80778
G1 X106.777 Y135.814 E17.85348
G1 X106.59 Y135.924 E17.86431
G1 X105.681 Y136.401 E17.91552
G1 X105.442 Y136.512 E17.92867
G1 X104.48 Y136.902 E17.98046
G1 X104.223 Y136.992 E17.99404
G1 X103.183 Y137.298 E18.04813
G1 X102.957 Y137.352 E18.05972
G1 X102.031 Y137.53 E18.10676
G1 X101.799 Y137.564 E18.11846
G1 X100.884 Y137.658 E18.16435
G1 X100.663 Y137.671 E18.1754
G1 X99.789 Y137.686 E18.21901
G1 X99.579 Y137.681 E18.22949
G1 X98.463 Y137.595 E18.28533
G1 X98.125 Y137.551 E18.30234
G1 X96.904 Y137.319 E18.36434
G1 X96.638 Y137.252 E18.37803
G1 X95.678 Y136.961 E18.42807
G1 X95.602 Y136.934 E18.4321
G1 X94.982 Y136.692 E18.4653
G1 X94.643 Y136.547 E18.4837
G1 X93.75 Y136.114 E18.53321
G1 X93.658 Y136.064 E18.53843
G1 X93.011 Y135.682 E18.57592
G1 X92.792 Y135.542 E18.58889
G1 X91.993 Y134.978 E18.63768
G1 X91.813 Y134.838 E18.64906
G1 X91.051 Y134.185 E18.69912
G1 X90.86 Y134.005 E18.71222
G1 X90.295 Y133.43 E18.75243
G1 X90.172 Y133.295 E18.76155
G1 X89.582 Y132.588 E18.80749
G1 X89.28 Y132.173 E18.83309
G1 X89.089 Y131.896 E18.84988
G1 X88.707 Y131.3 E18.8852
G1 X88.342 Y130.672 E18.92144
G1 X88.194 Y130.398 E18.93697
G1 X87.911 Y129.858 E18.96739
G1 X87.539 Y129.137 E19.00786
G1 X86.31 Y126.898 E19.13529
G1 X85.025 Y124.709 E19.26193
G1 X83.701 Y122.59 E19.38658
G1 X82.294 Y120.473 E19.5134
G1 X80.829 Y118.4 E19.64004
G1 X79.316 Y116.383 E19.76584
G1 X77.733 Y114.392 E19.89274
G1 X76.134 Y112.494 E20.01655
G1 X74.411 Y110.563 E20.14567
G1 X72.706 Y108.756 E20.26961
G1 X70.889 Y106.936 E20.39792
G1 X69.808 Y105.902 E20.47255
G1 X68.889 Y105.035 E20.53558
G1 X68.353 Y104.492 E20.57365
G1 X68.208 Y104.334 E20.58435
G1 X67.561 Y103.558 E20.63475
G1 X67.394 Y103.337 E20.64857
G1 X66.818 Y102.493 E20.69955
G1 X66.748 Y102.379 E20.70623
G1 X66.295 Y101.562 E20.75283
G1 X66.114 Y101.199 E20.77307
G1 X65.739 Y100.358 E20.81901
G1 X65.558 Y99.862 E20.84535
G1 X65.483 Y99.64 E20.85704
G1 X65.244 Y98.828 E20.89927
G1 X65.184 Y98.589 E20.91156
G1 X64.96 Y97.427 E20.9706
G1 X64.923 Y97.153 E20.9844
G1 X64.84 Y96.245 E21.02989
G1 X64.83 Y96.038 E21.04023
G1 X64.82 Y95.334 E21.07535
G1 X64.825 Y95.06 E21.08902
G1 X64.916 Y93.849 E21.14961
G1 X64.945 Y93.632 E21.16053
G1 X65.123 Y92.656 E21.21003
G1 X65.173 Y92.439 E21.22114
G1 X65.456 Y91.437 E21.27309
G1 X65.556 Y91.14 E21.28872
G1 X65.99 Y90.052 E21.34716
G1 X66.103 Y89.809 E21.36053
G1 X66.647 Y88.79 E21.41816
G1 X66.782 Y88.567 E21.43116
G1 X67.293 Y87.8 E21.47715
G1 X67.619 Y87.377 E21.50379
G1 X67.86 Y87.08 E21.52287
G1 X68.349 Y86.518 E21.56004
G1 X68.508 Y86.348 E21.57165
G1 X69.435 Y85.471 E21.63532
G1 X69.597 Y85.335 E21.64587
G0 F3600 X69.854 Y85.641
G1 F1800 X70.56 Y85.098 E21.6903
G1 X71.281 Y84.593 E21.73422
G1 X71.627 Y84.36 E21.75503
G1 X73.713 Y82.877 E21.88272
G1 X75.747 Y81.34 E22.00991
G1 X77.714 Y79.767 E22.13557
G1 X79.643 Y78.131 E22.26176
G1 X81.531 Y76.437 E22.38831
G1 X83.401 Y74.661 E22.51697
G1 X85.181 Y72.872 E22.64288
G1 X86.901 Y71.042 E22.76817
G1 X88.887 Y68.8 E22.9176
G1 X89.869 Y67.656 E22.99282
G1 X90.478 Y66.971 E23.03855
G1 X91.15 Y66.283 E23.08653
G1 X91.455 Y65.999 E23.10732
G1 X92.143 Y65.414 E23.15237
G1 X92.714 Y65 E23.18756
G1 X93.059 Y64.768 E23.2083
G1 X94.208 Y64.1 E23.27461
G1 X94.405 Y64.002 E23.28559
G1 X95.193 Y63.65 E23.32865
G1 X95.39 Y63.572 E23.33922
G1 X96.364 Y63.242 E23.39052
G1 X96.671 Y63.155 E23.40644
G1 X97.738 Y62.914 E23.46102
G1 X97.955 Y62.877 E23.472
G1 X98.768 Y62.772 E23.5129
G1 X98.971 Y62.754 E23.52306
G1 X99.772 Y62.714 E23.56308
G1 X99.975 Y62.712 E23.5732
G1 X100.519 Y62.722 E23.60035
G1 X101.111 Y62.762 E23.62995
G1 X101.369 Y62.787 E23.64288
G1 X102.127 Y62.889 E23.68104
G1 X102.277 Y62.915 E23.68864
G1 X103.189 Y63.116 E23.73523
G1 X103.471 Y63.192 E23.7498
G1 X104.514 Y63.535 E23.80458
G1 X104.73 Y63.619 E23.81614
G1 X105.53 Y63.97 E23.85972
G1 X105.756 Y64.081 E23.87228
G1 X106.712 Y64.616 E23.92694
G1 X106.957 Y64.771 E23.9414
G1 X107.77 Y65.343 E23.991
G1 X107.919 Y65.459 E24.00042
G1 X108.795 Y66.225 E24.05847
G1 X109.242 Y66.671 E24.08998
G1 X109.387 Y66.823 E24.10046
G1 X109.845 Y67.337 E24.1348
G1 X110.275 Y67.854 E24.16835
G1 X111.951 Y69.805 E24.29667
G1 X113.671 Y71.698 E24.42428
G1 X115.459 Y73.557 E24.55296
G1 X117.265 Y75.332 E24.67929
G1 X119.093 Y77.028 E24.8037
G1 X121.033 Y78.729 E24.93242
G1 X122.965 Y80.329 E25.05757
G1 X124.98 Y81.904 E25.18517
G1 X127.039 Y83.422 E25.31279
G1 X128.308 Y84.314 E25.39018
G1 X129.319 Y85.012 E25.45147
G1 X130.094 Y85.603 E25.50009
G1 X130.353 Y85.821 E25.51698
G1 X131.242 Y86.665 E25.57814
G1 X131.466 Y86.905 E25.59452
G1 X132.215 Y87.807 E25.65301
G1 X132.373 Y88.021 E25.66628
G1 X132.985 Y88.952 E25.72187
G1 X133.117 Y89.179 E25.73497
G1 X133.574 Y90.063 E25.78462
G1 X133.687 Y90.31 E25.79817
G1 X134.093 Y91.34 E25.8534
G1 X134.17 Y91.572 E25.8656
G1 X134.443 Y92.558 E25.91664
G1 X134.511 Y92.862 E25.93218
G1 X134.696 Y93.971 E25.98827
G1 X134.725 Y94.234 E26.00147
G1 X134.786 Y95.352 E26.05733
G1 X134.786 Y95.636 E26.0715
G1 X134.735 Y96.659 E26.1226
G1 X134.709 Y96.917 E26.13554
G1 X134.57 Y97.853 E26.18275
G1 X134.525 Y98.083 E26.19444
G1 X134.256 Y99.148 E26.24924
G1 X134.17 Y99.425 E26.26372
G1 X133.817 Y100.39 E26.31498
G1 X133.718 Y100.623 E26.32761
G1 X133.355 Y101.387 E26.36981
G1 X133.276 Y101.537 E26.37827
G1 X132.782 Y102.376 E26.42684
G1 X132.626 Y102.614 E26.44104
G1 X132.255 Y103.142 E26.47323
G1 X132.192 Y103.226 E26.47847
G1 X131.39 Y104.17 E26.54027
G1 X131.005 Y104.571 E26.568
G1 X130.654 Y104.92 E26.5927
G1 X128.828 Y106.646 E26.71805
G1 X127.041 Y108.434 E26.84417
G1 X125.308 Y110.268 E26.97006
G1 X123.614 Y112.166 E27.09698
