;FLAVOR:Marlin
;TIME:971
;Filament used: 0.930282m
;Layer height: 0.15
;MINX:78.592
;MINY:80.4
;MINZ:0.3
;MAXX:124.1
;MAXY:119.6
;MAXZ:8.55
;Generated with Cura_SteamEngine 4.12.1
M140 S90
M105
M190 S90
M104 S235
M105
M109 S235
M82 ;absolute extrusion mode
G21 ;metric values
G90 ;absolute positioning
M82 ;set extruder to absolute mode
M107 ;start with the fan off
G28 X0 Y0 ;move X/Y to min endstops
G28 Z0 ;move Z to min endstops
G1 Z15.0 F9000 ;move the platform down 15mm
G92 E0 ;zero the extruded length
G1 F200 E6 ;extrude 6 mm of feed stock
G92 E0 ;zero the extruded length again
G1 F9000
;Put printing message on LCD screen
M117 Printing...
G92 E0
G92 E0
G1 F3000 E-5
;LAYER_COUNT:56
;LAYER:0
M107
G0 F3600 X86.409 Y81.896 Z0.3
;TYPE:SKIRT
G1 F3000 E0
G1 F1800 X86.564 Y81.748 E0.01069
G1 X86.985 Y81.403 E0.03785
G1 X87.192 Y81.258 E0.05046
G1 X87.82 Y80.906 E0.08637
G1 X88.303 Y80.713 E0.11232
G1 X88.821 Y80.559 E0.13928
G1 X89.387 Y80.454 E0.168
G1 X89.944 Y80.408 E0.19589
G1 X90.576 Y80.4 E0.22742
G1 X118.415 Y80.4 E1.61631
G1 X118.99 Y80.407 E1.645
G1 X119.511 Y80.443 E1.67106
G1 X120.202 Y80.563 E1.70605
G1 X120.761 Y80.734 E1.73521
G1 X120.98 Y80.821 E1.74697
G1 X121.468 Y81.059 E1.77406
G1 X121.675 Y81.18 E1.78602
G1 X122.148 Y81.511 E1.81482
G1 X122.359 Y81.685 E1.82846
G1 X122.742 Y82.05 E1.85486
G1 X123.086 Y82.471 E1.88198
G1 X123.236 Y82.684 E1.89498
G1 X123.588 Y83.306 E1.93064
G1 X123.789 Y83.808 E1.95762
G1 X123.941 Y84.318 E1.98417
G1 X124.046 Y84.886 E2.01298
G1 X124.092 Y85.441 E2.04077
G1 X124.1 Y86.042 E2.07075
G1 X124.1 Y113.916 E3.46139
G1 X124.093 Y114.481 E3.48958
G1 X124.059 Y114.999 E3.51548
G1 X123.938 Y115.697 E3.55082
G1 X123.768 Y116.256 E3.57997
G1 X123.68 Y116.478 E3.59189
G1 X123.441 Y116.968 E3.61909
G1 X123.32 Y117.175 E3.63105
G1 X122.989 Y117.648 E3.65985
G1 X122.815 Y117.859 E3.6735
G1 X122.453 Y118.239 E3.69968
G1 X122.021 Y118.592 E3.72751
G1 X121.81 Y118.74 E3.74037
G1 X121.18 Y119.094 E3.77642
G1 X120.697 Y119.287 E3.80237
G1 X120.179 Y119.441 E3.82934
G1 X119.613 Y119.546 E3.85805
G1 X119.056 Y119.592 E3.88594
G1 X118.424 Y119.6 E3.91747
G1 X90.585 Y119.6 E5.30636
G1 X90.011 Y119.593 E5.335
G1 X89.49 Y119.558 E5.36106
G1 X88.798 Y119.437 E5.3961
G1 X88.236 Y119.265 E5.42542
G1 X88.015 Y119.177 E5.43729
G1 X87.528 Y118.939 E5.46434
G1 X87.323 Y118.819 E5.47619
G1 X86.814 Y118.458 E5.50732
G1 X86.299 Y117.998 E5.54177
G1 X86.161 Y117.855 E5.55168
G1 X84.199 Y115.891 E5.69018
G1 X82.217 Y114.017 E5.82627
G1 X81.009 Y112.937 E5.90711
G1 X80.956 Y112.882 E5.91092
G1 X79.958 Y111.995 E5.97753
G1 X79.585 Y111.61 E6.00428
G1 X79.268 Y111.176 E6.03109
G1 X78.997 Y110.714 E6.05781
G1 X78.797 Y110.216 E6.08459
G1 X78.669 Y109.661 E6.113
G1 X78.6 Y108.978 E6.14725
G1 X78.594 Y108.432 E6.17449
G1 X78.592 Y105.63 E6.31429
G1 X78.615 Y103.987 E6.39626
G1 X78.606 Y100.732 E6.55866
G1 X78.592 Y100.014 E6.59448
G1 X78.593 Y99.621 E6.61409
G1 X78.608 Y98.544 E6.66783
G1 X78.608 Y95.804 E6.80453
G1 X78.605 Y95.672 E6.81111
G1 X78.594 Y94.565 E6.86635
G1 X78.593 Y93.37 E6.92596
G1 X78.602 Y92.645 E6.96214
G1 X78.649 Y92.111 E6.98888
G1 X78.827 Y91.437 E7.02366
G1 X78.902 Y91.235 E7.03441
G1 X79.126 Y90.747 E7.0612
G1 X79.415 Y90.304 E7.08759
G1 X80.003 Y89.626 E7.13236
G1 X81.812 Y87.583 E7.2685
G1 X83.555 Y85.498 E7.40408
G1 X86.055 Y82.288 E7.60707
G1 X86.409 Y81.896 E7.63342
G0 F3600 X86.84 Y82.038
G1 F1800 X87.421 Y81.586 E7.67015
G1 X87.98 Y81.273 E7.70211
G1 X88.446 Y81.087 E7.72714
G1 X89.117 Y80.903 E7.76185
G1 X89.624 Y80.829 E7.78742
G1 X89.949 Y80.808 E7.80366
G1 X90.581 Y80.8 E7.8352
G1 X118.41 Y80.8 E9.22359
G1 X118.985 Y80.807 E9.25228
G1 X119.883 Y80.903 E9.29734
G1 X120.116 Y80.954 E9.30924
G1 X120.613 Y81.106 E9.33517
G1 X121.266 Y81.404 E9.37098
G1 X121.473 Y81.525 E9.38294
G1 X121.894 Y81.819 E9.40856
G1 X122.445 Y82.318 E9.44564
G1 X122.909 Y82.915 E9.48337
G1 X123.221 Y83.467 E9.515
G1 X123.415 Y83.95 E9.54097
G1 X123.596 Y84.613 E9.57526
G1 X123.671 Y85.123 E9.60097
G1 X123.692 Y85.446 E9.61712
G1 X123.7 Y86.047 E9.64711
G1 X123.7 Y113.911 E11.03725
G1 X123.693 Y114.476 E11.06544
G1 X123.597 Y115.383 E11.11094
G1 X123.547 Y115.612 E11.12264
G1 X123.396 Y116.108 E11.1485
G1 X123.096 Y116.766 E11.18458
G1 X122.975 Y116.973 E11.19655
G1 X122.681 Y117.394 E11.22216
G1 X122.185 Y117.942 E11.25904
G1 X121.792 Y118.265 E11.28442
G1 X121.581 Y118.413 E11.29728
G1 X121.02 Y118.727 E11.32935
G1 X120.554 Y118.913 E11.35438
G1 X119.883 Y119.097 E11.3891
G1 X119.376 Y119.171 E11.41466
G1 X119.051 Y119.192 E11.43091
G1 X118.419 Y119.2 E11.46244
G1 X90.59 Y119.2 E12.85083
G1 X90.016 Y119.193 E12.87947
G1 X89.117 Y119.097 E12.92458
G1 X88.884 Y119.046 E12.93648
G1 X88.384 Y118.893 E12.96257
G1 X87.73 Y118.594 E12.99844
G1 X87.525 Y118.474 E13.01029
G1 X87.073 Y118.153 E13.03795
G1 X86.586 Y117.72 E13.07046
G1 X86.444 Y117.573 E13.08066
G1 X84.456 Y115.583 E13.22099
G1 X82.521 Y113.753 E13.35387
G1 X81.275 Y112.639 E13.43725
G1 X81.22 Y112.581 E13.44124
G1 X80.224 Y111.696 E13.50771
G1 X79.874 Y111.331 E13.53294
G1 X79.597 Y110.949 E13.55648
G1 X79.343 Y110.512 E13.5817
G1 X79.161 Y110.04 E13.60694
G1 X79.035 Y109.408 E13.63909
G1 X79 Y108.973 E13.66086
G1 X78.994 Y108.431 E13.6879
G1 X78.992 Y105.635 E13.8274
G1 X79.015 Y103.992 E13.90937
G1 X79.006 Y100.731 E14.07207
G1 X78.992 Y100.015 E14.1078
G1 X78.993 Y99.626 E14.1272
G1 X79.008 Y98.549 E14.18094
G1 X79.008 Y95.795 E14.31834
G1 X79.005 Y95.668 E14.32468
G1 X78.994 Y94.565 E14.37971
G1 X78.993 Y93.375 E14.43908
G1 X79.002 Y92.65 E14.47525
G1 X79.048 Y92.147 E14.50045
G1 X79.202 Y91.576 E14.52995
G1 X79.277 Y91.374 E14.5407
G1 X79.49 Y90.916 E14.5659
G1 X79.791 Y90.471 E14.59271
G1 X80.269 Y89.929 E14.62876
G1 X82.143 Y87.812 E14.76982
G1 X83.854 Y85.765 E14.90292
G1 X86.37 Y82.534 E15.10722
G1 X86.84 Y82.038 E15.14131
G1 F3000 E10.14131
;MESH:sky04x_rx_bracket.stl
G0 F3600 X87.883 Y85.046
G0 X89.119 Y85.531
G0 X89.17 Y92.87
G1 F3000 E15.14131
G0 F3600 X89.1 Y92.8
;TYPE:WALL-INNER
G1 F1800 X89.1 Y85.53 E15.50401
G1 X89.146 Y85.229 E15.51921
G1 X89.28 Y84.968 E15.53384
G1 X89.47 Y84.778 E15.54725
G1 X89.719 Y84.65 E15.56122
G1 X90.035 Y84.6 E15.57718
G1 X118.968 Y84.6 E17.02065
G1 X119.272 Y84.647 E17.036
G1 X119.533 Y84.781 E17.05063
G1 X119.722 Y84.97 E17.06397
G1 X119.85 Y85.219 E17.07794
G1 X119.9 Y85.532 E17.09375
G1 X119.9 Y114.47 E18.53747
G1 X119.854 Y114.771 E18.55267
G1 X119.72 Y115.032 E18.5673
G1 X119.53 Y115.222 E18.58071
G1 X119.281 Y115.35 E18.59468
G1 X118.965 Y115.4 E18.61064
G1 X90.032 Y115.4 E20.05411
G1 X89.728 Y115.353 E20.06946
G1 X89.467 Y115.219 E20.08409
G1 X89.278 Y115.03 E20.09743
G1 X89.147 Y114.776 E20.11169
G1 X89.1 Y114.385 E20.13134
G1 X89.1 Y108.9 E20.40498
G1 X82.918 Y108.899 E20.7134
G1 X82.794 Y108.873 E20.71973
G1 X82.793 Y105.132 E20.90636
G1 X82.935 Y105.1 E20.91363
G1 X89.1 Y105.1 E21.2212
G1 X89.1 Y100.9 E21.43074
G1 X82.921 Y100.899 E21.73901
G1 X82.792 Y100.871 E21.7456
G1 X82.793 Y99.124 E21.83275
G1 X82.944 Y99.1 E21.84038
G1 X89.1 Y99.1 E22.14751
G1 X89.1 Y94.9 E22.35704
G1 X82.921 Y94.899 E22.66532
G1 X82.794 Y94.871 E22.6718
G1 X82.793 Y92.831 E22.77358
G1 X82.935 Y92.8 E22.78083
G1 X89.1 Y92.8 E23.0884
G0 F3600 X89.17 Y92.87
G0 X90.26 Y110.798
G0 X90.661 Y112.03
G0 X91.422 Y113.078
G0 X92.364 Y113.774
G0 X93.693 Y114.299
G0 X93.708 Y114.201
G1 F1800 X94.331 Y114.25 E23.11958
G1 X114.669 Y114.25 E24.13425
G1 X115.292 Y114.201 E24.16543
G1 X115.918 Y114.051 E24.19754
G1 X116.512 Y113.804 E24.22964
G1 X117.06 Y113.468 E24.26171
G1 X117.55 Y113.05 E24.29384
G1 X117.968 Y112.56 E24.32597
G1 X118.304 Y112.012 E24.35804
G1 X118.551 Y111.418 E24.39014
G1 X118.701 Y110.792 E24.42225
G1 X118.75 Y110.169 E24.45343
G1 X118.75 Y89.831 E25.4681
G1 X118.701 Y89.208 E25.49927
G1 X118.551 Y88.582 E25.53139
G1 X118.304 Y87.988 E25.56348
G1 X117.968 Y87.44 E25.59555
G1 X117.55 Y86.95 E25.62769
G1 X117.06 Y86.532 E25.65982
G1 X116.512 Y86.196 E25.69189
G1 X115.918 Y85.949 E25.72398
G1 X115.292 Y85.799 E25.7561
G1 X114.669 Y85.75 E25.78728
G1 X94.331 Y85.75 E26.80194
G1 X93.708 Y85.799 E26.83312
G1 X93.082 Y85.949 E26.86524
G1 X92.488 Y86.196 E26.89733
G1 X91.94 Y86.532 E26.9294
G1 X91.45 Y86.95 E26.96153
G1 X91.032 Y87.44 E26.99367
G1 X90.696 Y87.988 E27.02574
G1 X90.449 Y88.582 E27.05783
G1 X90.299 Y89.208 E27.08995
G1 X90.25 Y89.831 E27.12112
G1 X90.25 Y110.169 E28.13579
G1 X90.299 Y110.792 E28.16697
G1 X90.449 Y111.418 E28.19908
G1 X90.696 Y112.012 E28.23118
G1 X91.032 Y112.56 E28.26325
G1 X91.45 Y113.05 E28.29538
G1 X91.94 Y113.468 E28.32751
G1 X92.488 Y113.804 E28.35958
G1 X93.082 Y114.051 E28.39168
G1 X93.708 Y114.201 E28.42379
G0 F3600 X93.771 Y113.805
;TYPE:WALL-OUTER
G1 F1800 X94.347 Y113.85 E28.45262
G1 X114.653 Y113.85 E29.46569
G1 X115.229 Y113.805 E29.49451
G1 X115.794 Y113.669 E29.52351
G1 X116.33 Y113.447 E29.55245
G1 X116.824 Y113.144 E29.58136
G1 X117.266 Y112.766 E29.61038
G1 X117.644 Y112.324 E29.63939
G1 X117.947 Y111.83 E29.66831
G1 X118.169 Y111.294 E29.69725
G1 X118.305 Y110.729 E29.72624
G1 X118.35 Y110.153 E29.75507
G1 X118.35 Y89.847 E30.76814
G1 X118.305 Y89.271 E30.79696
G1 X118.169 Y88.706 E30.82596
G1 X117.947 Y88.17 E30.8549
G1 X117.644 Y87.676 E30.88381
G1 X117.266 Y87.234 E30.91283
G1 X116.824 Y86.856 E30.94184
G1 X116.33 Y86.553 E30.97076
G1 X115.794 Y86.331 E30.9997
G1 X115.229 Y86.195 E31.02869
G1 X114.653 Y86.15 E31.05752
G1 X94.347 Y86.15 E32.07059
G1 X93.771 Y86.195 E32.09941
G1 X93.206 Y86.331 E32.12841
G1 X92.67 Y86.553 E32.15735
G1 X92.176 Y86.856 E32.18626
G1 X91.734 Y87.234 E32.21528
G1 X91.356 Y87.676 E32.24429
G1 X91.053 Y88.17 E32.27321
G1 X90.831 Y88.706 E32.30215
G1 X90.695 Y89.271 E32.33114
G1 X90.65 Y89.847 E32.35997
G1 X90.65 Y110.153 E33.37304
G1 X90.695 Y110.729 E33.40186
G1 X90.831 Y111.294 E33.43085
G1 X91.053 Y111.83 E33.4598
G1 X91.356 Y112.324 E33.48871
G1 X91.734 Y112.766 E33.51773
G1 X92.176 Y113.144 E33.54674
G1 X92.67 Y113.447 E33.57566
G1 X93.206 Y113.669 E33.6046
G1 X93.771 Y113.805 E33.63359
G0 F3600 X93.97 Y113.82
G0 X93.931 Y114.318
G0 X93.07 Y114.089
G0 X91.917 Y113.5
G0 X91 Y112.583
G0 X90.411 Y111.43
G0 X89.2 Y92.4
G0 X88.7 Y92.4
G1 F1800 X88.7 Y85.503 E33.97768
G1 X88.761 Y85.104 E33.99782
G1 X88.953 Y84.729 E34.01884
G1 X89.231 Y84.451 E34.03846
G1 X89.594 Y84.265 E34.0588
G1 X90.005 Y84.2 E34.07956
G1 X118.997 Y84.2 E35.52598
G1 X119.399 Y84.262 E35.54627
G1 X119.771 Y84.453 E35.56714
G1 X120.049 Y84.731 E35.58675
G1 X120.235 Y85.094 E35.6071
G1 X120.3 Y85.5 E35.62761
G1 X120.3 Y114.497 E37.07428
G1 X120.239 Y114.896 E37.09442
G1 X120.047 Y115.271 E37.11544
G1 X119.769 Y115.549 E37.13505
G1 X119.406 Y115.735 E37.1554
G1 X118.995 Y115.8 E37.17616
G1 X90.003 Y115.8 E38.62258
G1 X89.601 Y115.738 E38.64287
G1 X89.229 Y115.547 E38.66373
G1 X88.951 Y115.269 E38.68335
G1 X88.765 Y114.906 E38.70369
G1 X88.702 Y114.575 E38.7205
G1 X88.7 Y114.385 E38.72998
G1 X88.7 Y109.3 E38.98368
G1 X82.877 Y109.299 E39.27419
G1 X82.608 Y109.242 E39.28791
G1 X82.425 Y109.099 E39.29949
G1 X82.394 Y109.014 E39.30401
G1 X82.393 Y104.985 E39.50501
G1 X82.478 Y104.839 E39.51344
G1 X82.728 Y104.719 E39.52728
G1 X82.914 Y104.7 E39.5366
G1 X88.7 Y104.7 E39.82527
G1 X88.7 Y101.3 E39.9949
G1 X82.876 Y101.299 E40.28546
G1 X82.602 Y101.239 E40.29945
G1 X82.423 Y101.095 E40.31091
G1 X82.392 Y100.994 E40.31618
G1 X82.393 Y98.991 E40.41611
G1 X82.468 Y98.85 E40.42408
G1 X82.652 Y98.741 E40.43475
G1 X82.914 Y98.7 E40.44798
G1 X88.7 Y98.7 E40.73665
G1 X88.7 Y95.3 E40.90627
G1 X82.876 Y95.299 E41.19683
G1 X82.602 Y95.239 E41.21083
G1 X82.416 Y95.087 E41.22281
G1 X82.394 Y95.015 E41.22657
G1 X82.393 Y92.685 E41.34281
G1 X82.479 Y92.538 E41.35131
G1 X82.728 Y92.419 E41.36508
G1 X82.914 Y92.4 E41.3744
G1 X88.7 Y92.4 E41.66307
G0 F3600 X88.7 Y92.2
G0 X89.2 Y92.2
G0 X89.49 Y93.19
;TYPE:SKIN
G1 F1800 X89.49 Y85.563 E42.04358
G1 X89.522 Y85.349 E42.05438
G1 X89.7 Y85.098 E42.06973
G1 X89.839 Y85.026 E42.07754
G1 X90.07 Y84.99 E42.0892
G1 X118.934 Y84.99 E43.52923
G1 X119.152 Y85.023 E43.54023
G1 X119.402 Y85.2 E43.55551
G1 X119.475 Y85.342 E43.56348
G1 X119.51 Y85.563 E43.57464
G1 X119.51 Y114.435 E45.01507
G1 X119.478 Y114.651 E45.02597
G1 X119.3 Y114.902 E45.04132
G1 X119.161 Y114.974 E45.04913
G1 X118.93 Y115.01 E45.06079
G1 X90.066 Y115.01 E46.50082
G1 X89.848 Y114.977 E46.51182
G1 X89.599 Y114.801 E46.52704
G1 X89.527 Y114.66 E46.53493
G1 X89.49 Y114.354 E46.55031
G1 X89.49 Y108.51 E46.84187
G1 X83.184 Y108.509 E47.15648
G1 X83.183 Y105.49 E47.3071
G1 X89.49 Y105.49 E47.62175
G1 X89.49 Y100.51 E47.87021
G1 X83.182 Y100.509 E48.18491
G1 X83.183 Y99.49 E48.23575
G1 X89.49 Y99.49 E48.55041
G1 X89.49 Y94.51 E48.79886
G1 X83.184 Y94.509 E49.11347
G1 X83.183 Y93.19 E49.17928
G1 X89.49 Y93.19 E49.49393
G0 F3600 X89.86 Y89.816
G1 F1800 X89.86 Y110.184 E50.5101
G1 X89.913 Y110.853 E50.54358
G1 X90.077 Y111.539 E50.57877
G1 X90.347 Y112.19 E50.61393
G1 X90.716 Y112.79 E50.64907
G1 X91.173 Y113.327 E50.68425
G1 X91.71 Y113.784 E50.71943
G1 X92.31 Y114.153 E50.75457
G1 X92.961 Y114.423 E50.78973
G1 X93.647 Y114.587 E50.82492
G1 X94.316 Y114.64 E50.8584
G1 X114.684 Y114.64 E51.87457
G1 X115.353 Y114.587 E51.90805
G1 X116.039 Y114.423 E51.94324
G1 X116.69 Y114.153 E51.9784
G1 X117.29 Y113.784 E52.01354
G1 X117.827 Y113.327 E52.04872
G1 X118.284 Y112.79 E52.0839
G1 X118.653 Y112.19 E52.11904
G1 X118.923 Y111.539 E52.1542
G1 X119.087 Y110.853 E52.18939
G1 X119.14 Y110.184 E52.22287
G1 X119.14 Y89.816 E53.23904
G1 X119.087 Y89.147 E53.27252
G1 X118.923 Y88.461 E53.30771
G1 X118.653 Y87.81 E53.34287
G1 X118.284 Y87.21 E53.37801
G1 X117.827 Y86.673 E53.41319
G1 X117.29 Y86.216 E53.44837
G1 X116.69 Y85.847 E53.48351
G1 X116.039 Y85.577 E53.51867
G1 X115.353 Y85.413 E53.55386
G1 X114.684 Y85.36 E53.58734
G1 X94.316 Y85.36 E54.60351
G1 X93.647 Y85.413 E54.63699
G1 X92.961 Y85.577 E54.67218
G1 X92.31 Y85.847 E54.70734
G1 X91.71 Y86.216 E54.74248
G1 X91.173 Y86.673 E54.77766
G1 X90.716 Y87.21 E54.81284
G1 X90.347 Y87.81 E54.84798
G1 X90.077 Y88.461 E54.88314
G1 X89.913 Y89.147 E54.91833
G1 X89.86 Y89.816 E54.95181
G0 F3600 X89.128 Y105.128
G0 X83.437 Y108.328
G1 F1800 X83.363 Y108.253 E54.95707
G0 F3600 X83.363 Y107.688
G1 F1800 X84.003 Y108.328 E55.00222
G0 F3600 X84.569 Y108.328
G1 F1800 X83.363 Y107.122 E55.08731
G0 F3600 X83.362 Y106.556
G1 F1800 X85.134 Y108.328 E55.21234
G0 F3600 X85.7 Y108.328
G1 F1800 X83.362 Y105.99 E55.3773
G0 F3600 X83.607 Y105.669
G1 F1800 X86.266 Y108.328 E55.5649
G0 F3600 X86.832 Y108.328
G1 F1800 X84.173 Y105.669 E55.75251
G0 F3600 X84.738 Y105.669
G1 F1800 X87.398 Y108.328 E55.94015
G0 F3600 X87.964 Y108.328
G1 F1800 X85.304 Y105.669 E56.12779
G0 F3600 X85.87 Y105.669
G1 F1800 X88.529 Y108.328 E56.3154
G0 F3600 X89.095 Y108.328
G1 F1800 X86.436 Y105.669 E56.50301
G0 F3600 X87.001 Y105.669
G1 F1800 X89.661 Y108.328 E56.69065
G0 F3600 X89.68 Y107.782
G1 F1800 X87.567 Y105.669 E56.83973
G0 F3600 X88.133 Y105.669
G1 F1800 X89.68 Y107.216 E56.94888
G0 F3600 X89.68 Y106.65
G1 F1800 X88.698 Y105.669 E57.01813
G0 F3600 X89.264 Y105.669
G1 F1800 X89.68 Y106.085 E57.04748
G0 F3600 X89.669 Y111.165
G1 F1800 X89.844 Y111.34 E57.05983
G0 F3600 X89.669 Y111.731
G1 F1800 X90.168 Y112.229 E57.095
G0 F3600 X89.669 Y112.297
G1 F1800 X92.201 Y114.829 E57.27365
G0 F3600 X92.268 Y114.33
G1 F1800 X92.767 Y114.829 E57.30886
G0 F3600 X93.159 Y114.655
G1 F1800 X93.333 Y114.829 E57.32113
G0 F3600 X91.636 Y114.829
G1 F1800 X89.669 Y112.862 E57.45991
G0 F3600 X89.669 Y113.428
G1 F1800 X91.07 Y114.829 E57.55876
G0 F3600 X90.504 Y114.829
G1 F1800 X89.669 Y113.994 E57.61768
G0 F3600 X89.7 Y114.59
G1 F1800 X89.91 Y114.8 E57.63249
G0 F3600 X89.58 Y100.328
G1 F1800 X88.92 Y99.668 E57.67906
G0 F3600 X88.355 Y99.668
G1 F1800 X89.014 Y100.328 E57.72559
G0 F3600 X88.449 Y100.328
G1 F1800 X87.789 Y99.668 E57.77216
G0 F3600 X87.223 Y99.668
G1 F1800 X87.883 Y100.328 E57.81872
G0 F3600 X87.317 Y100.328
G1 F1800 X86.658 Y99.668 E57.86525
G0 F3600 X86.092 Y99.668
G1 F1800 X86.752 Y100.328 E57.91182
G0 F3600 X86.186 Y100.328
G1 F1800 X85.526 Y99.668 E57.95839
G0 F3600 X84.961 Y99.668
