;FLAVOR:Marlin
;TIME:964
;Filament used: 0.923712m
;Layer height: 0.15
;MINX:78.592
;MINY:80.4
;MINZ:0.3
;MAXX:124.1
;MAXY:119.6
;MAXZ:8.55
;Generated with Cura_SteamEngine 4.12.1
M140 S90
M105
M190 S90
M104 S235
M105
M109 S235
M82 ;absolute extrusion mode
G21 ;metric values
G90 ;absolute positioning
M82 ;set extruder to absolute mode
M107 ;start with the fan off
G28 X0 Y0 ;move X/Y to min endstops
G28 Z0 ;move Z to min endstops
G1 Z15.0 F9000 ;move the platform down 15mm
G92 E0 ;zero the extruded length
G1 F200 E6 ;extrude 6 mm of feed stock
G92 E0 ;zero the extruded length again
G1 F9000
;Put printing message on LCD screen
M117 Printing...
G92 E0
G92 E0
G1 F3000 E-5
;LAYER_COUNT:56
;LAYER:0
M107
G0 F3600 X86.49 Y81.816 Z0.3
;TYPE:SKIRT
G1 F3000 E0
G1 F1800 X86.985 Y81.403 E0.03216
G1 X87.192 Y81.258 E0.04477
G1 X87.82 Y80.906 E0.08069
G1 X88.303 Y80.713 E0.10664
G1 X88.821 Y80.559 E0.1336
G1 X89.387 Y80.454 E0.16232
G1 X89.944 Y80.408 E0.1902
G1 X90.576 Y80.4 E0.22174
G1 X118.415 Y80.4 E1.61063
G1 X118.99 Y80.407 E1.63932
G1 X119.511 Y80.443 E1.66537
G1 X120.202 Y80.563 E1.70036
G1 X120.761 Y80.734 E1.72953
G1 X120.98 Y80.821 E1.74128
G1 X121.468 Y81.059 E1.76837
G1 X121.675 Y81.18 E1.78033
G1 X122.148 Y81.511 E1.80914
G1 X122.359 Y81.685 E1.82278
G1 X122.742 Y82.05 E1.84918
G1 X123.086 Y82.471 E1.8763
G1 X123.236 Y82.684 E1.8893
G1 X123.588 Y83.306 E1.92495
G1 X123.789 Y83.808 E1.95193
G1 X123.941 Y84.318 E1.97848
G1 X124.046 Y84.886 E2.0073
G1 X124.092 Y85.441 E2.03508
G1 X124.1 Y86.042 E2.06507
G1 X124.1 Y113.916 E3.45571
G1 X124.093 Y114.481 E3.4839
G1 X124.059 Y114.999 E3.5098
G1 X123.938 Y115.697 E3.54514
G1 X123.768 Y116.256 E3.57429
G1 X123.68 Y116.478 E3.5862
G1 X123.441 Y116.968 E3.6134
G1 X123.32 Y117.175 E3.62537
G1 X122.989 Y117.648 E3.65417
G1 X122.815 Y117.859 E3.66781
G1 X122.453 Y118.239 E3.694
G1 X122.021 Y118.592 E3.72183
G1 X121.81 Y118.74 E3.73469
G1 X121.18 Y119.094 E3.77074
G1 X120.697 Y119.287 E3.79669
G1 X120.179 Y119.441 E3.82365
G1 X119.613 Y119.546 E3.85237
G1 X119.056 Y119.592 E3.88025
G1 X118.424 Y119.6 E3.91179
G1 X90.585 Y119.6 E5.30068
G1 X90.011 Y119.593 E5.32932
G1 X89.49 Y119.558 E5.35537
G1 X88.798 Y119.437 E5.39042
G1 X88.236 Y119.265 E5.41974
G1 X88.015 Y119.177 E5.43161
G1 X87.528 Y118.939 E5.45865
G1 X86.964 Y118.578 E5.49206
G1 X86.481 Y118.178 E5.52335
G1 X86.22 Y117.923 E5.54155
G1 X84.463 Y116.165 E5.66555
G1 X82.482 Y114.292 E5.80157
G1 X80.886 Y112.858 E5.90861
G1 X79.977 Y112.059 E5.96899
G1 X79.601 Y111.676 E5.99577
G1 X79.247 Y111.187 E6.02588
G1 X78.983 Y110.72 E6.05265
G1 X78.765 Y110.125 E6.08426
G1 X78.728 Y109.988 E6.09134
G1 X78.627 Y109.461 E6.11811
G1 X78.596 Y108.858 E6.14824
G1 X78.594 Y108.751 E6.15358
G1 X78.593 Y105.663 E6.30764
G1 X78.616 Y104.024 E6.38941
G1 X78.608 Y100.762 E6.55216
G1 X78.593 Y99.947 E6.59282
G1 X78.593 Y99.689 E6.6057
G1 X78.616 Y98.064 E6.68678
G1 X78.607 Y94.763 E6.85146
G1 X78.592 Y93.956 E6.89173
G1 X78.593 Y93.244 E6.92725
G1 X78.602 Y92.574 E6.96068
G1 X78.649 Y92.039 E6.98748
G1 X78.775 Y91.518 E7.01422
G1 X79.056 Y90.853 E7.05024
G1 X79.319 Y90.385 E7.07702
G1 X79.627 Y89.987 E7.10213
G1 X80.12 Y89.433 E7.13913
G1 X81.058 Y88.406 E7.20852
G1 X82.819 Y86.363 E7.34308
G1 X84.552 Y84.234 E7.48004
G1 X86.016 Y82.332 E7.59978
G1 X86.49 Y81.816 E7.63474
G0 F3600 X86.772 Y82.1
G1 F1800 X87.214 Y81.731 E7.66347
G1 X87.421 Y81.586 E7.67608
G1 X87.98 Y81.273 E7.70804
G1 X88.446 Y81.087 E7.73307
G1 X89.117 Y80.903 E7.76778
G1 X89.624 Y80.829 E7.79335
G1 X89.949 Y80.808 E7.80959
G1 X90.581 Y80.8 E7.84113
G1 X118.41 Y80.8 E9.22952
G1 X118.985 Y80.807 E9.25821
G1 X119.883 Y80.903 E9.30327
G1 X120.116 Y80.954 E9.31517
G1 X120.613 Y81.106 E9.3411
G1 X121.266 Y81.404 E9.37691
G1 X121.473 Y81.525 E9.38887
G1 X121.894 Y81.819 E9.41449
G1 X122.445 Y82.318 E9.45157
G1 X122.909 Y82.915 E9.4893
G1 X123.221 Y83.467 E9.52093
G1 X123.415 Y83.95 E9.5469
G1 X123.596 Y84.613 E9.58119
G1 X123.671 Y85.123 E9.6069
G1 X123.692 Y85.446 E9.62305
G1 X123.7 Y86.047 E9.65304
G1 X123.7 Y113.911 E11.04318
G1 X123.693 Y114.476 E11.07137
G1 X123.597 Y115.383 E11.11687
G1 X123.547 Y115.612 E11.12857
G1 X123.396 Y116.108 E11.15443
G1 X123.096 Y116.766 E11.19051
G1 X122.975 Y116.973 E11.20247
G1 X122.681 Y117.394 E11.22809
G1 X122.185 Y117.942 E11.26497
G1 X121.792 Y118.265 E11.29035
G1 X121.581 Y118.413 E11.30321
G1 X121.02 Y118.727 E11.33528
G1 X120.554 Y118.913 E11.36031
G1 X119.883 Y119.097 E11.39502
G1 X119.376 Y119.171 E11.42059
G1 X119.051 Y119.192 E11.43684
G1 X118.419 Y119.2 E11.46837
G1 X90.59 Y119.2 E12.85676
G1 X90.016 Y119.193 E12.8854
G1 X89.117 Y119.097 E12.93051
G1 X88.884 Y119.046 E12.94241
G1 X88.384 Y118.893 E12.96849
G1 X87.73 Y118.594 E13.00437
G1 X87.206 Y118.26 E13.03537
G1 X86.76 Y117.891 E13.06425
G1 X86.503 Y117.64 E13.08217
G1 X84.755 Y115.891 E13.20554
G1 X82.741 Y113.987 E13.34381
G1 X81.153 Y112.56 E13.45033
G1 X80.241 Y111.759 E13.51088
G1 X79.889 Y111.396 E13.53611
G1 X79.58 Y110.965 E13.56257
G1 X79.333 Y110.524 E13.58779
G1 X79.151 Y110.02 E13.61452
G1 X79.114 Y109.883 E13.6216
G1 X79.004 Y109.145 E13.65883
G1 X78.994 Y108.751 E13.67849
G1 X78.993 Y105.669 E13.83225
G1 X79.016 Y104.03 E13.91403
G1 X79.008 Y100.761 E14.07712
G1 X78.993 Y99.947 E14.11774
G1 X78.993 Y99.695 E14.13031
G1 X79.016 Y98.07 E14.21139
G1 X79.007 Y94.762 E14.37643
G1 X78.992 Y93.956 E14.41665
G1 X78.993 Y93.249 E14.45192
G1 X79.002 Y92.579 E14.48535
G1 X79.049 Y92.076 E14.51055
G1 X79.174 Y91.586 E14.53578
G1 X79.418 Y91.023 E14.56639
G1 X79.668 Y90.583 E14.59164
G1 X79.925 Y90.253 E14.61251
G1 X80.416 Y89.703 E14.64929
G1 X81.34 Y88.691 E14.71766
G1 X83.131 Y86.614 E14.85449
G1 X84.863 Y84.486 E14.99137
G1 X86.333 Y82.576 E15.11162
G1 X86.772 Y82.1 E15.14392
G1 F3000 E10.14392
;MESH:sky04x_rx_bracket.stl
G0 F3600 X87.883 Y85.046
G0 X89.119 Y85.531
G0 X89.17 Y92.82
G1 F3000 E15.14392
G0 F3600 X89.1 Y92.75
;TYPE:WALL-INNER
G1 F1800 X89.1 Y85.53 E15.50413
G1 X89.146 Y85.229 E15.51932
G1 X89.28 Y84.968 E15.53396
G1 X89.47 Y84.778 E15.54736
G1 X89.719 Y84.65 E15.56133
G1 X90.035 Y84.6 E15.57729
G1 X118.968 Y84.6 E17.02077
G1 X119.272 Y84.647 E17.03611
G1 X119.533 Y84.781 E17.05075
G1 X119.722 Y84.97 E17.06409
G1 X119.85 Y85.219 E17.07805
G1 X119.9 Y85.532 E17.09387
G1 X119.9 Y114.47 E18.53759
G1 X119.854 Y114.771 E18.55278
G1 X119.72 Y115.032 E18.56742
G1 X119.53 Y115.222 E18.58082
G1 X119.281 Y115.35 E18.59479
G1 X118.965 Y115.4 E18.61075
G1 X90.032 Y115.4 E20.05423
G1 X89.728 Y115.353 E20.06957
G1 X89.467 Y115.219 E20.08421
G1 X89.278 Y115.03 E20.09755
G1 X89.147 Y114.776 E20.1118
G1 X89.1 Y114.386 E20.1314
G1 X89.1 Y108.95 E20.4026
G1 X82.916 Y108.949 E20.71113
G1 X82.793 Y108.923 E20.7174
G1 X82.793 Y105.174 E20.90444
G1 X82.944 Y105.15 E20.91206
G1 X89.1 Y105.15 E21.21919
G1 X89.1 Y100.85 E21.43372
G1 X82.917 Y100.849 E21.74219
G1 X82.792 Y100.822 E21.74857
G1 X82.793 Y99.174 E21.83079
G1 X82.944 Y99.15 E21.83841
G1 X89.1 Y99.15 E22.14554
G1 X89.1 Y94.85 E22.36007
G1 X82.917 Y94.849 E22.66854
G1 X82.792 Y94.822 E22.67492
G1 X82.793 Y92.777 E22.77694
G1 X82.938 Y92.75 E22.7843
G1 X89.1 Y92.75 E23.09173
G0 F3600 X89.17 Y92.82
G0 X90.21 Y110.848
G0 X90.611 Y112.08
G0 X91.372 Y113.128
G0 X92.314 Y113.824
G0 X93.643 Y114.349
G0 X93.658 Y114.251
G1 F1800 X94.281 Y114.3 E23.1229
G1 X114.719 Y114.3 E24.14256
G1 X115.342 Y114.251 E24.17374
G1 X115.968 Y114.101 E24.20585
G1 X116.562 Y113.854 E24.23795
G1 X117.11 Y113.518 E24.27002
G1 X117.6 Y113.1 E24.30215
G1 X118.018 Y112.61 E24.33428
G1 X118.354 Y112.062 E24.36635
G1 X118.601 Y111.468 E24.39845
G1 X118.751 Y110.842 E24.43056
G1 X118.8 Y110.219 E24.46174
G1 X118.8 Y89.781 E25.48139
G1 X118.751 Y89.158 E25.51257
G1 X118.601 Y88.532 E25.54469
G1 X118.354 Y87.938 E25.57678
G1 X118.018 Y87.39 E25.60885
G1 X117.6 Y86.9 E25.64098
G1 X117.11 Y86.482 E25.67312
G1 X116.562 Y86.146 E25.70519
G1 X115.968 Y85.899 E25.73728
G1 X115.342 Y85.749 E25.7694
G1 X114.719 Y85.7 E25.80058
G1 X94.281 Y85.7 E26.82023
G1 X93.658 Y85.749 E26.85141
G1 X93.032 Y85.899 E26.88352
G1 X92.438 Y86.146 E26.91562
G1 X91.89 Y86.482 E26.94769
G1 X91.4 Y86.9 E26.97982
G1 X90.982 Y87.39 E27.01195
G1 X90.646 Y87.938 E27.04402
G1 X90.399 Y88.532 E27.07612
G1 X90.249 Y89.158 E27.10823
G1 X90.2 Y89.781 E27.13941
G1 X90.2 Y110.219 E28.15907
G1 X90.249 Y110.842 E28.19024
G1 X90.399 Y111.468 E28.22236
G1 X90.646 Y112.062 E28.25445
G1 X90.982 Y112.61 E28.28652
G1 X91.4 Y113.1 E28.31866
G1 X91.89 Y113.518 E28.35079
G1 X92.438 Y113.854 E28.38286
G1 X93.032 Y114.101 E28.41495
G1 X93.658 Y114.251 E28.44707
G0 F3600 X93.721 Y113.855
;TYPE:WALL-OUTER
G1 F1800 X94.297 Y113.9 E28.47589
G1 X114.703 Y113.9 E29.49395
G1 X115.279 Y113.855 E29.52278
G1 X115.844 Y113.719 E29.55177
G1 X116.38 Y113.497 E29.58072
G1 X116.874 Y113.194 E29.60963
G1 X117.316 Y112.816 E29.63864
G1 X117.694 Y112.374 E29.66766
G1 X117.997 Y111.88 E29.69657
G1 X118.219 Y111.344 E29.72552
G1 X118.355 Y110.779 E29.75451
G1 X118.4 Y110.203 E29.78333
G1 X118.4 Y89.797 E30.80139
G1 X118.355 Y89.221 E30.83022
G1 X118.219 Y88.656 E30.85921
G1 X117.997 Y88.12 E30.88815
G1 X117.694 Y87.626 E30.91707
G1 X117.316 Y87.184 E30.94608
G1 X116.874 Y86.806 E30.9751
G1 X116.38 Y86.503 E31.00401
G1 X115.844 Y86.281 E31.03295
G1 X115.279 Y86.145 E31.06195
G1 X114.703 Y86.1 E31.09077
G1 X94.297 Y86.1 E32.10883
G1 X93.721 Y86.145 E32.13766
G1 X93.156 Y86.281 E32.16665
G1 X92.62 Y86.503 E32.19559
G1 X92.126 Y86.806 E32.2245
G1 X91.684 Y87.184 E32.25352
G1 X91.306 Y87.626 E32.28254
G1 X91.003 Y88.12 E32.31145
G1 X90.781 Y88.656 E32.34039
G1 X90.645 Y89.221 E32.36939
G1 X90.6 Y89.797 E32.39821
G1 X90.6 Y110.203 E33.41627
G1 X90.645 Y110.779 E33.44509
G1 X90.781 Y111.344 E33.47409
G1 X91.003 Y111.88 E33.50303
G1 X91.306 Y112.374 E33.53194
G1 X91.684 Y112.816 E33.56096
G1 X92.126 Y113.194 E33.58997
G1 X92.62 Y113.497 E33.61889
G1 X93.156 Y113.719 E33.64783
G1 X93.721 Y113.855 E33.67682
G0 F3600 X93.92 Y113.87
G0 X93.881 Y114.368
G0 X93.02 Y114.139
G0 X91.867 Y113.55
G0 X90.95 Y112.633
G0 X90.361 Y111.48
G0 X89.2 Y92.35
G0 X88.7 Y92.35
G1 F1800 X88.7 Y85.503 E34.01842
G1 X88.761 Y85.104 E34.03856
G1 X88.953 Y84.729 E34.05958
G1 X89.231 Y84.451 E34.07919
G1 X89.594 Y84.265 E34.09954
G1 X90.005 Y84.2 E34.1203
G1 X118.997 Y84.2 E35.56672
G1 X119.399 Y84.262 E35.58701
G1 X119.771 Y84.453 E35.60787
G1 X120.049 Y84.731 E35.62749
G1 X120.235 Y85.094 E35.64784
G1 X120.3 Y85.5 E35.66835
G1 X120.3 Y114.497 E37.11502
G1 X120.239 Y114.896 E37.13515
G1 X120.047 Y115.271 E37.15617
G1 X119.769 Y115.549 E37.17579
G1 X119.406 Y115.735 E37.19614
G1 X118.995 Y115.8 E37.2169
G1 X90.003 Y115.8 E38.66331
G1 X89.601 Y115.738 E38.68361
G1 X89.229 Y115.547 E38.70447
G1 X88.951 Y115.269 E38.72408
G1 X88.765 Y114.906 E38.74443
G1 X88.702 Y114.575 E38.76124
G1 X88.7 Y114.386 E38.77067
G1 X88.7 Y109.35 E39.02192
G1 X82.874 Y109.349 E39.31258
G1 X82.607 Y109.292 E39.3262
G1 X82.435 Y109.163 E39.33693
G1 X82.393 Y109.05 E39.34294
G1 X82.393 Y105.041 E39.54295
G1 X82.449 Y104.919 E39.54965
G1 X82.648 Y104.792 E39.56143
G1 X82.914 Y104.75 E39.57486
G1 X88.7 Y104.75 E39.86353
G1 X88.7 Y101.25 E40.03814
G1 X82.876 Y101.249 E40.3287
G1 X82.608 Y101.192 E40.34237
G1 X82.444 Y101.075 E40.35242
G1 X82.392 Y100.944 E40.35945
G1 X82.393 Y99.041 E40.4544
G1 X82.449 Y98.919 E40.46109
G1 X82.648 Y98.792 E40.47287
G1 X82.914 Y98.75 E40.48631
G1 X88.7 Y98.75 E40.77497
G1 X88.7 Y95.25 E40.94959
G1 X82.876 Y95.249 E41.24015
G1 X82.608 Y95.192 E41.25382
G1 X82.426 Y95.05 E41.26533
G1 X82.392 Y94.944 E41.27089
G1 X82.393 Y92.643 E41.38568
G1 X82.481 Y92.487 E41.39462
G1 X82.696 Y92.377 E41.40667
G1 X82.912 Y92.35 E41.41753
G1 X88.7 Y92.35 E41.70629
G0 F3600 X88.7 Y92.15
G0 X89.2 Y92.15
G0 X89.49 Y93.14
;TYPE:SKIN
G1 F1800 X89.49 Y85.563 E42.08431
G1 X89.522 Y85.349 E42.09511
G1 X89.7 Y85.098 E42.11046
G1 X89.839 Y85.026 E42.11827
G1 X90.07 Y84.99 E42.12993
G1 X118.934 Y84.99 E43.56996
G1 X119.152 Y85.023 E43.58096
G1 X119.402 Y85.2 E43.59624
G1 X119.475 Y85.342 E43.60421
G1 X119.51 Y85.563 E43.61537
G1 X119.51 Y114.437 E45.0559
G1 X119.478 Y114.651 E45.0667
G1 X119.3 Y114.902 E45.08205
G1 X119.161 Y114.974 E45.08986
G1 X118.93 Y115.01 E45.10152
G1 X90.066 Y115.01 E46.54155
G1 X89.848 Y114.977 E46.55255
G1 X89.599 Y114.801 E46.56777
G1 X89.527 Y114.66 E46.57567
G1 X89.49 Y114.355 E46.59099
G1 X89.49 Y108.56 E46.88011
G1 X83.183 Y108.559 E47.19476
G1 X83.183 Y105.54 E47.34538
G1 X89.49 Y105.54 E47.66004
G1 X89.49 Y100.46 E47.91348
G1 X83.182 Y100.459 E48.22819
G1 X83.183 Y99.54 E48.27404
G1 X89.49 Y99.54 E48.5887
G1 X89.49 Y94.46 E48.84214
G1 X83.182 Y94.459 E49.15685
G1 X83.183 Y93.14 E49.22265
G1 X89.49 Y93.14 E49.53731
G0 F3600 X89.81 Y89.766
G1 F1800 X89.81 Y110.234 E50.55846
G1 X89.863 Y110.903 E50.59194
G1 X90.027 Y111.589 E50.62713
G1 X90.297 Y112.24 E50.66229
G1 X90.666 Y112.84 E50.69744
G1 X91.123 Y113.377 E50.73261
G1 X91.66 Y113.834 E50.76779
G1 X92.26 Y114.203 E50.80294
G1 X92.911 Y114.473 E50.8381
G1 X93.597 Y114.637 E50.87329
G1 X94.266 Y114.69 E50.90677
G1 X114.734 Y114.69 E51.92792
G1 X115.403 Y114.637 E51.9614
G1 X116.089 Y114.473 E51.99659
G1 X116.74 Y114.203 E52.03175
G1 X117.34 Y113.834 E52.06689
G1 X117.877 Y113.377 E52.10207
G1 X118.334 Y112.84 E52.13725
G1 X118.703 Y112.24 E52.17239
G1 X118.973 Y111.589 E52.20756
G1 X119.137 Y110.903 E52.24274
G1 X119.19 Y110.234 E52.27623
G1 X119.19 Y89.766 E53.29738
G1 X119.137 Y89.097 E53.33086
G1 X118.973 Y88.411 E53.36605
G1 X118.703 Y87.76 E53.40121
G1 X118.334 Y87.16 E53.43635
G1 X117.877 Y86.623 E53.47153
G1 X117.34 Y86.166 E53.50671
G1 X116.74 Y85.797 E53.54185
G1 X116.089 Y85.527 E53.57701
G1 X115.403 Y85.363 E53.6122
G1 X114.734 Y85.31 E53.64568
G1 X94.266 Y85.31 E54.66684
G1 X93.597 Y85.363 E54.70032
G1 X92.911 Y85.527 E54.73551
G1 X92.26 Y85.797 E54.77067
G1 X91.66 Y86.166 E54.80581
G1 X91.123 Y86.623 E54.84099
G1 X90.666 Y87.16 E54.87617
G1 X90.297 Y87.76 E54.91131
G1 X90.027 Y88.411 E54.94647
G1 X89.863 Y89.097 E54.98166
G1 X89.81 Y89.766 E55.01514
G0 F3600 X89.128 Y105.178
G0 X83.488 Y108.378
G1 F1800 X83.362 Y108.253 E55.024
G0 F3600 X83.362 Y107.687
G1 F1800 X84.053 Y108.378 E55.07275
G0 F3600 X84.619 Y108.378
G1 F1800 X83.362 Y107.121 E55.16144
G0 F3600 X83.362 Y106.556
G1 F1800 X85.185 Y108.378 E55.29003
G0 F3600 X85.75 Y108.378
G1 F1800 X83.362 Y105.99 E55.45851
G0 F3600 X83.657 Y105.719
G1 F1800 X86.316 Y108.378 E55.64612
G0 F3600 X86.882 Y108.378
G1 F1800 X84.223 Y105.719 E55.83373
G0 F3600 X84.789 Y105.719
G1 F1800 X87.448 Y108.378 E56.02133
G0 F3600 X88.014 Y108.378
G1 F1800 X85.354 Y105.719 E56.20898
G0 F3600 X85.92 Y105.719
G1 F1800 X88.579 Y108.378 E56.39658
G0 F3600 X89.145 Y108.378
G1 F1800 X86.486 Y105.719 E56.58419
G0 F3600 X87.051 Y105.719
G1 F1800 X89.63 Y108.297 E56.76612
G0 F3600 X89.63 Y107.731
G1 F1800 X87.617 Y105.719 E56.90811
G0 F3600 X88.183 Y105.719
G1 F1800 X89.63 Y107.166 E57.0102
G0 F3600 X89.63 Y106.6
G1 F1800 X88.748 Y105.719 E57.0724
G0 F3600 X89.314 Y105.719
G1 F1800 X89.63 Y106.034 E57.09466
G0 F3600 X89.669 Y111.165
G1 F1800 X89.762 Y111.259 E57.10125
G0 F3600 X89.669 Y111.731
G1 F1800 X90.048 Y112.11 E57.12799
G0 F3600 X89.669 Y112.297
G1 F1800 X92.201 Y114.829 E57.30664
G0 F3600 X92.389 Y114.451
G1 F1800 X92.767 Y114.829 E57.33331
G0 F3600 X93.239 Y114.735
G1 F1800 X93.333 Y114.829 E57.33994
G0 F3600 X91.636 Y114.829
G1 F1800 X89.669 Y112.862 E57.47873
G0 F3600 X89.669 Y113.428
G1 F1800 X91.07 Y114.829 E57.57757
G0 F3600 X90.504 Y114.829
G1 F1800 X89.669 Y113.994 E57.63649
G0 F3600 X89.7 Y114.59
G1 F1800 X89.91 Y114.8 E57.6513
G0 F3600 X89.53 Y100.278
G1 F1800 X88.971 Y99.719 E57.69074
G0 F3600 X88.964 Y100.278
G1 F1800 X88.406 Y99.719 E57.73015
G0 F3600 X88.398 Y100.278
G1 F1800 X87.84 Y99.719 E57.76955
G0 F3600 X87.833 Y100.278
G1 F1800 X87.274 Y99.719 E57.809
G0 F3600 X87.267 Y100.278
G1 F1800 X86.708 Y99.719 E57.84844
G0 F3600 X86.701 Y100.278
G1 F1800 X86.143 Y99.719 E57.88784
G0 F3600 X86.136 Y100.278
G1 F1800 X85.577 Y99.719 E57.92728
G0 F3600 X85.57 Y100.278
G1 F1800 X85.011 Y99.719 E57.96672
G0 F3600 X85.004 Y100.278
