;FLAVOR:Marlin
;TIME:963
;Filament used: 0.924183m
;Layer height: 0.15
;MINX:78.592
;MINY:80.4
;MINZ:0.3
;MAXX:124.1
;MAXY:119.6
;MAXZ:8.55
;Generated with Cura_SteamEngine 4.12.1
M140 S90
M105
M190 S90
M104 S235
M105
M109 S235
M82 ;absolute extrusion mode
G21 ;metric values
G90 ;absolute positioning
M82 ;set extruder to absolute mode
M107 ;start with the fan off
G28 X0 Y0 ;move X/Y to min endstops
G28 Z0 ;move Z to min endstops
G1 Z15.0 F9000 ;move the platform down 15mm
G92 E0 ;zero the extruded length
G1 F200 E6 ;extrude 6 mm of feed stock
G92 E0 ;zero the extruded length again
G1 F9000
;Put printing message on LCD screen
M117 Printing...
G92 E0
G92 E0
G1 F3000 E-5
;LAYER_COUNT:56
;LAYER:0
M107
G0 F3600 X86.409 Y81.896 Z0.3
;TYPE:SKIRT
G1 F3000 E0
G1 F1800 X86.564 Y81.748 E0.01069
G1 X86.985 Y81.403 E0.03785
G1 X87.192 Y81.258 E0.05046
G1 X87.82 Y80.906 E0.08637
G1 X88.303 Y80.713 E0.11232
G1 X88.821 Y80.559 E0.13928
G1 X89.387 Y80.454 E0.168
G1 X89.944 Y80.408 E0.19589
G1 X90.576 Y80.4 E0.22742
G1 X118.415 Y80.4 E1.61631
G1 X118.99 Y80.407 E1.645
G1 X119.511 Y80.443 E1.67106
G1 X120.202 Y80.563 E1.70605
G1 X120.761 Y80.734 E1.73521
G1 X120.98 Y80.821 E1.74697
G1 X121.468 Y81.059 E1.77406
G1 X121.675 Y81.18 E1.78602
G1 X122.148 Y81.511 E1.81482
G1 X122.359 Y81.685 E1.82846
G1 X122.742 Y82.05 E1.85486
G1 X123.086 Y82.471 E1.88198
G1 X123.236 Y82.684 E1.89498
G1 X123.588 Y83.306 E1.93064
G1 X123.789 Y83.808 E1.95762
G1 X123.941 Y84.318 E1.98417
G1 X124.046 Y84.886 E2.01298
G1 X124.092 Y85.441 E2.04077
G1 X124.1 Y86.042 E2.07075
G1 X124.1 Y113.916 E3.46139
G1 X124.093 Y114.481 E3.48958
G1 X124.059 Y114.999 E3.51548
G1 X123.938 Y115.697 E3.55082
G1 X123.768 Y116.256 E3.57997
G1 X123.68 Y116.478 E3.59189
G1 X123.441 Y116.968 E3.61909
G1 X123.32 Y117.175 E3.63105
G1 X122.989 Y117.648 E3.65985
G1 X122.815 Y117.859 E3.6735
G1 X122.453 Y118.239 E3.69968
G1 X122.021 Y118.592 E3.72751
G1 X121.81 Y118.74 E3.74037
G1 X121.18 Y119.094 E3.77642
G1 X120.697 Y119.287 E3.80237
G1 X120.179 Y119.441 E3.82934
G1 X119.613 Y119.546 E3.85805
G1 X119.056 Y119.592 E3.88594
G1 X118.424 Y119.6 E3.91747
G1 X90.585 Y119.6 E5.30636
G1 X90.011 Y119.593 E5.335
G1 X89.49 Y119.558 E5.36106
G1 X88.798 Y119.437 E5.3961
G1 X88.236 Y119.265 E5.42542
G1 X88.015 Y119.177 E5.43729
G1 X87.528 Y118.939 E5.46434
G1 X87.323 Y118.819 E5.47619
G1 X86.814 Y118.458 E5.50732
G1 X86.299 Y117.998 E5.54177
G1 X86.161 Y117.855 E5.55168
G1 X84.199 Y115.891 E5.69018
G1 X82.217 Y114.017 E5.82627
G1 X81.009 Y112.937 E5.90711
G1 X80.956 Y112.882 E5.91092
G1 X79.958 Y111.995 E5.97753
G1 X79.585 Y111.61 E6.00428
G1 X79.268 Y111.176 E6.03109
G1 X78.997 Y110.714 E6.05781
G1 X78.797 Y110.216 E6.08459
G1 X78.669 Y109.661 E6.113
G1 X78.6 Y108.978 E6.14725
G1 X78.594 Y108.432 E6.17449
G1 X78.592 Y105.63 E6.31429
G1 X78.615 Y103.987 E6.39626
G1 X78.606 Y100.732 E6.55866
G1 X78.592 Y100.014 E6.59448
G1 X78.593 Y99.621 E6.61409
G1 X78.608 Y98.544 E6.66783
G1 X78.608 Y95.804 E6.80453
G1 X78.605 Y95.672 E6.81111
G1 X78.594 Y94.565 E6.86635
G1 X78.593 Y93.37 E6.92596
G1 X78.602 Y92.645 E6.96214
G1 X78.649 Y92.111 E6.98888
G1 X78.827 Y91.437 E7.02366
G1 X78.902 Y91.235 E7.03441
G1 X79.126 Y90.747 E7.0612
G1 X79.415 Y90.304 E7.08759
G1 X80.003 Y89.626 E7.13236
G1 X81.812 Y87.583 E7.2685
G1 X83.555 Y85.498 E7.40408
G1 X86.055 Y82.288 E7.60707
G1 X86.409 Y81.896 E7.63342
G0 F3600 X86.84 Y82.038
G1 F1800 X87.421 Y81.586 E7.67015
G1 X87.98 Y81.273 E7.70211
G1 X88.446 Y81.087 E7.72714
G1 X89.117 Y80.903 E7.76185
G1 X89.624 Y80.829 E7.78742
G1 X89.949 Y80.808 E7.80366
G1 X90.581 Y80.8 E7.8352
G1 X118.41 Y80.8 E9.22359
G1 X118.985 Y80.807 E9.25228
G1 X119.883 Y80.903 E9.29734
G1 X120.116 Y80.954 E9.30924
G1 X120.613 Y81.106 E9.33517
G1 X121.266 Y81.404 E9.37098
G1 X121.473 Y81.525 E9.38294
G1 X121.894 Y81.819 E9.40856
G1 X122.445 Y82.318 E9.44564
G1 X122.909 Y82.915 E9.48337
G1 X123.221 Y83.467 E9.515
G1 X123.415 Y83.95 E9.54097
G1 X123.596 Y84.613 E9.57526
G1 X123.671 Y85.123 E9.60097
G1 X123.692 Y85.446 E9.61712
G1 X123.7 Y86.047 E9.64711
G1 X123.7 Y113.911 E11.03725
G1 X123.693 Y114.476 E11.06544
G1 X123.597 Y115.383 E11.11094
G1 X123.547 Y115.612 E11.12264
G1 X123.396 Y116.108 E11.1485
G1 X123.096 Y116.766 E11.18458
G1 X122.975 Y116.973 E11.19655
G1 X122.681 Y117.394 E11.22216
G1 X122.185 Y117.942 E11.25904
G1 X121.792 Y118.265 E11.28442
G1 X121.581 Y118.413 E11.29728
G1 X121.02 Y118.727 E11.32935
G1 X120.554 Y118.913 E11.35438
G1 X119.883 Y119.097 E11.3891
G1 X119.376 Y119.171 E11.41466
G1 X119.051 Y119.192 E11.43091
G1 X118.419 Y119.2 E11.46244
G1 X90.59 Y119.2 E12.85083
G1 X90.016 Y119.193 E12.87947
G1 X89.117 Y119.097 E12.92458
G1 X88.884 Y119.046 E12.93648
G1 X88.384 Y118.893 E12.96257
G1 X87.73 Y118.594 E12.99844
G1 X87.525 Y118.474 E13.01029
G1 X87.073 Y118.153 E13.03795
G1 X86.586 Y117.72 E13.07046
G1 X86.444 Y117.573 E13.08066
G1 X84.456 Y115.583 E13.22099
G1 X82.521 Y113.753 E13.35387
G1 X81.275 Y112.639 E13.43725
G1 X81.22 Y112.581 E13.44124
G1 X80.224 Y111.696 E13.50771
G1 X79.874 Y111.331 E13.53294
G1 X79.597 Y110.949 E13.55648
G1 X79.343 Y110.512 E13.5817
G1 X79.161 Y110.04 E13.60694
G1 X79.035 Y109.408 E13.63909
G1 X79 Y108.973 E13.66086
G1 X78.994 Y108.431 E13.6879
G1 X78.992 Y105.635 E13.8274
G1 X79.015 Y103.992 E13.90937
G1 X79.006 Y100.731 E14.07207
G1 X78.992 Y100.015 E14.1078
G1 X78.993 Y99.626 E14.1272
G1 X79.008 Y98.549 E14.18094
G1 X79.008 Y95.795 E14.31834
G1 X79.005 Y95.668 E14.32468
G1 X78.994 Y94.565 E14.37971
G1 X78.993 Y93.375 E14.43908
G1 X79.002 Y92.65 E14.47525
G1 X79.048 Y92.147 E14.50045
G1 X79.202 Y91.576 E14.52995
G1 X79.277 Y91.374 E14.5407
G1 X79.49 Y90.916 E14.5659
G1 X79.791 Y90.471 E14.59271
G1 X80.269 Y89.929 E14.62876
G1 X82.143 Y87.812 E14.76982
G1 X83.854 Y85.765 E14.90292
G1 X86.37 Y82.534 E15.10722
G1 X86.84 Y82.038 E15.14131
G1 F3000 E10.14131
;MESH:sky04x_rx_bracket.stl
G0 F3600 X87.883 Y85.046
G0 X89.119 Y85.531
G0 X89.17 Y92.87
G1 F3000 E15.14131
G0 F3600 X89.1 Y92.8
;TYPE:WALL-INNER
G1 F1800 X89.1 Y85.53 E15.50401
G1 X89.146 Y85.229 E15.51921
G1 X89.28 Y84.968 E15.53384
G1 X89.47 Y84.778 E15.54725
G1 X89.719 Y84.65 E15.56122
G1 X90.035 Y84.6 E15.57718
G1 X118.968 Y84.6 E17.02065
G1 X119.272 Y84.647 E17.036
G1 X119.533 Y84.781 E17.05063
G1 X119.722 Y84.97 E17.06397
G1 X119.85 Y85.219 E17.07794
G1 X119.9 Y85.532 E17.09375
G1 X119.9 Y114.47 E18.53747
G1 X119.854 Y114.771 E18.55267
G1 X119.72 Y115.032 E18.5673
G1 X119.53 Y115.222 E18.58071
G1 X119.281 Y115.35 E18.59468
G1 X118.965 Y115.4 E18.61064
G1 X90.032 Y115.4 E20.05411
G1 X89.728 Y115.353 E20.06946
G1 X89.467 Y115.219 E20.08409
G1 X89.278 Y115.03 E20.09743
G1 X89.147 Y114.776 E20.11169
G1 X89.1 Y114.385 E20.13134
G1 X89.1 Y108.9 E20.40498
G1 X82.918 Y108.899 E20.7134
G1 X82.794 Y108.873 E20.71973
G1 X82.793 Y105.132 E20.90636
G1 X82.935 Y105.1 E20.91363
G1 X89.1 Y105.1 E21.2212
G1 X89.1 Y100.9 E21.43074
G1 X82.921 Y100.899 E21.73901
G1 X82.792 Y100.871 E21.7456
G1 X82.793 Y99.124 E21.83275
G1 X82.944 Y99.1 E21.84038
G1 X89.1 Y99.1 E22.14751
G1 X89.1 Y94.9 E22.35704
G1 X82.921 Y94.899 E22.66532
G1 X82.794 Y94.871 E22.6718
G1 X82.793 Y92.831 E22.77358
G1 X82.935 Y92.8 E22.78083
G1 X89.1 Y92.8 E23.0884
G0 F3600 X89.17 Y92.87
G0 X90.16 Y110.898
G0 X90.561 Y112.13
G0 X91.322 Y113.178
G0 X92.264 Y113.874
G0 X93.593 Y114.399
G0 X93.608 Y114.301
G1 F1800 X94.231 Y114.35 E23.11958
G1 X114.769 Y114.35 E24.14423
G1 X115.392 Y114.301 E24.17541
G1 X116.018 Y114.151 E24.20752
G1 X116.612 Y113.904 E24.23962
G1 X117.16 Y113.568 E24.27168
G1 X117.65 Y113.15 E24.30382
G1 X118.068 Y112.66 E24.33595
G1 X118.404 Y112.112 E24.36802
G1 X118.651 Y111.518 E24.40011
G1 X118.801 Y110.892 E24.43223
G1 X118.85 Y110.269 E24.46341
G1 X118.85 Y89.731 E25.48805
G1 X118.801 Y89.108 E25.51923
G1 X118.651 Y88.482 E25.55135
G1 X118.404 Y87.888 E25.58344
G1 X118.068 Y87.34 E25.61551
G1 X117.65 Y86.85 E25.64764
G1 X117.16 Y86.432 E25.67978
G1 X116.612 Y86.096 E25.71185
G1 X116.018 Y85.849 E25.74394
G1 X115.392 Y85.699 E25.77606
G1 X114.769 Y85.65 E25.80723
G1 X94.231 Y85.65 E26.83188
G1 X93.608 Y85.699 E26.86306
G1 X92.982 Y85.849 E26.89517
G1 X92.388 Y86.096 E26.92727
G1 X91.84 Y86.432 E26.95934
G1 X91.35 Y86.85 E26.99147
G1 X90.932 Y87.34 E27.0236
G1 X90.596 Y87.888 E27.05567
G1 X90.349 Y88.482 E27.08777
G1 X90.199 Y89.108 E27.11988
G1 X90.15 Y89.731 E27.15106
G1 X90.15 Y110.269 E28.1757
G1 X90.199 Y110.892 E28.20688
G1 X90.349 Y111.518 E28.239
G1 X90.596 Y112.112 E28.27109
G1 X90.932 Y112.66 E28.30316
G1 X91.35 Y113.15 E28.33529
G1 X91.84 Y113.568 E28.36743
G1 X92.388 Y113.904 E28.3995
G1 X92.982 Y114.151 E28.43159
G1 X93.608 Y114.301 E28.46371
G0 F3600 X93.671 Y113.905
;TYPE:WALL-OUTER
G1 F1800 X94.247 Y113.95 E28.49253
G1 X114.753 Y113.95 E29.51558
G1 X115.329 Y113.905 E29.5444
G1 X115.894 Y113.769 E29.5734
G1 X116.43 Y113.547 E29.60234
G1 X116.924 Y113.244 E29.63125
G1 X117.366 Y112.866 E29.66027
G1 X117.744 Y112.424 E29.68928
G1 X118.047 Y111.93 E29.7182
G1 X118.269 Y111.394 E29.74714
G1 X118.405 Y110.829 E29.77613
G1 X118.45 Y110.253 E29.80496
G1 X118.45 Y89.747 E30.82801
G1 X118.405 Y89.171 E30.85683
G1 X118.269 Y88.606 E30.88582
G1 X118.047 Y88.07 E30.91477
G1 X117.744 Y87.576 E30.94368
G1 X117.366 Y87.134 E30.9727
G1 X116.924 Y86.756 E31.00171
G1 X116.43 Y86.453 E31.03062
G1 X115.894 Y86.231 E31.05957
G1 X115.329 Y86.095 E31.08856
G1 X114.753 Y86.05 E31.11739
G1 X94.247 Y86.05 E32.14043
G1 X93.671 Y86.095 E32.16926
G1 X93.106 Y86.231 E32.19825
G1 X92.57 Y86.453 E32.2272
G1 X92.076 Y86.756 E32.25611
G1 X91.634 Y87.134 E32.28512
G1 X91.256 Y87.576 E32.31414
G1 X90.953 Y88.07 E32.34305
G1 X90.731 Y88.606 E32.372
G1 X90.595 Y89.171 E32.40099
G1 X90.55 Y89.747 E32.42981
G1 X90.55 Y110.253 E33.45286
G1 X90.595 Y110.829 E33.48169
G1 X90.731 Y111.394 E33.51068
G1 X90.953 Y111.93 E33.53962
G1 X91.256 Y112.424 E33.56854
G1 X91.634 Y112.866 E33.59755
G1 X92.076 Y113.244 E33.62657
G1 X92.57 Y113.547 E33.65548
G1 X93.106 Y113.769 E33.68442
G1 X93.671 Y113.905 E33.71342
G0 F3600 X93.87 Y113.92
G0 X93.831 Y114.418
G0 X92.97 Y114.189
G0 X91.817 Y113.6
G0 X90.9 Y112.683
G0 X90.311 Y111.53
G0 X89.2 Y92.4
G0 X88.7 Y92.4
G1 F1800 X88.7 Y85.503 E34.05751
G1 X88.761 Y85.104 E34.07765
G1 X88.953 Y84.729 E34.09867
G1 X89.231 Y84.451 E34.11828
G1 X89.594 Y84.265 E34.13863
G1 X90.005 Y84.2 E34.15939
G1 X118.997 Y84.2 E35.60581
G1 X119.399 Y84.262 E35.6261
G1 X119.771 Y84.453 E35.64696
G1 X120.049 Y84.731 E35.66658
G1 X120.235 Y85.094 E35.68692
G1 X120.3 Y85.5 E35.70744
G1 X120.3 Y114.497 E37.1541
G1 X120.239 Y114.896 E37.17424
G1 X120.047 Y115.271 E37.19526
G1 X119.769 Y115.549 E37.21487
G1 X119.406 Y115.735 E37.23522
G1 X118.995 Y115.8 E37.25598
G1 X90.003 Y115.8 E38.7024
G1 X89.601 Y115.738 E38.72269
G1 X89.229 Y115.547 E38.74356
G1 X88.951 Y115.269 E38.76317
G1 X88.765 Y114.906 E38.78352
G1 X88.702 Y114.575 E38.80033
G1 X88.7 Y114.385 E38.80981
G1 X88.7 Y109.3 E39.0635
G1 X82.877 Y109.299 E39.35401
G1 X82.608 Y109.242 E39.36773
G1 X82.425 Y109.099 E39.37932
G1 X82.394 Y109.014 E39.38383
G1 X82.393 Y104.985 E39.58484
G1 X82.478 Y104.839 E39.59327
G1 X82.728 Y104.719 E39.6071
G1 X82.914 Y104.7 E39.61643
G1 X88.7 Y104.7 E39.90509
G1 X88.7 Y101.3 E40.07472
G1 X82.876 Y101.299 E40.36528
G1 X82.602 Y101.239 E40.37927
G1 X82.423 Y101.095 E40.39074
G1 X82.392 Y100.994 E40.39601
G1 X82.393 Y98.991 E40.49594
G1 X82.468 Y98.85 E40.50391
G1 X82.652 Y98.741 E40.51457
G1 X82.914 Y98.7 E40.5278
G1 X88.7 Y98.7 E40.81647
G1 X88.7 Y95.3 E40.9861
G1 X82.876 Y95.299 E41.27666
G1 X82.602 Y95.239 E41.29065
G1 X82.416 Y95.087 E41.30263
G1 X82.394 Y95.015 E41.30639
G1 X82.393 Y92.685 E41.42263
G1 X82.479 Y92.538 E41.43113
G1 X82.728 Y92.419 E41.4449
G1 X82.914 Y92.4 E41.45423
G1 X88.7 Y92.4 E41.74289
G0 F3600 X88.7 Y92.2
G0 X89.2 Y92.2
G0 X89.49 Y93.19
;TYPE:SKIN
G1 F1800 X89.49 Y85.563 E42.12341
G1 X89.522 Y85.349 E42.1342
G1 X89.7 Y85.098 E42.14955
G1 X89.839 Y85.026 E42.15736
G1 X90.07 Y84.99 E42.16903
G1 X118.934 Y84.99 E43.60906
G1 X119.152 Y85.023 E43.62006
G1 X119.402 Y85.2 E43.63534
G1 X119.475 Y85.342 E43.6433
G1 X119.51 Y85.563 E43.65447
G1 X119.51 Y114.437 E45.095
G1 X119.478 Y114.651 E45.10579
G1 X119.3 Y114.902 E45.12114
G1 X119.161 Y114.974 E45.12895
G1 X118.93 Y115.01 E45.14062
G1 X90.066 Y115.01 E46.58065
G1 X89.848 Y114.977 E46.59165
G1 X89.599 Y114.801 E46.60686
G1 X89.527 Y114.66 E46.61476
G1 X89.49 Y114.354 E46.63014
G1 X89.49 Y108.51 E46.9217
G1 X83.184 Y108.509 E47.2363
G1 X83.183 Y105.49 E47.38692
G1 X89.49 Y105.49 E47.70158
G1 X89.49 Y100.51 E47.95003
G1 X83.182 Y100.509 E48.26474
G1 X83.183 Y99.49 E48.31558
G1 X89.49 Y99.49 E48.63024
G1 X89.49 Y94.51 E48.87869
G1 X83.184 Y94.509 E49.1933
G1 X83.183 Y93.19 E49.2591
G1 X89.49 Y93.19 E49.57376
G0 F3600 X89.76 Y89.716
G1 F1800 X89.76 Y110.284 E50.5999
G1 X89.813 Y110.953 E50.63338
G1 X89.977 Y111.639 E50.66857
G1 X90.247 Y112.29 E50.70373
G1 X90.616 Y112.89 E50.73887
G1 X91.073 Y113.427 E50.77405
G1 X91.61 Y113.884 E50.80923
G1 X92.21 Y114.253 E50.84437
G1 X92.861 Y114.523 E50.87954
G1 X93.547 Y114.687 E50.91473
G1 X94.216 Y114.74 E50.94821
G1 X114.784 Y114.74 E51.97435
G1 X115.453 Y114.687 E52.00783
G1 X116.139 Y114.523 E52.04302
G1 X116.79 Y114.253 E52.07818
G1 X117.39 Y113.884 E52.11332
G1 X117.927 Y113.427 E52.1485
G1 X118.384 Y112.89 E52.18368
G1 X118.753 Y112.29 E52.21882
G1 X119.023 Y111.639 E52.25398
G1 X119.187 Y110.953 E52.28917
G1 X119.24 Y110.284 E52.32265
G1 X119.24 Y89.716 E53.3488
G1 X119.187 Y89.047 E53.38228
G1 X119.023 Y88.361 E53.41747
G1 X118.753 Y87.71 E53.45263
G1 X118.384 Y87.11 E53.48777
G1 X117.927 Y86.573 E53.52295
G1 X117.39 Y86.116 E53.55813
G1 X116.79 Y85.747 E53.59327
G1 X116.139 Y85.477 E53.62843
G1 X115.453 Y85.313 E53.66362
G1 X114.784 Y85.26 E53.6971
G1 X94.216 Y85.26 E54.72324
G1 X93.547 Y85.313 E54.75672
G1 X92.861 Y85.477 E54.79191
G1 X92.21 Y85.747 E54.82707
G1 X91.61 Y86.116 E54.86222
G1 X91.073 Y86.573 E54.8974
G1 X90.616 Y87.11 E54.93257
G1 X90.247 Y87.71 E54.96772
G1 X89.977 Y88.361 E55.00288
G1 X89.813 Y89.047 E55.03807
G1 X89.76 Y89.716 E55.07155
G0 F3600 X89.128 Y105.128
G0 X83.437 Y108.328
G1 F1800 X83.363 Y108.253 E55.0768
G0 F3600 X83.363 Y107.688
G1 F1800 X84.003 Y108.328 E55.12196
G0 F3600 X84.569 Y108.328
G1 F1800 X83.363 Y107.122 E55.20705
G0 F3600 X83.362 Y106.556
G1 F1800 X85.134 Y108.328 E55.33207
G0 F3600 X85.7 Y108.328
G1 F1800 X83.362 Y105.99 E55.49703
G0 F3600 X83.607 Y105.669
G1 F1800 X86.266 Y108.328 E55.68464
G0 F3600 X86.832 Y108.328
G1 F1800 X84.173 Y105.669 E55.87225
G0 F3600 X84.738 Y105.669
G1 F1800 X87.398 Y108.328 E56.05989
G0 F3600 X87.964 Y108.328
G1 F1800 X85.304 Y105.669 E56.24753
G0 F3600 X85.87 Y105.669
G1 F1800 X88.529 Y108.328 E56.43514
G0 F3600 X89.095 Y108.328
G1 F1800 X86.436 Y105.669 E56.62274
G0 F3600 X87.001 Y105.669
G1 F1800 X89.579 Y108.247 E56.80464
G0 F3600 X89.579 Y107.681
G1 F1800 X87.567 Y105.669 E56.94659
G0 F3600 X88.133 Y105.669
G1 F1800 X89.579 Y107.116 E57.04865
G0 F3600 X89.579 Y106.55
G1 F1800 X88.698 Y105.669 E57.11081
G0 F3600 X89.264 Y105.669
G1 F1800 X89.579 Y105.984 E57.13304
G0 F3600 X89.579 Y100.327
G1 F1800 X88.92 Y99.668 E57.17953
G0 F3600 X88.355 Y99.668
G1 F1800 X89.014 Y100.328 E57.22606
G0 F3600 X88.449 Y100.328
G1 F1800 X87.789 Y99.668 E57.27263
G0 F3600 X87.223 Y99.668
G1 F1800 X87.883 Y100.328 E57.3192
G0 F3600 X87.317 Y100.328
G1 F1800 X86.658 Y99.668 E57.36573
G0 F3600 X86.092 Y99.668
G1 F1800 X86.752 Y100.328 E57.41229
G0 F3600 X86.186 Y100.328
G1 F1800 X85.526 Y99.668 E57.45886
G0 F3600 X84.961 Y99.668
G1 F1800 X85.62 Y100.328 E57.50539
G0 F3600 X85.055 Y100.328
G1 F1800 X84.395 Y99.668 E57.55196
G0 F3600 X83.829 Y99.668
G1 F1800 X84.489 Y100.328 E57.59853
G0 F3600 X83.923 Y100.328
G1 F1800 X83.362 Y99.767 E57.63811
G0 F3600 X89.128 Y99.128
G0 X89.128 Y94.872
G0 X83.58 Y94.328
G1 F1800 X83.362 Y94.11 E57.65349
G0 F3600 X83.362 Y93.545
G1 F1800 X84.145 Y94.328 E57.70873
G0 F3600 X84.711 Y94.328
G1 F1800 X83.753 Y93.369 E57.77636
G0 F3600 X84.318 Y93.369
G1 F1800 X85.277 Y94.328 E57.84402
G0 F3600 X85.842 Y94.328
G1 F1800 X84.884 Y93.369 E57.91165
