;FLAVOR:Marlin
;TIME:1144
;Filament used: 1.09364m
;Layer height: 0.15
;MINX:77.942
;MINY:79.75
;MINZ:0.3
;MAXX:124.75
;MAXY:120.25
;MAXZ:8.55
;Generated with Cura_SteamEngine 4.12.1
M140 S90
M105
M190 S90
M104 S235
M105
M109 S235
M82 ;absolute extrusion mode
G21 ;metric values
G90 ;absolute positioning
M82 ;set extruder to absolute mode
M107 ;start with the fan off
G28 X0 Y0 ;move X/Y to min endstops
G28 Z0 ;move Z to min endstops
G1 Z15.0 F9000 ;move the platform down 15mm
G92 E0 ;zero the extruded length
G1 F200 E6 ;extrude 6 mm of feed stock
G92 E0 ;zero the extruded length again
G1 F9000
;Put printing message on LCD screen
M117 Printing...
G92 E0
G92 E0
G1 F3000 E-5
;LAYER_COUNT:56
;LAYER:0
M107
G0 F3600 X85.759 Y81.246 Z0.3
;TYPE:SKIRT
G1 F3000 E0
G1 F1800 X85.914 Y81.098 E0.01069
G1 X86.335 Y80.753 E0.03785
G1 X86.542 Y80.608 E0.05046
G1 X87.17 Y80.256 E0.08637
G1 X87.653 Y80.063 E0.11232
G1 X88.171 Y79.909 E0.13928
G1 X88.737 Y79.804 E0.168
G1 X89.294 Y79.758 E0.19589
G1 X89.926 Y79.75 E0.22742
G1 X119.065 Y79.75 E1.68117
G1 X119.64 Y79.757 E1.70986
G1 X120.161 Y79.793 E1.73591
G1 X120.852 Y79.913 E1.7709
G1 X121.411 Y80.084 E1.80007
G1 X121.63 Y80.171 E1.81183
G1 X122.118 Y80.409 E1.83891
G1 X122.325 Y80.53 E1.85088
G1 X122.798 Y80.861 E1.87968
G1 X123.009 Y81.035 E1.89332
G1 X123.392 Y81.4 E1.91972
G1 X123.736 Y81.821 E1.94684
G1 X123.886 Y82.034 E1.95984
G1 X124.238 Y82.656 E1.99549
G1 X124.439 Y83.158 E2.02247
G1 X124.591 Y83.668 E2.04902
G1 X124.696 Y84.236 E2.07784
G1 X124.742 Y84.791 E2.10562
G1 X124.75 Y85.392 E2.13561
G1 X124.75 Y114.563 E3.59096
G1 X124.743 Y115.13 E3.61925
G1 X124.709 Y115.649 E3.6452
G1 X124.588 Y116.347 E3.68054
G1 X124.418 Y116.906 E3.70969
G1 X124.33 Y117.128 E3.7216
G1 X124.091 Y117.618 E3.7488
G1 X123.97 Y117.825 E3.76076
G1 X123.639 Y118.298 E3.78957
G1 X123.465 Y118.509 E3.80321
G1 X123.103 Y118.889 E3.82939
G1 X122.671 Y119.242 E3.85723
G1 X122.46 Y119.39 E3.87009
G1 X121.83 Y119.744 E3.90614
G1 X121.347 Y119.937 E3.93209
G1 X120.829 Y120.091 E3.95905
G1 X120.263 Y120.196 E3.98777
G1 X119.706 Y120.242 E4.01565
G1 X119.074 Y120.25 E4.04719
G1 X89.935 Y120.25 E5.50094
G1 X89.361 Y120.243 E5.52958
G1 X88.84 Y120.208 E5.55563
G1 X88.148 Y120.087 E5.59067
G1 X87.586 Y119.915 E5.62
G1 X87.365 Y119.827 E5.63186
G1 X86.878 Y119.589 E5.65891
G1 X86.673 Y119.469 E5.67076
G1 X86.202 Y119.139 E5.69945
G1 X85.634 Y118.628 E5.73757
G1 X84.999 Y117.938 E5.78435
G1 X84.141 Y116.981 E5.84847
G1 X82.245 Y114.986 E5.98578
G1 X79.194 Y111.985 E6.19929
G1 X78.737 Y111.436 E6.23493
G1 X78.586 Y111.213 E6.24837
G1 X78.319 Y110.748 E6.27512
G1 X78.074 Y110.068 E6.31118
G1 X77.98 Y109.524 E6.33872
G1 X77.964 Y109.248 E6.35251
G1 X77.942 Y108.087 E6.41045
G1 X77.943 Y105.746 E6.52724
G1 X77.96 Y104.547 E6.58706
G1 X77.963 Y101.988 E6.71473
G1 X77.943 Y100.381 E6.79491
G1 X77.943 Y99.747 E6.82654
G1 X77.961 Y98.369 E6.8953
G1 X77.959 Y95.639 E7.0315
G1 X77.954 Y95.425 E7.04218
G1 X77.944 Y94.454 E7.09062
G1 X77.943 Y93.233 E7.15154
G1 X77.952 Y92.579 E7.18417
G1 X78 Y92.045 E7.21092
G1 X78.157 Y91.433 E7.24244
G1 X78.256 Y91.152 E7.2573
G1 X78.471 Y90.661 E7.28405
G1 X78.757 Y90.207 E7.31082
G1 X79.072 Y89.826 E7.33548
G1 X80.84 Y87.709 E7.47308
G1 X82.516 Y85.585 E7.60807
G1 X84.158 Y83.374 E7.74547
G1 X85.155 Y81.97 E7.83138
G1 X85.365 Y81.69 E7.84884
G1 X85.759 Y81.246 E7.87845
G0 F3600 X86.035 Y81.536
G1 F1800 X86.564 Y81.081 E7.91327
G1 X86.771 Y80.936 E7.92587
G1 X87.33 Y80.623 E7.95784
G1 X87.796 Y80.437 E7.98287
G1 X88.467 Y80.253 E8.01758
G1 X88.974 Y80.179 E8.04314
G1 X89.299 Y80.158 E8.05939
G1 X89.931 Y80.15 E8.09093
G1 X119.06 Y80.15 E9.54418
G1 X119.635 Y80.157 E9.57287
G1 X120.533 Y80.253 E9.61792
G1 X120.766 Y80.304 E9.62982
G1 X121.263 Y80.456 E9.65575
G1 X121.916 Y80.754 E9.69156
G1 X122.123 Y80.875 E9.70352
G1 X122.544 Y81.169 E9.72914
G1 X123.095 Y81.668 E9.76623
G1 X123.559 Y82.265 E9.80395
G1 X123.871 Y82.817 E9.83559
G1 X124.065 Y83.3 E9.86155
G1 X124.246 Y83.963 E9.89584
G1 X124.321 Y84.473 E9.92156
G1 X124.342 Y84.796 E9.93771
G1 X124.35 Y85.397 E9.96769
G1 X124.35 Y114.559 E11.42259
G1 X124.343 Y115.126 E11.45088
G1 X124.247 Y116.033 E11.49639
G1 X124.197 Y116.262 E11.50808
G1 X124.046 Y116.758 E11.53395
G1 X123.746 Y117.416 E11.57003
G1 X123.625 Y117.623 E11.58199
G1 X123.331 Y118.044 E11.60761
G1 X122.835 Y118.592 E11.64448
G1 X122.442 Y118.915 E11.66986
G1 X122.231 Y119.063 E11.68272
G1 X121.67 Y119.377 E11.71479
G1 X121.204 Y119.563 E11.73983
G1 X120.533 Y119.747 E11.77454
G1 X120.026 Y119.821 E11.8001
G1 X119.701 Y119.842 E11.81635
G1 X119.069 Y119.85 E11.84788
G1 X89.94 Y119.85 E13.30113
G1 X89.366 Y119.843 E13.32977
G1 X88.467 Y119.747 E13.37488
G1 X88.234 Y119.696 E13.38678
G1 X87.734 Y119.543 E13.41287
G1 X87.08 Y119.244 E13.44874
G1 X86.875 Y119.124 E13.46059
G1 X86.456 Y118.831 E13.4861
G1 X85.928 Y118.357 E13.5215
G1 X85.296 Y117.671 E13.56804
G1 X84.412 Y116.685 E13.6341
G1 X82.533 Y114.707 E13.77021
G1 X79.474 Y111.699 E13.98425
G1 X79.068 Y111.212 E14.01588
G1 X78.917 Y110.989 E14.02932
G1 X78.668 Y110.549 E14.05454
G1 X78.463 Y109.971 E14.08514
G1 X78.459 Y109.955 E14.08596
G1 X78.364 Y109.241 E14.1219
G1 X78.342 Y108.088 E14.17943
G1 X78.343 Y105.752 E14.29597
G1 X78.36 Y104.553 E14.3558
G1 X78.363 Y101.983 E14.48402
G1 X78.343 Y100.376 E14.5642
G1 X78.343 Y99.752 E14.59533
G1 X78.361 Y98.374 E14.66408
G1 X78.359 Y95.629 E14.80103
G1 X78.354 Y95.421 E14.81141
G1 X78.344 Y94.454 E14.85966
G1 X78.343 Y93.239 E14.92027
G1 X78.352 Y92.585 E14.95291
G1 X78.399 Y92.082 E14.97811
G1 X78.534 Y91.566 E15.00472
G1 X78.633 Y91.285 E15.01958
G1 X78.838 Y90.823 E15.0448
G1 X79.23 Y90.255 E15.07923
G1 X79.396 Y90.063 E15.09189
G1 X81.146 Y87.968 E15.22808
G1 X82.835 Y85.826 E15.36417
G1 X84.464 Y83.633 E15.50046
G1 X85.424 Y82.279 E15.58327
G1 X85.685 Y81.93 E15.60501
G1 X86.035 Y81.536 E15.63131
G1 F3000 E10.63131
;MESH:sky04x_rx_bracket.stl
G0 F3600 X87.212 Y84.507
G0 X88.269 Y84.868
G0 X88.45 Y92.7
;TYPE:WALL-INNER
G1 F3000 E15.63131
G1 F1800 X88.45 Y84.88 E16.02145
G1 X88.496 Y84.579 E16.03664
G1 X88.63 Y84.318 E16.05128
G1 X88.82 Y84.128 E16.06468
G1 X89.069 Y84 E16.07865
G1 X89.385 Y83.95 E16.09461
G1 X119.618 Y83.95 E17.60294
G1 X119.922 Y83.997 E17.61829
G1 X120.183 Y84.131 E17.63292
G1 X120.372 Y84.32 E17.64626
G1 X120.5 Y84.569 E17.66023
G1 X120.55 Y84.882 E17.67604
G1 X120.55 Y115.12 E19.18462
G1 X120.504 Y115.421 E19.19981
G1 X120.37 Y115.682 E19.21445
G1 X120.18 Y115.872 E19.22786
G1 X119.931 Y116 E19.24182
G1 X119.615 Y116.05 E19.25778
G1 X89.382 Y116.05 E20.76611
G1 X89.078 Y116.003 E20.78146
G1 X88.817 Y115.869 E20.7961
G1 X88.628 Y115.68 E20.80943
G1 X88.497 Y115.426 E20.82369
G1 X88.45 Y115.022 E20.84398
G1 X88.45 Y109 E21.14442
G1 X82.269 Y108.999 E21.45279
G1 X82.142 Y108.971 E21.45928
G1 X82.143 Y105.227 E21.64607
G1 X82.288 Y105.2 E21.65343
G1 X88.45 Y105.2 E21.96085
G1 X88.45 Y100.8 E22.18037
G1 X82.268 Y100.799 E22.48879
G1 X82.144 Y100.773 E22.49511
G1 X82.143 Y99.226 E22.57229
G1 X82.288 Y99.2 E22.57964
G1 X88.45 Y99.2 E22.88707
G1 X88.45 Y94.8 E23.10658
G1 X82.268 Y94.799 E23.415
G1 X82.144 Y94.773 E23.42132
G1 X82.142 Y92.726 E23.52345
G1 X82.294 Y92.7 E23.53114
G1 X88.45 Y92.7 E23.83827
G0 F3600 X90.792 Y111.984
G0 X91.35 Y112.979
G0 X92.475 Y113.865
G1 F1800 X93.121 Y113.95 E23.87077
G1 X115.879 Y113.95 E25.00617
G1 X116.525 Y113.865 E25.03868
G1 X117.152 Y113.604 E25.07256
G1 X117.69 Y113.19 E25.10643
G1 X118.104 Y112.652 E25.1403
G1 X118.365 Y112.025 E25.17418
G1 X118.45 Y111.379 E25.20669
G1 X118.45 Y88.621 E26.34209
G1 X118.365 Y87.975 E26.3746
G1 X118.104 Y87.348 E26.40848
G1 X117.69 Y86.81 E26.44235
G1 X117.152 Y86.396 E26.47622
G1 X116.525 Y86.135 E26.5101
G1 X115.879 Y86.05 E26.54261
G1 X93.121 Y86.05 E27.67801
G1 X92.475 Y86.135 E27.71052
G1 X91.848 Y86.396 E27.7444
G1 X91.31 Y86.81 E27.77827
G1 X90.896 Y87.348 E27.81214
G1 X90.635 Y87.975 E27.84602
G1 X90.55 Y88.621 E27.87853
G1 X90.55 Y111.379 E29.01393
G1 X90.635 Y112.025 E29.04643
G1 X90.896 Y112.652 E29.08032
G1 X91.31 Y113.19 E29.11419
G1 X91.848 Y113.604 E29.14805
G1 X92.475 Y113.865 E29.18194
G0 F3600 X92.58 Y113.475
;TYPE:WALL-OUTER
G1 F1800 X93.147 Y113.55 E29.21047
G1 X115.853 Y113.55 E30.34328
G1 X116.42 Y113.475 E30.37181
G1 X116.95 Y113.255 E30.40044
G1 X117.405 Y112.905 E30.42908
G1 X117.755 Y112.45 E30.45772
G1 X117.975 Y111.92 E30.48635
G1 X118.05 Y111.353 E30.51488
G1 X118.05 Y88.647 E31.64769
G1 X117.975 Y88.08 E31.67622
G1 X117.755 Y87.55 E31.70485
G1 X117.405 Y87.095 E31.73349
G1 X116.95 Y86.745 E31.76213
G1 X116.42 Y86.525 E31.79076
G1 X115.853 Y86.45 E31.81929
G1 X93.147 Y86.45 E32.9521
G1 X92.58 Y86.525 E32.98064
G1 X92.05 Y86.745 E33.00926
G1 X91.595 Y87.095 E33.0379
G1 X91.245 Y87.55 E33.06654
G1 X91.025 Y88.08 E33.09517
G1 X90.95 Y88.647 E33.12371
G1 X90.95 Y111.353 E34.25651
G1 X91.025 Y111.92 E34.28505
G1 X91.245 Y112.45 E34.31368
G1 X91.595 Y112.905 E34.34232
G1 X92.05 Y113.255 E34.37096
G1 X92.58 Y113.475 E34.39958
G0 F3600 X92.778 Y113.501
G0 X92.739 Y113.798
G0 X91.93 Y113.464
G0 X91.036 Y112.57
G0 X88.35 Y92.3
G0 X88.05 Y92.3
G1 F1800 X88.05 Y84.853 E34.77112
G1 X88.111 Y84.454 E34.79125
G1 X88.303 Y84.079 E34.81227
G1 X88.581 Y83.801 E34.83189
G1 X88.944 Y83.615 E34.85224
G1 X89.355 Y83.55 E34.873
G1 X119.647 Y83.55 E36.38427
G1 X120.049 Y83.612 E36.40456
G1 X120.421 Y83.803 E36.42543
G1 X120.699 Y84.081 E36.44504
G1 X120.885 Y84.444 E36.46539
G1 X120.95 Y84.85 E36.4859
G1 X120.95 Y115.147 E37.99743
G1 X120.889 Y115.546 E38.01756
G1 X120.697 Y115.921 E38.03858
G1 X120.419 Y116.199 E38.0582
G1 X120.056 Y116.385 E38.07855
G1 X119.645 Y116.45 E38.09931
G1 X89.353 Y116.45 E39.61058
G1 X88.951 Y116.388 E39.63087
G1 X88.579 Y116.197 E39.65173
G1 X88.301 Y115.919 E39.67135
G1 X88.115 Y115.556 E39.6917
G1 X88.052 Y115.225 E39.70851
G1 X88.05 Y115.022 E39.71864
G1 X88.05 Y109.4 E39.99912
G1 X82.227 Y109.399 E40.28963
G1 X81.954 Y109.34 E40.30356
G1 X81.773 Y109.196 E40.3151
G1 X81.742 Y109.094 E40.32042
G1 X81.743 Y105.093 E40.52003
G1 X81.831 Y104.937 E40.52897
G1 X82.046 Y104.827 E40.54102
G1 X82.262 Y104.8 E40.55188
G1 X88.05 Y104.8 E40.84064
G1 X88.05 Y101.2 E41.02025
G1 X82.227 Y101.199 E41.31076
G1 X81.958 Y101.142 E41.32448
G1 X81.77 Y100.991 E41.33651
G1 X81.744 Y100.914 E41.34056
G1 X81.743 Y99.087 E41.43171
G1 X81.831 Y98.937 E41.44039
G1 X82.046 Y98.827 E41.45244
G1 X82.262 Y98.8 E41.4633
G1 X88.05 Y98.8 E41.75206
G1 X88.05 Y95.2 E41.93166
G1 X82.227 Y95.199 E42.22218
G1 X81.958 Y95.142 E42.23589
G1 X81.77 Y94.991 E42.24792
G1 X81.744 Y94.912 E42.25207
G1 X81.742 Y92.614 E42.36672
G1 X81.793 Y92.477 E42.37401
G1 X81.998 Y92.342 E42.38626
G1 X82.262 Y92.3 E42.3996
G1 X88.05 Y92.3 E42.68836
G0 F3600 X88.05 Y92.1
G0 X88.35 Y92.1
G0 X88.84 Y93.09
;TYPE:SKIN
G1 F1800 X88.84 Y84.913 E43.09631
G1 X88.872 Y84.699 E43.10711
G1 X89.05 Y84.448 E43.12246
G1 X89.189 Y84.376 E43.13027
G1 X89.42 Y84.34 E43.14193
G1 X119.584 Y84.34 E44.64682
G1 X119.802 Y84.373 E44.65782
G1 X120.052 Y84.55 E44.6731
G1 X120.125 Y84.692 E44.68107
G1 X120.16 Y84.913 E44.69223
G1 X120.16 Y115.087 E46.19762
G1 X120.128 Y115.301 E46.20842
G1 X119.95 Y115.552 E46.22377
G1 X119.811 Y115.624 E46.23158
G1 X119.58 Y115.66 E46.24324
G1 X89.416 Y115.66 E47.74813
G1 X89.198 Y115.627 E47.75913
G1 X88.949 Y115.451 E47.77434
G1 X88.877 Y115.31 E47.78224
G1 X88.84 Y114.995 E47.79806
G1 X88.84 Y108.61 E48.11661
G1 X82.532 Y108.609 E48.43132
G1 X82.533 Y105.59 E48.58194
G1 X88.84 Y105.59 E48.8966
G1 X88.84 Y100.41 E49.15503
G1 X82.534 Y100.409 E49.46963
G1 X82.533 Y99.59 E49.51049
G1 X88.84 Y99.59 E49.82515
G1 X88.84 Y94.41 E50.08358
G1 X82.534 Y94.409 E50.39819
G1 X82.532 Y93.09 E50.464
G1 X88.84 Y93.09 E50.7787
G0 F3600 X90.16 Y88.596
G1 F1800 X90.16 Y111.404 E51.9166
G1 X90.255 Y112.127 E51.95298
G1 X90.555 Y112.849 E51.99199
G1 X91.032 Y113.468 E52.03097
G1 X91.651 Y113.945 E52.06996
G1 X92.373 Y114.245 E52.10897
G1 X93.096 Y114.34 E52.14535
G1 X115.904 Y114.34 E53.28324
G1 X116.627 Y114.245 E53.31963
G1 X117.349 Y113.945 E53.35863
G1 X117.968 Y113.468 E53.39762
G1 X118.445 Y112.849 E53.43661
G1 X118.745 Y112.127 E53.47561
G1 X118.84 Y111.404 E53.51199
G1 X118.84 Y88.596 E54.64989
G1 X118.745 Y87.873 E54.68627
G1 X118.445 Y87.151 E54.72528
G1 X117.968 Y86.532 E54.76426
G1 X117.349 Y86.055 E54.80325
G1 X116.627 Y85.755 E54.84226
G1 X115.904 Y85.66 E54.87864
G1 X93.096 Y85.66 E56.01653
G1 X92.373 Y85.755 E56.05292
G1 X91.651 Y86.055 E56.09192
G1 X91.032 Y86.532 E56.13091
G1 X90.555 Y87.151 E56.1699
G1 X90.255 Y87.873 E56.2089
G1 X90.16 Y88.596 E56.24528
G0 F3600 X89.028 Y115.049
G1 F1800 X89.457 Y115.479 E56.27559
G0 F3600 X90.023 Y115.479
G1 F1800 X89.02 Y114.476 E56.34635
G0 F3600 X89.02 Y113.91
G1 F1800 X90.588 Y115.479 E56.45702
G0 F3600 X91.154 Y115.479
G1 F1800 X89.02 Y113.344 E56.60762
G0 F3600 X89.02 Y112.779
G1 F1800 X91.72 Y115.479 E56.79812
G0 F3600 X92.285 Y115.479
G1 F1800 X89.02 Y112.213 E57.02852
G0 F3600 X89.02 Y111.647
G1 F1800 X90.682 Y113.309 E57.14578
G0 F3600 X91.189 Y113.817
G1 F1800 X92.851 Y115.479 E57.26305
G0 F3600 X93.417 Y115.479
G1 F1800 X92.363 Y114.425 E57.33741
G0 F3600 X93.014 Y114.51
G1 F1800 X93.982 Y115.479 E57.40574
G0 F3600 X94.548 Y115.479
G1 F1800 X93.589 Y114.52 E57.47341
G0 F3600 X94.155 Y114.52
G1 F1800 X95.114 Y115.479 E57.54107
G0 F3600 X95.68 Y115.479
G1 F1800 X94.721 Y114.52 E57.60873
G0 F3600 X95.286 Y114.52
G1 F1800 X96.245 Y115.479 E57.67639
G0 F3600 X96.811 Y115.479
G1 F1800 X95.852 Y114.52 E57.74406
G0 F3600 X96.418 Y114.52
G1 F1800 X97.377 Y115.479 E57.81172
G0 F3600 X97.942 Y115.479
G1 F1800 X96.983 Y114.52 E57.87938
G0 F3600 X97.549 Y114.52
G1 F1800 X98.508 Y115.479 E57.94705
G0 F3600 X99.074 Y115.479
G1 F1800 X98.115 Y114.52 E58.01471
G0 F3600 X98.68 Y114.52
G1 F1800 X99.639 Y115.479 E58.08237
G0 F3600 X100.205 Y115.479
G1 F1800 X99.246 Y114.52 E58.15003
G0 F3600 X99.812 Y114.52
G1 F1800 X100.771 Y115.479 E58.2177
G0 F3600 X101.336 Y115.479
G1 F1800 X100.378 Y114.52 E58.28532
G0 F3600 X100.943 Y114.52
G1 F1800 X101.902 Y115.479 E58.35299
G0 F3600 X102.468 Y115.479
G1 F1800 X101.509 Y114.52 E58.42065
G0 F3600 X102.075 Y114.52
G1 F1800 X103.033 Y115.479 E58.48828
G0 F3600 X103.599 Y115.479
G1 F1800 X102.64 Y114.52 E58.55594
G0 F3600 X103.206 Y114.52
G1 F1800 X104.165 Y115.479 E58.6236
G0 F3600 X104.731 Y115.479
G1 F1800 X103.772 Y114.52 E58.69126
G0 F3600 X104.337 Y114.52
G1 F1800 X105.297 Y115.479 E58.75896
G0 F3600 X105.863 Y115.479
G1 F1800 X104.903 Y114.52 E58.82666
G0 F3600 X105.469 Y114.52
G1 F1800 X106.428 Y115.479 E58.89432
G0 F3600 X106.994 Y115.479
G1 F1800 X106.034 Y114.52 E58.96202
G0 F3600 X106.6 Y114.52
G1 F1800 X107.56 Y115.479 E59.02972
G0 F3600 X108.125 Y115.479
G1 F1800 X107.166 Y114.52 E59.09738
G0 F3600 X107.731 Y114.52
G1 F1800 X108.691 Y115.479 E59.16508
G0 F3600 X109.257 Y115.479
G1 F1800 X108.297 Y114.52 E59.23278
G0 F3600 X108.863 Y114.52
G1 F1800 X109.822 Y115.479 E59.30044
G0 F3600 X110.388 Y115.479
G1 F1800 X109.429 Y114.52 E59.3681
G0 F3600 X109.994 Y114.52
G1 F1800 X110.954 Y115.479 E59.4358
G0 F3600 X111.519 Y115.479
G1 F1800 X110.56 Y114.52 E59.50346
G0 F3600 X111.126 Y114.52
G1 F1800 X112.085 Y115.479 E59.57112
G0 F3600 X112.651 Y115.479
G1 F1800 X111.691 Y114.52 E59.63882
G0 F3600 X112.257 Y114.52
G1 F1800 X113.216 Y115.479 E59.70649
G0 F3600 X113.782 Y115.479
G1 F1800 X112.823 Y114.52 E59.77415
G0 F3600 X113.388 Y114.52
G1 F1800 X114.348 Y115.479 E59.84185
G0 F3600 X114.914 Y115.479
G1 F1800 X113.954 Y114.52 E59.90954
G0 F3600 X114.52 Y114.52
G1 F1800 X115.479 Y115.479 E59.97721
G0 F3600 X116.045 Y115.479
G1 F1800 X115.085 Y114.52 E60.0449
G0 F3600 X115.651 Y114.52
G1 F1800 X116.611 Y115.479 E60.1126
G0 F3600 X117.176 Y115.479
G1 F1800 X116.181 Y114.484 E60.1828
G0 F3600 X116.681 Y114.418
G1 F1800 X117.742 Y115.479 E60.25766
G0 F3600 X118.308 Y115.479
G1 F1800 X117.08 Y114.252 E60.34427
G0 F3600 X117.471 Y114.077
G1 F1800 X118.873 Y115.479 E60.44319
G0 F3600 X119.439 Y115.479
G1 F1800 X117.791 Y113.832 E60.55943
G0 F3600 X118.107 Y113.581
G1 F1800 X119.873 Y115.348 E60.68407
